luts/cubes/apple_neutral.cube
TITLE "apple_neutral"
LUT_3D_SIZE 9
DOMAIN_MIN 0.0 0.0 0.0
DOMAIN_MAX 1.0 1.0 1.0
0.24979347 0.24979347 0.25527491
0.29876444 0.25109732 0.25659759
0.35282083 0.25240569 0.25792474
0.41092636 0.25371856 0.25925637
0.47162763 0.25503594 0.26059246
0.53317970 0.25635780 0.26193300
0.59373797 0.25768415 0.26327797
0.65157407 0.25901496 0.26462738
0.70526377 0.26035024 0.26598121
0.25424240 0.30277621 0.25978766
0.30373244 0.30424446 0.26112552
0.35822852 0.30571671 0.26246783
0.41665128 0.30719293 0.26381457
0.47751270 0.30867312 0.26516574
0.53904925 0.31015724 0.26652132
0.59941816 0.31164529 0.26788131
0.65691288 0.31313723 0.26924569
0.71014588 0.31463305 0.27061445
0.25874323 0.36158050 0.26435187
0.30874667 0.36318537 0.26570479
0.36367251 0.36479329 0.26706213
0.42239875 0.36640424 0.26842387
0.48340402 0.36801817 0.26978999
0.54490799 0.36963507 0.27116049
0.60507175 0.37125490 0.27253536
0.66221230 0.37287763 0.27391457
0.71497980 0.37450323 0.27529813
0.26329562 0.42484644 0.26896712
0.31380638 0.42654450 0.27033499
0.36915164 0.42824429 0.27170723
0.42816732 0.42994578 0.27308383
0.48929995 0.43164893 0.27446477
0.55075432 0.43335369 0.27585005
0.61069738 0.43506003 0.27723964
0.66747130 0.43676792 0.27863355
0.71976492 0.43847730 0.28003174
0.26789915 0.49067416 0.27363298
0.31891076 0.49241007 0.27501565
0.37466472 0.49414617 0.27640265
0.43395549 0.49588240 0.27779396
0.49519887 0.49761874 0.27918958
0.55658667 0.49935513 0.28058948
0.61629369 0.50109154 0.28199365
0.67268889 0.50282792 0.28340209
0.72450066 0.50456423 0.28481477
0.27255339 0.55682688 0.27834897
0.32405895 0.55854018 0.27974629
0.38021051 0.56025209 0.28114789
0.43976172 0.56196256 0.28255376
0.50109912 0.56367156 0.28396389
0.56240345 0.56537905 0.28537825
0.62185936 0.56708499 0.28679684
0.67786412 0.56878934 0.28821963
0.72918648 0.57049207 0.28964662
0.27725787 0.62102369 0.28311455
0.32925007 0.62265699 0.28452636
0.38578775 0.62428750 0.28594241
0.44558449 0.62591521 0.28736267
0.50699906 0.62754007 0.28878713
0.56820313 0.62916206 0.29021578
0.62739311 0.63078114 0.29164860
0.68299609 0.63239728 0.29308557
0.73382189 0.63401045 0.29452668
0.28201207 0.68124454 0.28792917
0.33448320 0.68275089 0.28935530
0.39139514 0.68425342 0.29078561
0.45142223 0.68575210 0.29222008
0.51289706 0.68724693 0.29365870
0.57398417 0.68873787 0.29510145
0.63289369 0.69022491 0.29654832
0.68808391 0.69170802 0.29799927
0.73840641 0.69318719 0.29945431
0.28681544 0.73596458 0.29279222
0.33975737 0.73731204 0.29423249
0.39703134 0.73865508 0.29567688
0.45727337 0.73999367 0.29712537
0.51879147 0.74132780 0.29857795
0.57974506 0.74265747 0.30003461
0.63835987 0.74398266 0.30149531
0.69312678 0.74530337 0.30296005
0.74293963 0.74661959 0.30442880
0.25024917 0.25024917 0.30546575
0.29927383 0.25155460 0.30694130
0.35337595 0.25286454 0.30842081
0.41151477 0.25417899 0.30990426
0.47223328 0.25549794 0.31139164
0.53378454 0.25682137 0.31288292
0.59432405 0.25814929 0.31437808
0.65212559 0.25948167 0.31587710
0.70576868 0.26081851 0.31737997
0.25470346 0.30328949 0.31049584
0.30424663 0.30475914 0.31198477
0.35878742 0.30623278 0.31347760
0.41724207 0.30771039 0.31497430
0.47811907 0.30919196 0.31647485
0.53965305 0.31067746 0.31797923
0.60000156 0.31216687 0.31948743
0.65746040 0.31366017 0.32099940
0.71064586 0.31515734 0.32251515
0.25920962 0.36214169 0.31557113
0.30926559 0.36374763 0.31707321
0.36423509 0.36535661 0.31857911
0.42299179 0.36696861 0.32008881
0.48401094 0.36858358 0.32160229
0.54551058 0.37020151 0.32311952
0.60565234 0.37182236 0.32464049
0.66275570 0.37344609 0.32616516
0.71547479 0.37507269 0.32769353
0.26376729 0.42544038 0.32069079
0.31432993 0.42713905 0.32220576
0.36971777 0.42883945 0.32372449
0.42876245 0.43054152 0.32524693
0.48990725 0.43224524 0.32677308
0.55135555 0.43395056 0.32830290
0.61127501 0.43565744 0.32983638
0.66801048 0.43736586 0.33137348
0.72025485 0.43907575 0.33291419
0.26837606 0.49128153 0.32585397
0.31943885 0.49301751 0.32738158
0.37523428 0.49475365 0.32891286
0.43455254 0.49648993 0.33044778
0.49580638 0.49822629 0.33198632
0.55718636 0.49996269 0.33352846
0.61686822 0.50169910 0.33507417
0.67322375 0.50343546 0.33662343
0.72498547 0.50517174 0.33817620
0.27303550 0.55742652 0.33105976
0.32459151 0.55913933 0.33259974
0.38078337 0.56085074 0.33414330
0.44036055 0.56256070 0.33569042
0.50170668 0.56426918 0.33724108
0.56300146 0.56597613 0.33879525
0.62243066 0.56768152 0.34035290
0.67839457 0.56938531 0.34191401
0.72966613 0.57108745 0.34347855
0.27774512 0.62159548 0.33630723
0.32978700 0.62322782 0.33785929
0.38636377 0.62485735 0.33941484
0.44618493 0.62648407 0.34097388
0.50760650 0.62810793 0.34253636
0.56879929 0.62972890 0.34410226
0.62796106 0.63134695 0.34567155
0.68352203 0.63296206 0.34724422
0.73429631 0.63457418 0.34882022
0.28250441 0.68177204 0.34159540
0.33502440 0.68327705 0.34315925
0.39197419 0.68477824 0.34472650
0.45202413 0.68627558 0.34629714
0.51350420 0.68776904 0.34787114
0.57457833 0.68925862 0.34944846
0.63345815 0.69074429 0.35102909
0.68860527 0.69222602 0.35261300
0.73887557 0.69370381 0.35420014
0.28731281 0.73643655 0.34692326
0.34030274 0.73778247 0.34849859
0.39761328 0.73912395 0.35007723
0.45787656 0.74046098 0.35165917
0.51939814 0.74179355 0.35324436
0.58033705 0.74312166 0.35483280
0.63892072 0.74444528 0.35642444
0.69364345 0.74576442 0.35801925
0.74340349 0.74707907 0.35961722
0.25070542 0.25070542 0.36074466
0.29978373 0.25201243 0.36234792
0.35393146 0.25332395 0.36395425
0.41210343 0.25463998 0.36556363
0.47283901 0.25596049 0.36717601
0.53438928 0.25728550 0.36879136
0.59490985 0.25861497 0.37040967
0.65267671 0.25994891 0.37203089
0.70627310 0.26128731 0.37365499
0.25516506 0.30380326 0.36620507
0.30476131 0.30527431 0.36781864
0.35934672 0.30674934 0.36943517
0.41783311 0.30822834 0.37105464
0.47872550 0.30971128 0.37267701
0.54025673 0.31119815 0.37430226
0.60058468 0.31268893 0.37593034
0.65800750 0.31418359 0.37756123
0.71114534 0.31568211 0.37919490
0.25967655 0.36270325 0.37170007
0.30978498 0.36431026 0.37332359
0.36479804 0.36592030 0.37494997
0.42358506 0.36753334 0.37657917
0.48461790 0.36914936 0.37821118
0.54611304 0.37076831 0.37984594
0.60623263 0.37239017 0.38148344
0.66329867 0.37401491 0.38312363
0.71596926 0.37564249 0.38476649
0.26423950 0.42603454 0.37722845
0.31485395 0.42773382 0.37886156
0.37028427 0.42943481 0.38049741
0.42935778 0.43113746 0.38213599
0.49051458 0.43284174 0.38377725
0.55195663 0.43454761 0.38542116
0.61185232 0.43625504 0.38706769
0.66854922 0.43796398 0.38871680
0.72074425 0.43967439 0.39036847
0.26885351 0.49188892 0.38278896
0.31996742 0.49362496 0.38443128
0.37580419 0.49536116 0.38607624
0.43514979 0.49709747 0.38772380
0.49641391 0.49883385 0.38937393
0.55778590 0.50057026 0.39102661
0.61744243 0.50230665 0.39268178
0.67375816 0.50404299 0.39433943
0.72546976 0.50577923 0.39599951
0.27351814 0.55802598 0.38838032
0.32512452 0.55973831 0.39003147
0.38135656 0.56144921 0.39168514
0.44095956 0.56315866 0.39334130
0.50231423 0.56486661 0.39499992
0.56359929 0.56657302 0.39666096
0.62300163 0.56827785 0.39832439
0.67892456 0.56998107 0.39999016
0.73014523 0.57168263 0.40165826
0.27823290 0.62216695 0.39400122
0.33032437 0.62379830 0.39566080
0.38694011 0.62542686 0.39732280
0.44678553 0.62705258 0.39898716
0.50821391 0.62867543 0.40065386
0.56939525 0.63029539 0.40232287
0.62852865 0.63191241 0.40399414
0.68404751 0.63352648 0.40566764
0.73477019 0.63513755 0.40734333
0.28299727 0.68229907 0.39965031
0.33556603 0.68380275 0.40131793
0.39255354 0.68530259 0.40298784
0.45262616 0.68679858 0.40466000
0.51411130 0.68829068 0.40633438
0.57517226 0.68977890 0.40801094
0.63402224 0.69126319 0.40968964
0.68912614 0.69274355 0.41137045
0.73934419 0.69421994 0.41305333
0.28781070 0.73690799 0.40532622
0.34084854 0.73825236 0.40700147
0.39819551 0.73959228 0.40867888
0.45847987 0.74092775 0.41035843
0.52000476 0.74225876 0.41204007
0.58092881 0.74358530 0.41372376
0.63948119 0.74490736 0.41540947
0.69415964 0.74622492 0.41709717
0.74386680 0.74753799 0.41878681
0.25116222 0.25116222 0.41997809
0.30029412 0.25247081 0.42167096
0.35448737 0.25378391 0.42336567
0.41269235 0.25510151 0.42506219
0.47344482 0.25642360 0.42676047
0.53499391 0.25775017 0.42846048
0.59549539 0.25908121 0.43016218
0.65322742 0.26041671 0.43186554
0.70677700 0.26175666 0.43357050
0.25562722 0.30431752 0.42573797
0.30527648 0.30578996 0.42743694
0.35990639 0.30726639 0.42913763
0.41842438 0.30874677 0.43084000
0.47933199 0.31023109 0.43254400
0.54086029 0.31171933 0.43424960
0.60116751 0.31321146 0.43595675
0.65855418 0.31470747 0.43766543
0.71164430 0.31620734 0.43937558
0.26014402 0.36326519 0.43151807
0.31030485 0.36487326 0.43322271
0.36536137 0.36648436 0.43492894
0.42417854 0.36809844 0.43663670
0.48522491 0.36971549 0.43834597
0.54671537 0.37133546 0.44005671
0.60681261 0.37295833 0.44176887
0.66384121 0.37458407 0.44348241
0.71646321 0.37621265 0.44519730
0.26471225 0.42662892 0.43731689
0.31537844 0.42832880 0.43902675
0.37085112 0.43003037 0.44073805
0.42995332 0.43173360 0.44245077
0.49112194 0.43343844 0.44416485
0.55255755 0.43514486 0.44588027
0.61242932 0.43685282 0.44759697
0.66908752 0.43856228 0.44931493
0.72123313 0.44027319 0.45103410
0.26933149 0.49249633 0.44313289
0.32049644 0.49423243 0.44484751
0.37637443 0.49596868 0.44656344
0.43574723 0.49770501 0.44828065
0.49702144 0.49944141 0.44999909
0.55838526 0.50117782 0.45171873
0.61801631 0.50291420 0.45343952
0.67429213 0.50465051 0.45516142
0.72595351 0.50638670 0.45688440
0.27400131 0.55862528 0.44896452
0.32565799 0.56033711 0.45068344
0.38193008 0.56204751 0.45240354
0.44155873 0.56375644 0.45412478
0.50292178 0.56546385 0.45584712
0.56419693 0.56716971 0.45757051
0.62357225 0.56887399 0.45929492
0.67945409 0.57057663 0.46102030
0.73062381 0.57227760 0.46274662
0.27872120 0.62273807 0.45481022
0.33086219 0.62436845 0.45653298
0.38751677 0.62599602 0.45825678
0.44738629 0.62762074 0.45998158
0.50882129 0.62924258 0.46170734
0.56999101 0.63086151 0.46343402
0.62909589 0.63247750 0.46516157
0.68457251 0.63409053 0.46688997
0.73524354 0.63570055 0.46861915
0.28349065 0.68282564 0.46066840
0.33610810 0.68432797 0.46239453
0.39313320 0.68582647 0.46412156
0.45322834 0.68732110 0.46584945
0.51471836 0.68881185 0.46757817
0.57576599 0.69029869 0.46930766
0.63458597 0.69178161 0.47103789
0.68964654 0.69326058 0.47276881
0.73981226 0.69473559 0.47450039
0.28830910 0.73737888 0.46653746
0.34139475 0.73872170 0.46826649
0.39877803 0.74006006 0.46999628
0.45908330 0.74139397 0.47172679
0.52061132 0.74272342 0.47345798
0.58152034 0.74404839 0.47518981
0.64004128 0.74536888 0.47692224
0.69467535 0.74668487 0.47865522
0.74432956 0.74799636 0.48038872
0.25161958 0.25161958 0.48161003
0.30080500 0.25292975 0.48334431
0.35504367 0.25424442 0.48507898
0.41328151 0.25556359 0.48681402
0.47405071 0.25688725 0.48854937
0.53559845 0.25821538 0.49028501
0.59608066 0.25954799 0.49202087
0.65377772 0.26088505 0.49375693
0.70728040 0.26222656 0.49549314
0.25608993 0.30483227 0.48750473
0.30579214 0.30630611 0.48924020
0.36046645 0.30778392 0.49097593
0.41901589 0.30926568 0.49271188
0.47993855 0.31075137 0.49444800
0.54146374 0.31224098 0.49618426
0.60175006 0.31373447 0.49792060
0.65910043 0.31523183 0.49965700
0.71214274 0.31673305 0.50139341
0.26061204 0.36382750 0.49340291
0.31082520 0.36543664 0.49513909
0.36592506 0.36704878 0.49687539
0.42477224 0.36866391 0.49861177
0.48583197 0.37028198 0.50034817
0.54731756 0.37190297 0.50208457
0.60739230 0.37352685 0.50382092
0.66438332 0.37515358 0.50555717
0.71695664 0.37678314 0.50729330
0.26518554 0.42722350 0.49930293
0.31590341 0.42892398 0.50103934
0.37141832 0.43062614 0.50277572
0.43054906 0.43232993 0.50451204
0.49172933 0.43403533 0.50624825
0.55315833 0.43574229 0.50798430
0.61300601 0.43745078 0.50972017
0.66962538 0.43916075 0.51145580
0.72172149 0.44087217 0.51319115
0.26981002 0.49310377 0.50520314
0.32102593 0.49483992 0.50693930
0.37694503 0.49657620 0.50867528
0.43634485 0.49831257 0.51041106
0.49762899 0.50004897 0.51214658
0.55898445 0.50178537 0.51388181
0.61858986 0.50352173 0.51561671
0.67482564 0.50525801 0.51735123
0.72643673 0.50699416 0.51908534
0.27448501 0.55922440 0.51110191
0.32619191 0.56093574 0.51283732
0.38250393 0.56264563 0.51457242
0.44215808 0.56435403 0.51630718
0.50352931 0.56606090 0.51804154
0.56479438 0.56776622 0.51977546
0.62414253 0.56946992 0.52150891
0.67998316 0.57117198 0.52324184
0.73110184 0.57287236 0.52497421
0.27921003 0.62330885 0.51699758
0.33140045 0.62493825 0.51873177
0.38809374 0.62656482 0.52046551
0.44798721 0.62818854 0.52219876
0.50942865 0.62980937 0.52393147
0.57058657 0.63142728 0.52566361
0.62966277 0.63304223 0.52739513
0.68509705 0.63465421 0.52912599
0.73571634 0.63626317 0.53085615
0.28398456 0.68335173 0.52288852
0.33665060 0.68485273 0.52462101
0.39371316 0.68634987 0.52635291
0.45383066 0.68784315 0.52808417
0.51532537 0.68933253 0.52981476
0.57635949 0.69081801 0.53154463
0.63514933 0.69229955 0.53327374
0.69016646 0.69377713 0.53500206
0.74027979 0.69525075 0.53672953
0.28880801 0.73784923 0.52877311
0.34194139 0.73919049 0.53050341
0.39936084 0.74052730 0.53223299
0.45968686 0.74185965 0.53396179
0.52121782 0.74318753 0.53568977
0.58211164 0.74451094 0.53741690
0.64060099 0.74582985 0.53914313
0.69519056 0.74714427 0.54086842
0.74479177 0.74845419 0.54259274
0.25207749 0.25207749 0.54380669
0.30131639 0.25338924 0.54552924
0.35560037 0.25470549 0.54725070
0.41387092 0.25602623 0.54897103
0.47465667 0.25735145 0.55069019
0.53620288 0.25868115 0.55240814
0.59666565 0.26001531 0.55412485
0.65432761 0.26135393 0.55584026
0.70778330 0.26269699 0.55755434
0.25655319 0.30534750 0.54965548
0.30630828 0.30682274 0.55137416
0.36102689 0.30830193 0.55309162
0.41960763 0.30978507 0.55480781
0.48054516 0.31127213 0.55652270
0.54206706 0.31276310 0.55823624
0.60233232 0.31425795 0.55994839
0.65964627 0.31575667 0.56165912
0.71264068 0.31725922 0.56336839
0.26108061 0.36439019 0.55549057
0.31134603 0.36600038 0.55720493
0.36648912 0.36761357 0.55891792
0.42536616 0.36922973 0.56062951
0.48643906 0.37084883 0.56233967
0.54791962 0.37247083 0.56404834
0.60797168 0.37409571 0.56575549
0.66492500 0.37572344 0.56746108
0.71744955 0.37735398 0.56916508
0.26565938 0.42781830 0.56131041
0.31642884 0.42951937 0.56301997
0.37198588 0.43122210 0.56472804
0.43114500 0.43292646 0.56643458
0.49233674 0.43463242 0.56813954
0.55375894 0.43633992 0.56984289
0.61358238 0.43804893 0.57154459
0.67016280 0.43975941 0.57324459
0.72220931 0.44147132 0.57494287
0.27028908 0.49371122 0.56711342
0.32155588 0.49544743 0.56881775
0.37751596 0.49718374 0.57052044
0.43694266 0.49892013 0.57222147
0.49823654 0.50065653 0.57392079
0.55958347 0.50239293 0.57561837
0.61916308 0.50412926 0.57731417
0.67535870 0.50586550 0.57900815
0.72691942 0.50760159 0.58070027
0.27496924 0.55982335 0.57289808
0.32672628 0.56153419 0.57459672
0.38307810 0.56324356 0.57629359
0.44275760 0.56495143 0.57798867
0.50413684 0.56665777 0.57968191
0.56539165 0.56836252 0.58137328
0.62471247 0.57006565 0.58306274
0.68051177 0.57176713 0.58475024
0.73157934 0.57346691 0.58643577
0.27969939 0.62387929 0.57866288
0.33193915 0.62550770 0.58035538
0.38867103 0.62713328 0.58204599
0.44858827 0.62875599 0.58373468
0.51003599 0.63037580 0.58542140
0.57118192 0.63199268 0.58710612
0.63022930 0.63360660 0.58878881
0.68562111 0.63521752 0.59046942
0.73618860 0.63682542 0.59214792
0.28447898 0.68387736 0.58440630
0.33719354 0.68537701 0.58609223
0.39429342 0.68687281 0.58777615
0.45443311 0.68836472 0.58945802
0.51593234 0.68985274 0.59113779
0.57695277 0.69133684 0.59281544
0.63571231 0.69281700 0.59449093
0.69068589 0.69429320 0.59616422
0.74074677 0.69576542 0.59783528
0.28930744 0.73831904 0.59012689
0.34248845 0.73965874 0.59180583
0.39994393 0.74099399 0.59348262
0.46029053 0.74232478 0.59515724
0.52182426 0.74365110 0.59682965
0.58270270 0.74497293 0.59849981
0.64116032 0.74629027 0.60016768
0.69570529 0.74760312 0.60183324
0.74525343 0.74891145 0.60349644
0.25253595 0.25253595 0.60466652
0.30182826 0.25384928 0.60632562
0.35615745 0.25516710 0.60798228
0.41446058 0.25648941 0.60963646
0.47526271 0.25781620 0.61128812
0.53680720 0.25914746 0.61293722
0.59725036 0.26048318 0.61458375
0.65487708 0.26182336 0.61622765
0.70828568 0.26316797 0.61786890
0.25701699 0.30586323 0.61029420
0.30682492 0.30733985 0.61194484
0.36158770 0.30882043 0.61359293
0.42019960 0.31030494 0.61523841
0.48115183 0.31179338 0.61688126
0.54267026 0.31328570 0.61852145
0.60291429 0.31478191 0.62015893
0.66019168 0.31628197 0.62179369
0.71313810 0.31778586 0.62342569
0.26154972 0.36495325 0.61589265
0.31186734 0.36656449 0.61753445
0.36705355 0.36817872 0.61917356
0.42596029 0.36979591 0.62080997
0.48704620 0.37141603 0.62244363
0.54852153 0.37303905 0.62407452
0.60855076 0.37466493 0.62570259
0.66546624 0.37629364 0.62732783
0.71794194 0.37792516 0.62895019
0.26613375 0.42841330 0.62146057
0.31695474 0.43011496 0.62309313
0.37255380 0.43181827 0.62472290
0.43174114 0.43352319 0.62634985
0.49294417 0.43522969 0.62797395
0.55435940 0.43693772 0.62959516
0.61415843 0.43864725 0.63121345
0.67069977 0.44035824 0.63282880
0.72269662 0.44207065 0.63444117
0.27076867 0.49431870 0.62699666
0.32208629 0.49605495 0.62861961
0.37808723 0.49779129 0.63023966
0.43754065 0.49952769 0.63185679
0.49884410 0.50126410 0.63347096
0.56018232 0.50300047 0.63508213
0.61973596 0.50473678 0.63669029
0.67589130 0.50647297 0.63829540
0.72740158 0.50820900 0.63989742
0.27545401 0.56042213 0.63249966
0.32726111 0.56213246 0.63411264
0.38365260 0.56384131 0.63572262
0.44335728 0.56554865 0.63732956
0.50474436 0.56725443 0.63893345
0.56598872 0.56895863 0.64053424
0.62528206 0.57066118 0.64213191
0.68103991 0.57236207 0.64372642
0.73205630 0.57406125 0.64531776
0.28018927 0.62444939 0.63796835
0.33247829 0.62607681 0.63957100
0.38924862 0.62770139 0.64117056
0.44918948 0.62932309 0.64276697
0.51064329 0.63094188 0.64436023
0.57177707 0.63255772 0.64595029
0.63079546 0.63417059 0.64753714
0.68614471 0.63578046 0.64912073
0.73666033 0.63738730 0.65070105
0.28497392 0.68440252 0.64340154
0.33773690 0.68590083 0.64499353
0.39487397 0.68739526 0.64658231
0.45503569 0.68888582 0.64816787
0.51653926 0.69037247 0.64975016
0.57754583 0.69185519 0.65132917
0.63627493 0.69333397 0.65290485
0.69120485 0.69480878 0.65447720
0.74121320 0.69627960 0.65604618
0.28980737 0.73878830 0.64879808
0.34303593 0.74012645 0.65037907
0.40052730 0.74146014 0.65195676
0.46089432 0.74278936 0.65353112
0.52243063 0.74411411 0.65510213
0.58329352 0.74543437 0.65666975
0.64171927 0.74675014 0.65823397
0.69621953 0.74806141 0.65979476
0.74571454 0.74936817 0.66135208
0.25299497 0.25299497 0.66244692
0.30234063 0.25430986 0.66399829
0.35671493 0.25562926 0.66554612
0.41505048 0.25695314 0.66709040
0.47586882 0.25828149 0.66863110
0.53741142 0.25961432 0.67016820
0.59783480 0.26095160 0.67170166
0.65542614 0.26229333 0.67323147
0.70878756 0.26363950 0.67475761
0.25748135 0.30637944 0.66770410
0.30734203 0.30785745 0.66924337
0.36214889 0.30933941 0.67077902
0.42079181 0.31082530 0.67231103
0.48175856 0.31231509 0.67383939
0.54327334 0.31380878 0.67536405
0.60349596 0.31530634 0.67688501
0.66073667 0.31680774 0.67840223
0.71363500 0.31831297 0.67991570
0.26201937 0.36551667 0.67291983
0.31238913 0.36712896 0.67444671
0.36761834 0.36874423 0.67596991
0.42655464 0.37036245 0.67748938
0.48765337 0.37198359 0.67900511
0.54912330 0.37360761 0.68051708
0.60912953 0.37523449 0.68202526
0.66600705 0.37686418 0.68352963
0.71843381 0.37849667 0.68503017
0.26660867 0.42900852 0.67809316
0.31748111 0.43071075 0.67960739
0.37312206 0.43241463 0.68111785
0.43233748 0.43412011 0.68262452
0.49355162 0.43582715 0.68412737
0.55495971 0.43753571 0.68562638
0.61473416 0.43924576 0.68712153
0.67123630 0.44095725 0.68861280
0.72318339 0.44267014 0.69010016
0.27124880 0.49492619 0.68322318
0.32261715 0.49666248 0.68472450
0.37865885 0.49839885 0.68622198
0.43813882 0.50013525 0.68771559
0.49945166 0.50187165 0.68920530
0.56078100 0.50360801 0.69069111
0.62030852 0.50534428 0.69217299
0.67642345 0.50708042 0.69365091
0.72788320 0.50881639 0.69512487
0.27593930 0.56102073 0.68830903
0.32779638 0.56273055 0.68979719
0.38422743 0.56443888 0.69128144
0.44395713 0.56614568 0.69276174
0.50535186 0.56785091 0.69423809
0.56658561 0.56955453 0.69571046
0.62585131 0.57125651 0.69717883
0.68156759 0.57295681 0.69864319
0.73253273 0.57465538 0.70010351
0.28067967 0.62501914 0.69334987
0.33301787 0.62664557 0.69482464
0.38982653 0.62826914 0.69629542
0.44979085 0.62988983 0.69776219
0.51125056 0.63150759 0.69922495
0.57237200 0.63312240 0.70068366
0.63136127 0.63473422 0.70213830
0.68666782 0.63634304 0.70358887
0.73713150 0.63794880 0.70503535
0.28546937 0.68492721 0.69834492
0.33828069 0.68642416 0.69980606
0.39545483 0.68791725 0.70126316
0.45563841 0.68940644 0.70271619
0.51714614 0.69089171 0.70416513
0.57813867 0.69237306 0.70560996
0.63683718 0.69385045 0.70705068
0.69172332 0.69532387 0.70848726
0.74167909 0.69679329 0.70991969
0.29030782 0.73925702 0.70329342
0.34358383 0.74059361 0.70474073
0.40111096 0.74192574 0.70618393
0.46149822 0.74325339 0.70762300
0.52303694 0.74457658 0.70905793
0.58388410 0.74589527 0.71048869
0.64227783 0.74720946 0.71191528
0.69673328 0.74851915 0.71333768
0.74617510 0.74982433 0.71475587
0.25332832 0.25332832 0.70162768
0.30271266 0.25464436 0.70307969
0.35711961 0.25596489 0.70452760
0.41547860 0.25728991 0.70597141
0.47630860 0.25861940 0.70741109
0.53784970 0.25995336 0.70884663
0.59825864 0.26129177 0.71027801
0.65582422 0.26263463 0.71170522
0.70915135 0.26398192 0.71312823
0.25781857 0.30675425 0.70654496
0.30771750 0.30823327 0.70798300
0.36255627 0.30971622 0.70941688
0.42122159 0.31120311 0.71084660
0.48219877 0.31269389 0.71227214
0.54371079 0.31418856 0.71369348
0.60391778 0.31568710 0.71511061
0.66113178 0.31718947 0.71652352
0.71399518 0.31869567 0.71793217
0.26236044 0.36592566 0.71141453
0.31276797 0.36753871 0.71283840
0.36802831 0.36915474 0.71425807
0.42698596 0.37077370 0.71567352
0.48809389 0.37239557 0.71708473
0.54955979 0.37402032 0.71849170
0.60954924 0.37564791 0.71989440
0.66639913 0.37727832 0.72129282
0.71879033 0.37891151 0.72268695
0.26695355 0.42944047 0.71623575
0.31786328 0.43114312 0.71764528
0.37353455 0.43284741 0.71905055
0.43277024 0.43455329 0.72045155
0.49399233 0.43626072 0.72184826
0.55539512 0.43796966 0.72324068
0.61515165 0.43968008 0.72462879
0.67162526 0.44139193 0.72601257
0.72353621 0.44310517 0.72739201
0.27159746 0.49536693 0.72100802
0.32300258 0.49710324 0.72240302
0.37907376 0.49883962 0.72379373
0.43857290 0.50057603 0.72518011
0.49989244 0.50231243 0.72656217
0.56121522 0.50404876 0.72793988
0.62072369 0.50578500 0.72931324
0.67680923 0.50752111 0.73068223
0.72823228 0.50925703 0.73204684
0.27629170 0.56145490 0.72573075
0.32818499 0.56316434 0.72711108
0.38464467 0.56487229 0.72848706
0.44439241 0.56657869 0.72985869
0.50579258 0.56828352 0.73122593
0.56701852 0.56998673 0.73258880
0.62626407 0.57168829 0.73394727
0.68195012 0.57338815 0.73530133
0.73287803 0.57508628 0.73665097
0.28103578 0.62543227 0.73040344
0.33340961 0.62705798 0.73176894
0.39024599 0.62868082 0.73313006
0.45022722 0.63030077 0.73448677
0.51169111 0.63191778 0.73583908
0.57280349 0.63353184 0.73718696
0.63177153 0.63514290 0.73853040
0.68704705 0.63675094 0.73986940
0.73747300 0.63835593 0.74120395
0.28582914 0.68530757 0.73502558
0.33867547 0.68680354 0.73637612
0.39587641 0.68829564 0.73772224
0.45607575 0.68978384 0.73906392
0.51758638 0.69126812 0.74040115
0.57856862 0.69274846 0.74173392
0.63724485 0.69422485 0.74306222
0.69209917 0.69569725 0.74438605
0.74201675 0.69716566 0.74570539
0.29067121 0.73959673 0.73959673
0.34398158 0.74093219 0.74093219
0.40153457 0.74226318 0.74226318
0.46193642 0.74358970 0.74358970
0.52347677 0.74491175 0.74491175
0.58431241 0.74622930 0.74622930
0.64268281 0.74754235 0.74754235
0.69710569 0.74885090 0.74885090
0.74650888 0.75015493 0.75015493
