luts/cubes/apple_neutral.cube
TITLE "apple_neutral"
LUT_3D_SIZE 5
DOMAIN_MIN 0.0 0.0 0.0
DOMAIN_MAX 1.0 1.0 1.0
0.24979347 0.24979347 0.25527491
0.35282083 0.25240569 0.25792474
0.47162763 0.25503594 0.26059246
0.59373797 0.25768415 0.26327797
0.70526377 0.26035024 0.26598121
0.25874323 0.36158050 0.26435187
0.36367251 0.36479329 0.26706213
0.48340402 0.36801817 0.26978999
0.60507175 0.37125490 0.27253536
0.71497980 0.37450323 0.27529813
0.26789915 0.49067416 0.27363298
0.37466472 0.49414617 0.27640265
0.49519887 0.49761874 0.27918958
0.61629369 0.50109154 0.28199365
0.72450066 0.50456423 0.28481477
0.27725787 0.62102369 0.28311455
0.38578775 0.62428750 0.28594241
0.50699906 0.62754007 0.28878713
0.62739311 0.63078114 0.29164860
0.73382189 0.63401045 0.29452668
0.28681544 0.73596458 0.29279222
0.39703134 0.73865508 0.29567688
0.51879147 0.74132780 0.29857795
0.63835987 0.74398266 0.30149531
0.74293963 0.74661959 0.30442880
0.25070542 0.25070542 0.36074466
0.35393146 0.25332395 0.36395425
0.47283901 0.25596049 0.36717601
0.59490985 0.25861497 0.37040967
0.70627310 0.26128731 0.37365499
0.25967655 0.36270325 0.37170007
0.36479804 0.36592030 0.37494997
0.48461790 0.36914936 0.37821118
0.60623263 0.37239017 0.38148344
0.71596926 0.37564249 0.38476649
0.26885351 0.49188892 0.38278896
0.37580419 0.49536116 0.38607624
0.49641391 0.49883385 0.38937393
0.61744243 0.50230665 0.39268178
0.72546976 0.50577923 0.39599951
0.27823290 0.62216695 0.39400122
0.38694011 0.62542686 0.39732280
0.50821391 0.62867543 0.40065386
0.62852865 0.63191241 0.40399414
0.73477019 0.63513755 0.40734333
0.28781070 0.73690799 0.40532622
0.39819551 0.73959228 0.40867888
0.52000476 0.74225876 0.41204007
0.63948119 0.74490736 0.41540947
0.74386680 0.74753799 0.41878681
0.25161958 0.25161958 0.48161003
0.35504367 0.25424442 0.48507898
0.47405071 0.25688725 0.48854937
0.59608066 0.25954799 0.49202087
0.70728040 0.26222656 0.49549314
0.26061204 0.36382750 0.49340291
0.36592506 0.36704878 0.49687539
0.48583197 0.37028198 0.50034817
0.60739230 0.37352685 0.50382092
0.71695664 0.37678314 0.50729330
0.26981002 0.49310377 0.50520314
0.37694503 0.49657620 0.50867528
0.49762899 0.50004897 0.51214658
0.61858986 0.50352173 0.51561671
0.72643673 0.50699416 0.51908534
0.27921003 0.62330885 0.51699758
0.38809374 0.62656482 0.52046551
0.50942865 0.62980937 0.52393147
0.62966277 0.63304223 0.52739513
0.73571634 0.63626317 0.53085615
0.28880801 0.73784923 0.52877311
0.39936084 0.74052730 0.53223299
0.52121782 0.74318753 0.53568977
0.64060099 0.74582985 0.53914313
0.74479177 0.74845419 0.54259274
0.25253595 0.25253595 0.60466652
0.35615745 0.25516710 0.60798228
0.47526271 0.25781620 0.61128812
0.59725036 0.26048318 0.61458375
0.70828568 0.26316797 0.61786890
0.26154972 0.36495325 0.61589265
0.36705355 0.36817872 0.61917356
0.48704620 0.37141603 0.62244363
0.60855076 0.37466493 0.62570259
0.71794194 0.37792516 0.62895019
0.27076867 0.49431870 0.62699666
0.37808723 0.49779129 0.63023966
0.49884410 0.50126410 0.63347096
0.61973596 0.50473678 0.63669029
0.72740158 0.50820900 0.63989742
0.28018927 0.62444939 0.63796835
0.38924862 0.62770139 0.64117056
0.51064329 0.63094188 0.64436023
0.63079546 0.63417059 0.64753714
0.73666033 0.63738730 0.65070105
0.28980737 0.73878830 0.64879808
0.40052730 0.74146014 0.65195676
0.52243063 0.74411411 0.65510213
0.64171927 0.74675014 0.65823397
0.74571454 0.74936817 0.66135208
0.25332832 0.25332832 0.70162768
0.35711961 0.25596489 0.70452760
0.47630860 0.25861940 0.70741109
0.59825864 0.26129177 0.71027801
0.70915135 0.26398192 0.71312823
0.26236044 0.36592566 0.71141453
0.36802831 0.36915474 0.71425807
0.48809389 0.37239557 0.71708473
0.60954924 0.37564791 0.71989440
0.71879033 0.37891151 0.72268695
0.27159746 0.49536693 0.72100802
0.37907376 0.49883962 0.72379373
0.49989244 0.50231243 0.72656217
0.62072369 0.50578500 0.72931324
0.72823228 0.50925703 0.73204684
0.28103578 0.62543227 0.73040344
0.39024599 0.62868082 0.73313006
0.51169111 0.63191778 0.73583908
0.63177153 0.63514290 0.73853040
0.73747300 0.63835593 0.74120395
0.29067121 0.73959673 0.73959673
0.40153457 0.74226318 0.74226318
0.52347677 0.74491175 0.74491175
0.64268281 0.74754235 0.74754235
0.74650888 0.75015493 0.75015493
