luts/cubes/apple_neutral.cube
TITLE "apple_neutral"
LUT_3D_SIZE 33
DOMAIN_MIN 0.0 0.0 0.0
DOMAIN_MAX 1.0 1.0 1.0
0.24979347 0.24979347 0.25527491
0.26152011 0.25011901 0.25560516
0.27359650 0.25044483 0.25593569
0.28601456 0.25077093 0.25626650
0.29876444 0.25109732 0.25659759
0.31183444 0.25142399 0.25692896
0.32521105 0.25175094 0.25726061
0.33887890 0.25207817 0.25759254
0.35282083 0.25240569 0.25792474
0.36701793 0.25273348 0.25825723
0.38144959 0.25306156 0.25859000
0.39609362 0.25338992 0.25892305
0.41092636 0.25371856 0.25925637
0.42592281 0.25404748 0.25958998
0.44105676 0.25437669 0.25992386
0.45630104 0.25470617 0.26025802
0.47162763 0.25503594 0.26059246
0.48700790 0.25536598 0.26092718
0.50241281 0.25569631 0.26126217
0.51781314 0.25602691 0.26159745
0.53317970 0.25635780 0.26193300
0.54848356 0.25668897 0.26226883
0.56369627 0.25702041 0.26260493
0.57879004 0.25735214 0.26294131
0.59373797 0.25768415 0.26327797
0.60851424 0.25801643 0.26361491
0.62309424 0.25834900 0.26395213
0.63745475 0.25868184 0.26428962
0.65157407 0.25901496 0.26462738
0.66543211 0.25934837 0.26496543
0.67901051 0.25968205 0.26530375
0.69229266 0.26001601 0.26564234
0.70526377 0.26035024 0.26598121
0.25090082 0.26244218 0.25639825
0.26266124 0.26277843 0.25672945
0.27477072 0.26311496 0.25706094
0.28722100 0.26345176 0.25739270
0.30000206 0.26378884 0.25772474
0.31310203 0.26412620 0.25805706
0.32650722 0.26446383 0.25838966
0.34020208 0.26480174 0.25872253
0.35416929 0.26513992 0.25905569
0.36838976 0.26547839 0.25938913
0.38284274 0.26581712 0.25972284
0.39750588 0.26615614 0.26005684
0.41235540 0.26649542 0.26039111
0.42736615 0.26683499 0.26072566
0.44251187 0.26717483 0.26106049
0.45776525 0.26751494 0.26139559
0.47309822 0.26785533 0.26173098
0.48848211 0.26819599 0.26206664
0.50388785 0.26853693 0.26240258
0.51928620 0.26887814 0.26273879
0.53464801 0.26921962 0.26307529
0.54994437 0.26956138 0.26341206
0.56514688 0.26990342 0.26374911
0.58022784 0.27024572 0.26408643
0.59516044 0.27058830 0.26442403
0.60991896 0.27093115 0.26476191
0.62447892 0.27127428 0.26510006
0.63881726 0.27161768 0.26543849
0.65291241 0.27196135 0.26577719
0.66674445 0.27230529 0.26611617
0.68029517 0.27264950 0.26645543
0.69354815 0.27299399 0.26679496
0.70648878 0.27333875 0.26713477
0.25201142 0.27549618 0.25752483
0.26380557 0.27584290 0.25785698
0.27594806 0.27618989 0.25818941
0.28843048 0.27653714 0.25852212
0.30124261 0.27688467 0.25885511
0.31437243 0.27723247 0.25918838
0.32780604 0.27758054 0.25952193
0.34152776 0.27792887 0.25985575
0.35552006 0.27827748 0.26018986
0.36976372 0.27862635 0.26052424
0.38423781 0.27897549 0.26085890
0.39891985 0.27932490 0.26119384
0.41378591 0.27967458 0.26152906
0.42881074 0.28002453 0.26186455
0.44396795 0.28037474 0.26220032
0.45923018 0.28072522 0.26253637
0.47456928 0.28107597 0.26287270
0.48995652 0.28142698 0.26320930
0.50536282 0.28177826 0.26354618
0.52075894 0.28212981 0.26388334
0.53611572 0.28248162 0.26422078
0.55140432 0.28283370 0.26455849
0.56659638 0.28318604 0.26489647
0.58166427 0.28353865 0.26523474
0.59658130 0.28389153 0.26557328
0.61132185 0.28424467 0.26591209
0.62586158 0.28459807 0.26625118
0.64017754 0.28495174 0.26659054
0.65424833 0.28530567 0.26693019
0.66805420 0.28565987 0.26727010
0.68157710 0.28601433 0.26761029
0.69480078 0.28636905 0.26795076
0.70771081 0.28672404 0.26829150
0.25312529 0.28894511 0.25865463
0.26495310 0.28930200 0.25898773
0.27712852 0.28965914 0.25932111
0.28964297 0.29001655 0.25965477
0.30248607 0.29037422 0.25998871
0.31564560 0.29073215 0.26032292
0.32910751 0.29109034 0.26065742
0.34285592 0.29144879 0.26099219
0.35687315 0.29180750 0.26132724
0.37113979 0.29216647 0.26166257
0.38563479 0.29252570 0.26199817
0.40033550 0.29288519 0.26233405
0.41521787 0.29324493 0.26267021
0.43025654 0.29360494 0.26300665
0.44542501 0.29396520 0.26334336
0.46069583 0.29432572 0.26368036
0.47604078 0.29468650 0.26401762
0.49143111 0.29504753 0.26435517
0.50683770 0.29540882 0.26469299
0.52223131 0.29577037 0.26503108
0.53758281 0.29613218 0.26536946
0.55286338 0.29649424 0.26570811
0.56804473 0.29685656 0.26604703
0.58309933 0.29721913 0.26638623
0.59800055 0.29758196 0.26672570
0.61272291 0.29794505 0.26706545
0.62724218 0.29830838 0.26740548
0.64153557 0.29867198 0.26774578
0.65558183 0.29903583 0.26808635
0.66936136 0.29939993 0.26842720
0.68285629 0.29976428 0.26876833
0.69605054 0.30012889 0.26910972
0.70892984 0.30049375 0.26945139
0.25424240 0.30277621 0.25978766
0.26610381 0.30314290 0.26012171
0.27831209 0.30350983 0.26045603
0.29085849 0.30387702 0.26079064
0.30373244 0.30424446 0.26112552
0.31692155 0.30461215 0.26146068
0.33041160 0.30498008 0.26179612
0.34418654 0.30534827 0.26213183
0.35822852 0.30571671 0.26246783
0.37251796 0.30608539 0.26280410
0.38703365 0.30645432 0.26314064
0.40175282 0.30682350 0.26347747
0.41665128 0.30719293 0.26381457
0.43170353 0.30756261 0.26415195
0.44688300 0.30793253 0.26448960
0.46216215 0.30830270 0.26482753
0.47751270 0.30867312 0.26516574
0.49290585 0.30904378 0.26550422
0.50831246 0.30941469 0.26584298
0.52370330 0.30978584 0.26618201
0.53904925 0.31015724 0.26652132
0.55432153 0.31052889 0.26686091
0.56949193 0.31090078 0.26720077
0.58453298 0.31127291 0.26754090
0.59941816 0.31164529 0.26788131
0.61412210 0.31201791 0.26822199
0.62862071 0.31239077 0.26856295
0.64289134 0.31276388 0.26890418
0.65691288 0.31313723 0.26924569
0.67066591 0.31351082 0.26958747
0.68413272 0.31388466 0.26992952
0.69729741 0.31425873 0.27027185
0.71014588 0.31463305 0.27061445
0.25536275 0.31697424 0.26092390
0.26725771 0.31735029 0.26125890
0.27949876 0.31772658 0.26159417
0.29207700 0.31810312 0.26192971
0.30498169 0.31847989 0.26226554
0.31820026 0.31885689 0.26260164
0.33171831 0.31923414 0.26293802
0.34551961 0.31961162 0.26327468
0.35958615 0.31998934 0.26361162
0.37389820 0.32036729 0.26394883
0.38843439 0.32074548 0.26428632
0.40317179 0.32112391 0.26462408
0.41808609 0.32150257 0.26496212
0.43315169 0.32188146 0.26530044
0.44834190 0.32226059 0.26563903
0.46362912 0.32263996 0.26597790
0.47898501 0.32301956 0.26631704
0.49438071 0.32339939 0.26665646
0.50978707 0.32377945 0.26699615
0.52517487 0.32415975 0.26733612
0.54051501 0.32454028 0.26767637
0.55577875 0.32492104 0.26801688
0.57093794 0.32530203 0.26835768
0.58596519 0.32568326 0.26869874
0.60083411 0.32606471 0.26904009
0.61551941 0.32644640 0.26938170
0.62999715 0.32682831 0.26972359
0.64424482 0.32721046 0.27006575
0.65824147 0.32759283 0.27040819
0.67196784 0.32797543 0.27075090
0.68540638 0.32835827 0.27109388
0.69854138 0.32874133 0.27143713
0.71135890 0.32912462 0.27178066
0.25648635 0.33152147 0.26206335
0.26841477 0.33190640 0.26239929
0.28068853 0.33229155 0.26273550
0.29329851 0.33267693 0.26307200
0.30623382 0.33306253 0.26340876
0.31948172 0.33344835 0.26374581
0.33302762 0.33383440 0.26408313
0.34685512 0.33422067 0.26442073
0.36094604 0.33460716 0.26475860
0.37528050 0.33499388 0.26509675
0.38983696 0.33538081 0.26543518
0.40459238 0.33576797 0.26577388
0.41952229 0.33615535 0.26611286
0.43460099 0.33654295 0.26645211
0.44980170 0.33693077 0.26679164
0.46509673 0.33731880 0.26713144
0.48045768 0.33770706 0.26747152
0.49585567 0.33809554 0.26781187
0.51126152 0.33848423 0.26815250
0.52664601 0.33887315 0.26849340
0.54198007 0.33926228 0.26883458
0.55723501 0.33965163 0.26917603
0.57238274 0.34004119 0.26951775
0.58739596 0.34043097 0.26985975
0.60224837 0.34082097 0.27020202
0.61691482 0.34121118 0.27054457
0.63137148 0.34160161 0.27088739
0.64559600 0.34199226 0.27123048
0.65956758 0.34238311 0.27157384
0.67326712 0.34277419 0.27191747
0.68667726 0.34316547 0.27226138
0.69978243 0.34355697 0.27260556
0.71256890 0.34394868 0.27295001
0.25761318 0.34639775 0.26320601
0.26957501 0.34679099 0.26354289
0.28188137 0.34718444 0.26388004
0.29452300 0.34757810 0.26421748
0.30748882 0.34797196 0.26455518
0.32076591 0.34836604 0.26489317
0.33433950 0.34876032 0.26523143
0.34819304 0.34915481 0.26556996
0.36230817 0.34954950 0.26590878
0.37666484 0.34994440 0.26624786
0.39124137 0.35033951 0.26658723
0.40601456 0.35073482 0.26692686
0.42095985 0.35113034 0.26726678
0.43605141 0.35152606 0.26760696
0.45126236 0.35192199 0.26794743
0.46656494 0.35231812 0.26828816
0.48193069 0.35271445 0.26862917
0.49733070 0.35311099 0.26897046
0.51273577 0.35350773 0.26931202
0.52811668 0.35390467 0.26965385
0.54344440 0.35430181 0.26999596
0.55869028 0.35469915 0.27033834
0.57382630 0.35509670 0.27068099
0.58882525 0.35549444 0.27102392
0.60366093 0.35589238 0.27136712
0.61830830 0.35629052 0.27171059
0.63274368 0.35668886 0.27205433
0.64694485 0.35708740 0.27239835
0.66089119 0.35748614 0.27274264
0.67456375 0.35788507 0.27308720
0.68794534 0.35828421 0.27343203
0.70102057 0.35868353 0.27377713
0.71377587 0.35908306 0.27412251
0.25874323 0.36158050 0.26435187
0.27073840 0.36198143 0.26468968
0.28307729 0.36238255 0.26502778
0.29575047 0.36278386 0.26536615
0.30874667 0.36318537 0.26570479
0.32205281 0.36358706 0.26604371
0.33565396 0.36398895 0.26638291
0.34953336 0.36439103 0.26672238
0.36367251 0.36479329 0.26706213
0.37805119 0.36519575 0.26740215
0.39264757 0.36559839 0.26774245
0.40743833 0.36600122 0.26808302
0.42239875 0.36640424 0.26842387
0.43750292 0.36680744 0.26876499
0.45272386 0.36721083 0.26910638
0.46803373 0.36761441 0.26944805
0.48340402 0.36801817 0.26978999
0.49880577 0.36842212 0.27013221
0.51420980 0.36882625 0.27047470
0.52958687 0.36923057 0.27081746
0.54490799 0.36963507 0.27116049
0.56014455 0.37003976 0.27150380
0.57526861 0.37044462 0.27184738
0.59025305 0.37084967 0.27219123
0.60507175 0.37125490 0.27253536
0.61969983 0.37166031 0.27287975
0.63411373 0.37206590 0.27322442
0.64829138 0.37247168 0.27356936
0.66221230 0.37287763 0.27391457
0.67585772 0.37328376 0.27426006
0.68921061 0.37369007 0.27460581
0.70225577 0.37409656 0.27495183
0.71497980 0.37450323 0.27529813
0.25987651 0.37704482 0.26550091
0.27190494 0.37745276 0.26583967
0.28427628 0.37786088 0.26617870
0.29698090 0.37826916 0.26651800
0.31000737 0.37867762 0.26685759
0.32334243 0.37908625 0.26719744
0.33697096 0.37949505 0.26753757
0.35087606 0.37990402 0.26787798
0.36503904 0.38031317 0.26821866
0.37943953 0.38072248 0.26855962
0.39405556 0.38113196 0.26890085
0.40886365 0.38154162 0.26924235
0.42383898 0.38195144 0.26958413
0.43895551 0.38236143 0.26992618
0.45418618 0.38277158 0.27026850
0.46950307 0.38318191 0.27061110
0.48487763 0.38359240 0.27095397
0.50028087 0.38400305 0.27129711
0.51568358 0.38441387 0.27164053
0.53105655 0.38482486 0.27198422
0.54637079 0.38523601 0.27232818
0.56159779 0.38564732 0.27267241
0.57670964 0.38605880 0.27301691
0.59167932 0.38647044 0.27336169
0.60648084 0.38688225 0.27370674
0.62108941 0.38729421 0.27405206
0.63548162 0.38770634 0.27439765
0.64963555 0.38811862 0.27474351
0.66353088 0.38853107 0.27508964
0.67714900 0.38894368 0.27543604
0.69047306 0.38935644 0.27578271
0.70348802 0.38976937 0.27612966
0.71618068 0.39018245 0.27647687
0.26101301 0.39276364 0.26665314
0.27307463 0.39317785 0.26699283
0.28547832 0.39359222 0.26733280
0.29821427 0.39400674 0.26767304
0.31127089 0.39442141 0.26801355
0.32463473 0.39483623 0.26835434
0.33829050 0.39525121 0.26869541
0.35222113 0.39566633 0.26903675
0.36640775 0.39608161 0.26937836
0.38082986 0.39649703 0.26972025
0.39546531 0.39691261 0.27006240
0.41029051 0.39732833 0.27040484
0.42528050 0.39774421 0.27074754
0.44040914 0.39816023 0.27109052
0.45564928 0.39857639 0.27143377
0.47097294 0.39899271 0.27177730
0.48635151 0.39940917 0.27212110
0.50175597 0.39982577 0.27246517
0.51715709 0.40024252 0.27280951
0.53252568 0.40065942 0.27315412
0.54783280 0.40107646 0.27349900
0.56304997 0.40149364 0.27384416
0.57814936 0.40191096 0.27418959
0.59310405 0.40232843 0.27453528
0.60788815 0.40274604 0.27488125
0.62247700 0.40316379 0.27522749
0.63684732 0.40358168 0.27557400
0.65097734 0.40399971 0.27592078
0.66484691 0.40441788 0.27626783
0.67843758 0.40483618 0.27661515
0.69173267 0.40525463 0.27696274
0.70471732 0.40567322 0.27731060
0.71737850 0.40609194 0.27765873
0.26215271 0.40870784 0.26780855
0.27424746 0.40912753 0.26814917
0.28668340 0.40954736 0.26849007
0.29945059 0.40996732 0.26883124
0.31253724 0.41038742 0.26917269
0.32592971 0.41080764 0.26951441
0.33961257 0.41122800 0.26985641
0.35356854 0.41164848 0.27019868
0.36777863 0.41206909 0.27054122
0.38222214 0.41248983 0.27088403
0.39687680 0.41291070 0.27122712
0.41171887 0.41333170 0.27157048
0.42672329 0.41375282 0.27191411
0.44186379 0.41417407 0.27225802
0.45711316 0.41459545 0.27260220
0.47244332 0.41501694 0.27294664
0.48782563 0.41543857 0.27329137
0.50323103 0.41586032 0.27363636
0.51863030 0.41628219 0.27398162
0.53399425 0.41670418 0.27432716
0.54929399 0.41712630 0.27467296
0.56450107 0.41754854 0.27501904
0.57958776 0.41797089 0.27536539
0.59452722 0.41839337 0.27571200
0.60929367 0.41881597 0.27605889
0.62386258 0.41923869 0.27640605
0.63821082 0.41966153 0.27675347
0.65231675 0.42008448 0.27710117
0.66616039 0.42050755 0.27744914
0.67972346 0.42093074 0.27779737
0.69298944 0.42135404 0.27814587
0.70594366 0.42177746 0.27849465
0.71857325 0.42220100 0.27884369
0.26329562 0.42484644 0.26896712
0.27542341 0.42527079 0.26930868
0.28789153 0.42569525 0.26965051
0.30068984 0.42611982 0.26999261
0.31380638 0.42654450 0.27033499
0.32722736 0.42696929 0.27067764
0.34093713 0.42739418 0.27102056
0.35491829 0.42781918 0.27136376
0.36915164 0.42824429 0.27170723
0.38361635 0.42866951 0.27205097
0.39829001 0.42909483 0.27239498
0.41314873 0.42952025 0.27273927
0.42816732 0.42994578 0.27308383
0.44331945 0.43037141 0.27342866
0.45857777 0.43079715 0.27377376
0.47391417 0.43122299 0.27411913
0.48929995 0.43164893 0.27446477
0.50470603 0.43207497 0.27481068
0.52010318 0.43250111 0.27515687
0.53546224 0.43292735 0.27550332
0.55075432 0.43335369 0.27585005
0.56595106 0.43378013 0.27619704
0.58102481 0.43420667 0.27654431
0.59594880 0.43463330 0.27689184
0.61069738 0.43506003 0.27723964
0.62524614 0.43548686 0.27758772
0.63957209 0.43591379 0.27793606
0.65365375 0.43634080 0.27828467
0.66747130 0.43676792 0.27863355
0.68100661 0.43719512 0.27898269
0.69424335 0.43762242 0.27933211
0.70716701 0.43804982 0.27968179
0.71976492 0.43847730 0.28003174
0.26444172 0.44114686 0.27012886
0.27660249 0.44157499 0.27047135
0.28910268 0.44200321 0.27081411
0.30193201 0.44243151 0.27115714
0.31507832 0.44285991 0.27150044
0.32852765 0.44328838 0.27184402
0.34226419 0.44371694 0.27218787
0.35627034 0.44414558 0.27253199
0.37052678 0.44457431 0.27287639
0.38501249 0.44500312 0.27322105
0.39970491 0.44543201 0.27356599
0.41458005 0.44586099 0.27391120
0.42961259 0.44629004 0.27425668
0.44477607 0.44671917 0.27460243
0.46004310 0.44714839 0.27494845
0.47538548 0.44757768 0.27529474
0.49077447 0.44800705 0.27564130
0.50618096 0.44843649 0.27598813
0.52157572 0.44886602 0.27633524
0.53692960 0.44929562 0.27668261
0.55221378 0.44972529 0.27703025
0.56739993 0.45015505 0.27737816
0.58246048 0.45058487 0.27772634
0.59736877 0.45101477 0.27807479
0.61209926 0.45144474 0.27842351
0.62662766 0.45187479 0.27877249
0.64093113 0.45230490 0.27912175
0.65498833 0.45273509 0.27947127
0.66877961 0.45316535 0.27982106
0.68228702 0.45359568 0.28017111
0.69549439 0.45402608 0.28052144
0.70838738 0.45445655 0.28087203
0.72095351 0.45488708 0.28122289
0.26559101 0.45757513 0.27129376
0.27778467 0.45800614 0.27163717
0.29031685 0.45843721 0.27198086
0.30317708 0.45886835 0.27232481
0.31635304 0.45929954 0.27266904
0.32983058 0.45973080 0.27301355
0.34359372 0.46016212 0.27335832
0.35762470 0.46059349 0.27370336
0.37190401 0.46102493 0.27404868
0.38641052 0.46145642 0.27439427
0.40112150 0.46188797 0.27474013
0.41601282 0.46231958 0.27508625
0.43105905 0.46275125 0.27543265
0.44623365 0.46318297 0.27577932
0.46150912 0.46361475 0.27612626
0.47685722 0.46404658 0.27647347
0.49224914 0.46447846 0.27682095
0.50765577 0.46491040 0.27716870
0.52304788 0.46534239 0.27751672
0.53839633 0.46577443 0.27786501
0.55367234 0.46620653 0.27821356
0.56884765 0.46663867 0.27856239
0.58389476 0.46707087 0.27891148
0.59878711 0.46750311 0.27926084
0.61349928 0.46793541 0.27961047
0.62800712 0.46836775 0.27996036
0.64228790 0.46880014 0.28031053
0.65632048 0.46923257 0.28066096
0.67008533 0.46966505 0.28101166
0.68356468 0.47009758 0.28136262
0.69674254 0.47053015 0.28171385
0.70960476 0.47096277 0.28206535
0.72213900 0.47139543 0.28241711
0.26674349 0.47409619 0.27246180
0.27896996 0.47452915 0.27280614
0.29153403 0.47496214 0.27315075
0.30442505 0.47539518 0.27349563
0.31763052 0.47582825 0.27384078
0.33113612 0.47626135 0.27418621
0.34492570 0.47669449 0.27453190
0.35898133 0.47712767 0.27487787
0.37328334 0.47756088 0.27522411
0.38781042 0.47799413 0.27557061
0.40253973 0.47842741 0.27591739
0.41744700 0.47886072 0.27626444
0.43250669 0.47929406 0.27661175
0.44769215 0.47972743 0.27695934
0.46297581 0.48016084 0.27730720
0.47832935 0.48059427 0.27765532
0.49372395 0.48102773 0.27800371
0.50913046 0.48146122 0.27835238
0.52451964 0.48189474 0.27870131
0.53986240 0.48232829 0.27905051
0.55512998 0.48276187 0.27939997
0.57029419 0.48319546 0.27974971
0.58532762 0.48362909 0.28009971
0.60020380 0.48406274 0.28044998
0.61489743 0.48449641 0.28080052
0.62938449 0.48493011 0.28115132
0.64364240 0.48536383 0.28150240
0.65765016 0.48579757 0.28185373
0.67138842 0.48623133 0.28220534
0.68483957 0.48666512 0.28255721
0.69798780 0.48709892 0.28290934
0.71081912 0.48753274 0.28326174
0.72332139 0.48796659 0.28361441
0.26789915 0.49067416 0.27363298
0.28015835 0.49110812 0.27397824
0.29275421 0.49154209 0.27432378
0.30567590 0.49197607 0.27466958
0.31891076 0.49241007 0.27501565
0.33244427 0.49284408 0.27536200
0.34626013 0.49327810 0.27570861
0.36034022 0.49371213 0.27605550
0.37466472 0.49414617 0.27640265
0.38921218 0.49458021 0.27675008
0.40395960 0.49501427 0.27709777
0.41888259 0.49544833 0.27744573
0.43395549 0.49588240 0.27779396
0.44915155 0.49631648 0.27814247
0.46444314 0.49675056 0.27849123
0.47980186 0.49718465 0.27884027
0.49519887 0.49761874 0.27918958
0.51060498 0.49805283 0.27953915
0.52599098 0.49848693 0.27988899
0.54132777 0.49892103 0.28023910
0.55658667 0.49935513 0.28058948
0.57173953 0.49978923 0.28094012
0.58675903 0.50022334 0.28129103
0.60161882 0.50065744 0.28164221
0.61629369 0.50109154 0.28199365
0.63075976 0.50152564 0.28234536
0.64499461 0.50195974 0.28269734
0.65897738 0.50239383 0.28304958
0.67268889 0.50282792 0.28340209
0.68611169 0.50326201 0.28375486
0.69923016 0.50369609 0.28410790
0.71203047 0.50413017 0.28446120
0.72450066 0.50456423 0.28481477
0.26905797 0.50727267 0.27480730
0.28134982 0.50770667 0.27515348
0.29397738 0.50814066 0.27549993
0.30692963 0.50857465 0.27584666
0.32019373 0.50900861 0.27619365
0.33375501 0.50944257 0.27654091
0.34759697 0.50987651 0.27688844
0.36170135 0.51031043 0.27723624
0.37604815 0.51074434 0.27758431
0.39061577 0.51117824 0.27793265
0.40538108 0.51161212 0.27828126
0.42031954 0.51204598 0.27863014
0.43540541 0.51247982 0.27897928
0.45061183 0.51291364 0.27932869
0.46591108 0.51334744 0.27967837
0.48127473 0.51378123 0.28002832
0.49667387 0.51421499 0.28037854
0.51207932 0.51464873 0.28072902
0.52746186 0.51508245 0.28107977
0.54279243 0.51551614 0.28143079
0.55804238 0.51594982 0.28178207
0.57318365 0.51638347 0.28213362
0.58818898 0.51681709 0.28248543
0.60303213 0.51725069 0.28283752
0.61768803 0.51768426 0.28318986
0.63213291 0.51811781 0.28354248
0.64634450 0.51855133 0.28389535
0.66030211 0.51898482 0.28424850
0.67398670 0.51941828 0.28460190
0.68738102 0.51985171 0.28495557
0.70046959 0.52028512 0.28530951
0.71323879 0.52071849 0.28566371
0.72567682 0.52115183 0.28601817
0.27021996 0.52385515 0.27598474
0.28254438 0.52428825 0.27633184
0.29520352 0.52472131 0.27667921
0.30818621 0.52515433 0.27702685
0.32147943 0.52558732 0.27737476
0.33506832 0.52602026 0.27772293
0.34893623 0.52645317 0.27807138
0.36306470 0.52688604 0.27842010
0.37743361 0.52731887 0.27876908
0.39202118 0.52775165 0.27911833
0.40680414 0.52818440 0.27946785
0.42175785 0.52861710 0.27981764
0.43685644 0.52904976 0.28016769
0.45207296 0.52948237 0.28051801
0.46737961 0.52991494 0.28086860
0.48274792 0.53034747 0.28121946
0.49814893 0.53077995 0.28157058
0.51355345 0.53121238 0.28192197
0.52893227 0.53164477 0.28227363
0.54425636 0.53207711 0.28262555
0.55949710 0.53250940 0.28297773
0.57462652 0.53294165 0.28333019
0.58961745 0.53337384 0.28368290
0.60444374 0.53380598 0.28403589
0.61908043 0.53423808 0.28438914
0.63350392 0.53467012 0.28474265
0.64769207 0.53510211 0.28509643
0.66162433 0.53553404 0.28545047
0.67528185 0.53596593 0.28580477
0.68864754 0.53639776 0.28615934
0.70170610 0.53682953 0.28651417
0.71444408 0.53726125 0.28686927
0.72684984 0.53769291 0.28722463
0.27138510 0.54038521 0.27716530
0.28374200 0.54081645 0.27751332
0.29643263 0.54124763 0.27786160
0.30944564 0.54167875 0.27821015
0.32276784 0.54210980 0.27855897
0.33638419 0.54254079 0.27890806
0.35027787 0.54297172 0.27925742
0.36443026 0.54340259 0.27960705
0.37882107 0.54383339 0.27995694
0.39342837 0.54426412 0.28030710
0.40822877 0.54469479 0.28065753
0.42319749 0.54512539 0.28100823
0.43830855 0.54555592 0.28135919
0.45353492 0.54598638 0.28171042
0.46884871 0.54641678 0.28206191
0.48422141 0.54684711 0.28241367
0.49962402 0.54727736 0.28276570
0.51502735 0.54770755 0.28311799
0.53040217 0.54813766 0.28347055
0.54571951 0.54856771 0.28382338
0.56095080 0.54899768 0.28417646
0.57606812 0.54942757 0.28452982
0.59104440 0.54985740 0.28488344
0.60585360 0.55028715 0.28523732
0.62047088 0.55071682 0.28559146
0.63487278 0.55114642 0.28594587
0.64903729 0.55157594 0.28630055
0.66294404 0.55200539 0.28665548
0.67657433 0.55243475 0.28701068
0.68991125 0.55286404 0.28736615
0.70293967 0.55329325 0.28772187
0.71564631 0.55372238 0.28807786
0.72801973 0.55415144 0.28843411
0.27255339 0.55682688 0.27834897
0.28494268 0.55725534 0.27869789
0.29766469 0.55768370 0.27904709
0.31070791 0.55811199 0.27939656
0.32405895 0.55854018 0.27974629
0.33770261 0.55896829 0.28009629
0.35162189 0.55939631 0.28044656
0.36579801 0.55982424 0.28079709
0.38021051 0.56025209 0.28114789
0.39483734 0.56067984 0.28149896
0.40965495 0.56110750 0.28185030
0.42463844 0.56153508 0.28220190
0.43976172 0.56196256 0.28255376
0.45499768 0.56238995 0.28290590
0.47031835 0.56281725 0.28325830
0.48569517 0.56324445 0.28361096
0.50109912 0.56367156 0.28396389
0.51650098 0.56409858 0.28431708
0.53187155 0.56452550 0.28467054
0.54718188 0.56495232 0.28502426
0.56240345 0.56537905 0.28537825
0.57750843 0.56580568 0.28573250
0.59246982 0.56623222 0.28608702
0.60726170 0.56665865 0.28644180
0.62185936 0.56708499 0.28679684
0.63623945 0.56751123 0.28715214
0.65038014 0.56793737 0.28750771
0.66426121 0.56836341 0.28786354
0.67786412 0.56878934 0.28821963
0.69117213 0.56921518 0.28857599
0.70417029 0.56964091 0.28893260
0.71684550 0.57006654 0.28928948
0.72918648 0.57049207 0.28964662
0.27372482 0.57314499 0.27953573
0.28614641 0.57356975 0.27988557
0.29889971 0.57399440 0.28023568
0.31197300 0.57441894 0.28058605
0.32535274 0.57484337 0.28093669
0.33902355 0.57526769 0.28128760
0.35296826 0.57569190 0.28163878
0.36716792 0.57611600 0.28199022
0.38160192 0.57653998 0.28234192
0.39624806 0.57696386 0.28269390
0.41108265 0.57738762 0.28304614
0.42608067 0.57781126 0.28339864
0.44121592 0.57823480 0.28375141
0.45646121 0.57865821 0.28410444
0.47178851 0.57908151 0.28445774
0.48716919 0.57950470 0.28481131
0.50257420 0.57992777 0.28516514
0.51797432 0.58035072 0.28551923
0.53334038 0.58077355 0.28587358
0.54864343 0.58119627 0.28622820
0.56385504 0.58161886 0.28658309
0.57894742 0.58204134 0.28693823
0.59389369 0.58246369 0.28729364
0.60866802 0.58288593 0.28764931
0.62324584 0.58330804 0.28800525
0.63760393 0.58373003 0.28836144
0.65172062 0.58415190 0.28871790
0.66557582 0.58457364 0.28907462
0.67915120 0.58499526 0.28943160
0.69243016 0.58541676 0.28978885
0.70539795 0.58583813 0.29014635
