luts/cubes/cinematic_teal_orange.cube
TITLE "teal_orange"
LUT_3D_SIZE 5
DOMAIN_MIN 0.0 0.0 0.0
DOMAIN_MAX 1.0 1.0 1.0
0.01870149 0.07354920 0.11029100
0.28321688 0.05970778 0.09438295
0.55801734 0.04557084 0.07816435
0.83384039 0.03160841 0.06217367
1.00000000 0.02174127 0.05088919
0.00000000 0.28070922 0.06238849
0.26927973 0.27003776 0.04590669
0.55618786 0.25909381 0.02911017
0.84380795 0.24824245 0.01255639
1.00000000 0.24054932 0.00087843
0.00000000 0.51773255 0.01081089
0.25299112 0.51035457 0.00000000
0.55247875 0.50272804 0.00000000
0.84762838 0.49655308 0.00000000
1.00000000 0.49305863 0.00000000
0.00000000 0.77802607 0.00000000
0.24665136 0.76968744 0.00000000
0.54534293 0.76145064 0.00000000
0.82964445 0.75358197 0.00000000
1.00000000 0.74817522 0.00000000
0.00000000 1.00000000 0.00000000
0.25111677 1.00000000 0.00000000
0.53947947 0.99513547 0.00000000
0.81371710 0.98461278 0.00000000
1.00000000 0.97735142 0.00000000
0.01683914 0.07051798 0.28170336
0.28224403 0.05663411 0.26849708
0.55794045 0.04245440 0.25499990
0.83463648 0.02845030 0.24166081
1.00000000 0.01855404 0.23222926
0.00000000 0.27837600 0.24184021
0.26818054 0.26766208 0.22806019
0.55598463 0.25667536 0.21398508
0.84447771 0.24578234 0.20008290
1.00000000 0.23806009 0.19025787
0.00000000 0.51612453 0.19861528
0.25176068 0.50870409 0.18423915
0.55214427 0.50103480 0.16956360
0.84631593 0.49542289 0.16197694
1.00000000 0.49195271 0.15803787
0.00000000 0.77617617 0.16109648
0.24692416 0.76787293 0.15540257
0.54486909 0.75967176 0.14982972
0.82844312 0.75183781 0.14455664
1.00000000 0.74645533 0.14096369
0.00000000 1.00000000 0.14425293
0.25149734 1.00000000 0.13904848
0.53911340 0.99276113 0.13396864
0.81262355 0.98227317 0.12917593
0.99981058 0.97503607 0.12591866
0.01470278 0.06704794 0.47874943
0.28112259 0.05311562 0.46862589
0.55784130 0.03888712 0.45823383
0.83553340 0.02483548 0.44792022
1.00000000 0.01490600 0.44060286
0.00000000 0.27570238 0.44805920
0.26691495 0.26494002 0.43736191
0.55574134 0.25390450 0.42639193
0.84523048 0.24296394 0.41551523
1.00000000 0.23520847 0.40780438
0.00000000 0.51427836 0.41436465
0.25034532 0.50680948 0.40307125
0.55170708 0.49920065 0.39163315
0.84482794 0.49414287 0.38334354
1.00000000 0.49070038 0.37764265
0.00000000 0.77407496 0.38207220
0.24724494 0.76581208 0.37380935
0.54433795 0.75765158 0.36564889
0.82708193 0.74985725 0.35785459
1.00000000 0.74450245 0.35249982
0.00000000 1.00000000 0.35740338
0.25194109 1.00000000 0.34962999
0.53870524 0.99006154 0.34196254
0.81138533 0.97961319 0.33464860
0.99799232 0.97240378 0.32962951
0.01241114 0.06333404 0.69060166
0.27991326 0.04935007 0.68376556
0.55772216 0.03506953 0.67668485
0.83647647 0.02096718 0.66959763
1.00000000 0.01100227 0.66453487
0.00000000 0.27283779 0.66969352
0.26555190 0.26202376 0.66228368
0.55546847 0.25093622 0.65462505
0.84601983 0.23994495 0.64697474
1.00000000 0.23215405 0.64151848
0.00000000 0.51229617 0.64616227
0.24882256 0.50477563 0.63815632
0.55101663 0.49780455 0.62895612
0.84325231 0.49278902 0.61797785
1.00000000 0.48937605 0.61039813
0.00000000 0.77184537 0.61628967
0.24759819 0.76362554 0.60528728
0.54378272 0.75550841 0.59436736
0.82564152 0.74775633 0.58388440
1.00000000 0.74243106 0.57665080
0.00000000 1.00000000 0.58327589
0.25242548 0.99803486 0.57276295
0.53828114 0.98719384 0.56233605
0.81007606 0.97678774 0.55233345
0.99606448 0.96960786 0.54543553
0.01000318 0.05944082 0.91373549
0.27863557 0.04540289 0.91033251
0.55758296 0.03106801 0.90670986
0.83744656 0.01691272 0.90299198
1.00000000 0.00691081 0.90028371
0.00000000 0.26983150 0.90304287
0.26411369 0.25896353 0.89906613
0.55516874 0.24782164 0.89486557
0.84682938 0.23677743 0.89058460
1.00000000 0.22894952 0.88748283
0.00000000 0.51021139 0.89012522
0.24721756 0.50263690 0.88555238
0.55030790 0.49635890 0.87521478
0.84161918 0.49138749 0.86142872
1.00000000 0.48800535 0.85188693
0.00000000 0.76952931 0.85930523
0.24797941 0.76135444 0.84544192
0.54321520 0.75328260 0.83164028
0.82414960 0.74557464 0.81834953
1.00000000 0.74028020 0.80915385
0.00000000 1.00000000 0.81757675
0.25294364 0.99500713 0.80420289
0.53785057 0.98421139 0.79089427
0.80872108 0.97384942 0.77808389
0.99406354 0.96670037 0.76922389
