luts/cubes/cinematic_teal_orange.cube
TITLE "teal_orange"
LUT_3D_SIZE 9
DOMAIN_MIN 0.0 0.0 0.0
DOMAIN_MAX 1.0 1.0 1.0
0.01870149 0.07354920 0.11029100
0.14413510 0.06695563 0.10270937
0.28321688 0.05970778 0.09438295
0.42073939 0.05260351 0.08622897
0.55801734 0.04557084 0.07816435
0.69561431 0.03857835 0.07015272
0.83384039 0.03160841 0.06217367
0.97288939 0.02464981 0.05421416
1.00000000 0.02174127 0.05088919
0.00616673 0.17271796 0.08697868
0.13442275 0.16686871 0.07926233
0.27658547 0.16043336 0.07078885
0.41710645 0.15411983 0.06249175
0.55733219 0.14786455 0.05428642
0.69784032 0.14163978 0.04613584
0.83894895 0.13543002 0.03801920
0.98085703 0.12922540 0.02992322
1.00000000 0.12663057 0.02654147
0.00000000 0.28070922 0.06238849
0.12392460 0.27563122 0.05453254
0.26927973 0.27003776 0.04590669
0.41290768 0.26454359 0.03746129
0.55618786 0.25909381 0.02911017
0.69971249 0.25366454 0.02081560
0.84380795 0.24824245 0.01255639
0.98867855 0.24281910 0.00431901
1.00000000 0.24054932 0.00087843
0.00000000 0.39583935 0.03696186
0.11281002 0.39154463 0.02896414
0.26140741 0.38680621 0.02018353
0.40819083 0.38214419 0.01158751
0.55457314 0.37751249 0.00308833
0.70116136 0.37289114 0.00000000
0.84829029 0.36826904 0.00000000
0.99616966 0.36363914 0.00000000
1.00000000 0.36169950 0.00000000
0.00000000 0.51773255 0.01081089
0.10111816 0.51422917 0.00266994
0.25299112 0.51035457 0.00000000
0.40296244 0.50653325 0.00000000
0.55247875 0.50272804 0.00000000
0.70184708 0.49908711 0.00000000
0.84762838 0.49655308 0.00000000
0.99059926 0.49407752 0.00000000
1.00000000 0.49305863 0.00000000
0.00000000 0.64623608 0.00000000
0.08886561 0.64353012 0.00000000
0.24492703 0.64038575 0.00000000
0.39911359 0.63692217 0.00000000
0.54895997 0.63355756 0.00000000
0.69525802 0.63027406 0.00000000
0.83846582 0.62706135 0.00000000
0.97888417 0.62391264 0.00000000
1.00000000 0.62261368 0.00000000
0.00000000 0.77802607 0.00000000
0.08913932 0.77401930 0.00000000
0.24665136 0.76968744 0.00000000
0.39814447 0.76551356 0.00000000
0.54534293 0.76145064 0.00000000
0.68902596 0.75747752 0.00000000
0.82964445 0.75358197 0.00000000
0.96749456 0.74975597 0.00000000
1.00000000 0.74817522 0.00000000
0.00000000 0.90455429 0.00000000
0.09405598 0.89987549 0.00000000
0.24878631 0.89481005 0.00000000
0.39757217 0.88992222 0.00000000
0.54210915 0.88515743 0.00000000
0.68316375 0.88049115 0.00000000
0.82117966 0.87590925 0.00000000
0.95644839 0.87140250 0.00000000
1.00000000 0.86953852 0.00000000
0.00000000 1.00000000 0.00000000
0.09895643 1.00000000 0.00000000
0.25111677 1.00000000 0.00000000
0.39740141 1.00000000 0.00000000
0.53947947 0.99513547 0.00000000
0.67810569 0.98982878 0.00000000
0.81371710 0.98461278 0.00000000
0.94660090 0.97947708 0.00000000
1.00000000 0.97735142 0.00000000
0.01782176 0.07211659 0.19121972
0.14345653 0.06551342 0.18424907
0.28275788 0.05825510 0.17658961
0.42049410 0.05114062 0.16908473
0.55798214 0.04409793 0.16165824
0.69578658 0.03709553 0.15427681
0.83421811 0.03011579 0.14692176
0.97347088 0.02314746 0.13958118
1.00000000 0.02023487 0.13651372
0.00525765 0.17144750 0.16977492
0.13371483 0.16558865 0.16266956
0.27609713 0.15914282 0.15486303
0.41683181 0.15281909 0.14721504
0.55726764 0.14655378 0.13964784
0.69798325 0.14031911 0.13212746
0.83929732 0.13409954 0.12463482
0.98140916 0.12788519 0.11715777
1.00000000 0.12528631 0.11403353
0.00000000 0.27960677 0.14711983
0.12318627 0.27451917 0.13987487
0.26876098 0.26891523 0.13191597
0.41260263 0.26341086 0.12411967
0.55609290 0.25795105 0.11640668
0.69982501 0.25251188 0.10874232
0.84412591 0.24707998 0.10110712
0.98920028 0.24164690 0.09348866
1.00000000 0.23937308 0.09030559
0.00000000 0.39490753 0.12365851
0.11204081 0.39060322 0.11627178
0.26085778 0.38585431 0.10815812
0.40785490 0.38118209 0.10021121
0.55444729 0.37654037 0.09235015
0.70124300 0.37190911 0.08453956
0.84857737 0.36727720 0.07675956
0.99666051 0.36263758 0.06899749
1.00000000 0.36069389 0.06575467
0.00000000 0.51697312 0.09949305
0.10031775 0.51346014 0.09196309
0.25241029 0.50957506 0.08369308
0.40259531 0.50574354 0.07559400
0.55232170 0.50192830 0.06758335
0.70139652 0.49854339 0.06156521
0.84700662 0.49601753 0.05929398
0.98980770 0.49355007 0.05707909
1.00000000 0.49253456 0.05616866
0.00000000 0.64565036 0.07467101
0.08803375 0.64293480 0.06699673
0.24502873 0.63967216 0.06125968
0.39903720 0.63621708 0.05890323
0.54870851 0.63286083 0.05662702
0.69483366 0.62958558 0.05441842
0.83787026 0.62638104 0.05227003
0.97811880 0.62324044 0.05017697
1.00000000 0.62194485 0.04931723
0.00000000 0.77715010 0.05859407
0.08945037 0.77315133 0.05641903
0.24677943 0.76882820 0.05408669
0.39809444 0.76466282 0.05185880
0.54511783 0.76060826 0.04970898
0.68862796 0.75664339 0.04762519
0.82907525 0.75275601 0.04560040
0.96675556 0.74893812 0.04362993
1.00000000 0.74736074 0.04282119
0.00000000 0.90353192 0.05153170
0.09439352 0.89886113 0.04947829
0.24894087 0.89380442 0.04727873
0.39754864 0.88892509 0.04518006
0.54191055 0.88416865 0.04315728
0.68279225 0.87951063 0.04119895
0.82063696 0.87493690 0.03929838
0.95573588 0.87043825 0.03745113
1.00000000 0.86857764 0.03669366
0.00000000 1.00000000 0.04536482
0.09931845 1.00000000 0.04342379
0.25129581 1.00000000 0.04134689
0.39740237 0.99941633 0.03936762
0.53930535 0.99401143 0.03746221
0.67775867 0.98871300 0.03561979
0.81319888 0.98350517 0.03383399
0.94591287 0.97837758 0.03210057
1.00000000 0.97625529 0.03139046
0.01683914 0.07051798 0.28170336
0.14269802 0.06390411 0.27541345
0.28224403 0.05663411 0.26849708
0.42021834 0.04950826 0.26171541
0.55794045 0.04245440 0.25499990
0.69597606 0.03544097 0.24832062
0.83463648 0.02845030 0.24166081
0.97411628 0.02147113 0.23500981
1.00000000 0.01855404 0.23222926
0.00424233 0.17002954 0.26233929
0.13292363 0.16415999 0.25591467
0.27555057 0.15770248 0.24885124
0.41652336 0.15136739 0.24192645
0.55719326 0.14509090 0.23507023
0.69814004 0.13884520 0.22825199
0.83968300 0.13261470 0.22145460
0.98202187 0.12638952 0.21466713
1.00000000 0.12378614 0.21182980
0.00000000 0.27837600 0.24184021
0.12236118 0.27327770 0.23527599
0.26818054 0.26766208 0.22806019
0.41226029 0.26214635 0.22098709
0.55598463 0.25667536 0.21398508
0.69994791 0.25122516 0.20702287
0.84447771 0.24578234 0.20008290
0.98977910 0.24033843 0.19315403
1.00000000 0.23806009 0.19025787
0.00000000 0.39386687 0.22056857
0.11118131 0.38955186 0.21386258
0.26024293 0.38479128 0.20649202
0.40747815 0.38010769 0.19926831
0.55430462 0.37545480 0.19211822
0.70133149 0.37081251 0.18500978
0.84889476 0.36616967 0.17792502
0.99720492 0.36151922 0.17085254
1.00000000 0.35957102 0.16789662
0.00000000 0.51612453 0.19861528
0.09942349 0.51260085 0.19176606
0.25176068 0.50870409 0.18423915
0.40218380 0.50486121 0.17686327
0.55214427 0.50103480 0.16956360
0.70089657 0.49793966 0.16482753
0.84631593 0.49542289 0.16197694
0.98892782 0.49296447 0.15918739
1.00000000 0.49195271 0.15803787
0.00000000 0.64499531 0.17602242
0.08710447 0.64226905 0.16902887
0.24514409 0.63887916 0.16444463
0.39895415 0.63543355 0.16148551
0.54843039 0.63208661 0.15861682
0.69436291 0.62882056 0.15582309
0.83720877 0.62562512 0.15309534
0.97726811 0.62249355 0.15042763
1.00000000 0.62120172 0.14932880
0.00000000 0.77617617 0.16109648
0.08979897 0.77218632 0.15835416
0.24692416 0.76787293 0.15540257
0.39804076 0.76371701 0.15257201
0.54486909 0.75967176 0.14982972
0.68818658 0.75571609 0.14716081
0.82844312 0.75183781 0.14455664
0.96593424 0.74802895 0.14201152
1.00000000 0.74645533 0.14096369
0.00000000 0.90239489 0.15215547
0.09477165 0.89773301 0.14953479
0.24911513 0.89268603 0.14671598
0.39752448 0.88781617 0.14401464
0.54169133 0.88306905 0.14139938
0.68238039 0.87842022 0.13885593
0.82003436 0.87385559 0.13637599
0.95494409 0.86936598 0.13395408
1.00000000 0.86750912 0.13295752
0.00000000 1.00000000 0.14425293
0.09972386 1.00000000 0.14174462
0.25149734 1.00000000 0.13904848
0.39740548 0.99815672 0.13646653
0.53911340 0.99276113 0.13396864
0.67737409 0.98747190 0.13154110
0.81262355 0.98227317 0.12917593
0.94514835 0.97715461 0.12686786
0.99981058 0.97503607 0.12591866
0.01579426 0.06881985 0.37802250
0.14189082 0.06219464 0.37245450
0.28169626 0.05491226 0.36632616
0.41992307 0.04777436 0.36031143
0.55789341 0.04070865 0.35434989
0.69617417 0.03368352 0.34841521
0.83507732 0.02668126 0.34249269
0.97479787 0.01969060 0.33657298
1.00000000 0.01676873 0.33409669
0.00316278 0.16852300 0.36086499
0.13208174 0.16264211 0.35516227
0.27496813 0.15617221 0.34888687
0.41619341 0.14982507 0.34272902
0.55711154 0.14353673 0.33662677
0.69830346 0.13727932 0.33055314
0.84008916 0.13103724 0.32449304
0.98266879 0.12480057 0.31843685
1.00000000 0.12219240 0.31590378
0.00000000 0.27706797 0.34265230
0.12148337 0.27195832 0.33680999
0.26756217 0.26633032 0.33038221
0.41189442 0.26080253 0.32407606
0.55586699 0.25531970 0.31782802
0.70007541 0.24985780 0.31161041
0.84484794 0.24440339 0.30540773
0.99039009 0.23894798 0.29921014
1.00000000 0.23666487 0.29661823
0.00000000 0.39276045 0.32370274
0.11026701 0.38843409 0.31771866
0.25958807 0.38366113 0.31113613
0.40707579 0.37896549 0.30467935
0.55415048 0.37430074 0.29828324
0.70142250 0.36964676 0.29191940
0.84922850 0.36499233 0.28557193
0.99777942 0.36033039 0.27923073
1.00000000 0.35855285 0.27675097
0.00000000 0.51522178 0.30409540
0.09847232 0.51168676 0.29796808
0.25106895 0.50777762 0.29122920
0.40174457 0.50392268 0.28462027
0.55195326 0.50008442 0.27807457
0.70036876 0.49730177 0.27403102
0.84558584 0.49479467 0.27056602
0.98799710 0.49234582 0.26716708
1.00000000 0.49133804 0.26576401
0.00000000 0.64429782 0.28386652
0.08611615 0.64156021 0.27759487
0.24526879 0.63804057 0.27356607
0.39886844 0.63460501 0.26996784
0.54813782 0.63126793 0.26647084
0.69386605 0.62801163 0.26305661
0.83650963 0.62482586 0.25971444
0.97636835 0.62170386 0.25643733
1.00000000 0.62041601 0.25508496
0.00000000 0.77514572 0.26949411
0.09017102 0.77116532 0.26615020
0.24708001 0.76686224 0.26254193
0.39798620 0.76271637 0.25907225
0.54460767 0.75868100 0.25570164
0.68772087 0.75473508 0.25241223
0.82777514 0.75086645 0.24919366
0.96506562 0.74706717 0.24603914
1.00000000 0.74549753 0.24473776
0.00000000 0.90119146 0.25856086
0.09517501 0.89653904 0.25533859
0.24930229 0.89150238 0.25186309
0.39750123 0.88664256 0.24852263
0.54146121 0.88190531 0.24527906
0.68194599 0.87726623 0.24211511
0.81939768 0.87271126 0.23902076
0.95410678 0.86823123 0.23598945
1.00000000 0.86637835 0.23473934
0.00000000 1.00000000 0.24881770
0.10015614 1.00000000 0.24570781
0.25171342 1.00000000 0.24235497
0.39741115 0.99682330 0.23913391
0.53891221 0.99143759 0.23600771
0.67696861 0.98615810 0.23295966
0.81201580 0.98096903 0.22998009
0.94433997 0.97586005 0.22706261
0.99891872 0.97374550 0.22585987
0.01470278 0.06704794 0.47874943
0.14104690 0.06041091 0.47393339
0.28112259 0.05311562 0.46862589
0.41961240 0.04596518 0.46341002
0.55784130 0.03888712 0.45823383
0.69637741 0.03184980 0.45307476
0.83553340 0.02483548 0.44792022
0.97550473 0.01783285 0.44276222
1.00000000 0.01490600 0.44060286
0.00203518 0.16695064 0.46389033
0.13120171 0.16105793 0.45893956
0.27435834 0.15457514 0.45348500
0.41584663 0.14821544 0.44812601
0.55702331 0.14191476 0.44280912
0.69847059 0.13564516 0.43751110
0.84050912 0.12939101 0.43221896
0.98333953 0.12314237 0.42692450
1.00000000 0.12052922 0.42470836
0.00000000 0.27570238 0.44805920
0.12056591 0.27058091 0.44296885
0.26691495 0.26494002 0.43736191
0.41151021 0.25939967 0.43185461
0.55574134 0.25390450 0.42639193
0.70020511 0.24843041 0.42094993
0.84523048 0.24296394 0.41551523
0.99102341 0.23749656 0.41007936
1.00000000 0.23520847 0.40780438
0.00000000 0.39160486 0.43152840
0.10931154 0.38726669 0.42629627
0.25890284 0.38248083 0.42053457
0.40665357 0.37777264 0.41487666
0.55398682 0.37309555 0.40926591
0.70151419 0.36842937 0.40367767
0.84957303 0.36376288 0.39809818
0.99837473 0.35908896 0.39251870
1.00000000 0.35809198 0.39066594
0.00000000 0.51427836 0.41436465
0.09747845 0.51073152 0.40898929
0.25034532 0.50680948 0.40307125
0.40128395 0.50294199 0.39726117
0.55170708 0.49920065 0.39163315
0.69982156 0.49663992 0.38744852
0.84482794 0.49414287 0.38334354
0.98703022 0.49170400 0.37930982
1.00000000 0.49070038 0.37764265
0.00000000 0.64356818 0.39659815
0.08594996 0.64073214 0.39132251
0.24540128 0.63716966 0.38689810
0.39878174 0.63374456 0.38263415
0.54783567 0.63041777 0.37848268
0.69335110 0.62717163 0.37442211
0.83578398 0.62399590 0.37043997
0.97543372 0.62088388 0.36652809
1.00000000 0.61960019 0.36491161
0.00000000 0.77407496 0.38207220
0.09056115 0.77010440 0.37810166
0.24724494 0.76581208 0.37380935
0.39793195 0.76167667 0.36967396
0.54433795 0.75765158 0.36564889
0.68723836 0.75371581 0.36171314
0.82708193 0.74985725 0.35785459
0.96416343 0.74606794 0.35406529
1.00000000 0.74450245 0.35249982
0.00000000 0.89994053 0.36906378
0.09559774 0.89529795 0.36521487
0.24949982 0.89027204 0.36105534
0.39747959 0.88542269 0.35704917
0.54122411 0.88069572 0.35315113
0.68149610 0.87606680 0.34934084
0.81873709 0.87152189 0.34560651
0.95323720 0.86705182 0.34194044
1.00000000 0.86520310 0.34042622
0.00000000 1.00000000 0.35740338
0.10060900 1.00000000 0.35366685
0.25194109 1.00000000 0.34962999
0.39741964 0.99543696 0.34574320
0.53870524 0.99006154 0.34196254
0.67654884 0.98479221 0.33826815
0.81138533 0.97961319 0.33464860
0.94350052 0.97451419 0.33109636
0.99799232 0.97240378 0.32962951
0.01357326 0.06521633 0.58310660
0.14017282 0.05856711 0.57906643
0.28052734 0.05125852 0.57460587
0.41928853 0.04409512 0.57021428
0.55778422 0.03700433 0.56584844
0.69658380 0.02995443 0.56148964
0.83600067 0.02292766 0.55712751
0.97623076 0.01591268 0.55275547
1.00000000 0.01298069 0.55092311
0.00086839 0.16532494 0.57061901
0.13029036 0.15942003 0.56644413
0.27372582 0.15292393 0.56183651
0.41548549 0.14655128 0.55730180
0.55692896 0.14023787 0.55279525
0.69863971 0.13395570 0.54829750
0.84093912 0.12768909 0.54379777
0.98402829 0.12142810 0.53928927
1.00000000 0.11880981 0.53740013
0.00000000 0.27429003 0.55724522
0.11961595 0.26915637 0.55293074
0.26624383 0.26350216 0.54817074
0.41111046 0.25794887 0.54348773
0.55560837 0.25244096 0.53883539
0.70033561 0.24695429 0.53419366
0.84562186 0.24147537 0.52955136
0.99167355 0.23599564 0.52490145
1.00000000 0.23370241 0.52295348
0.00000000 0.39040920 0.54321010
0.10832236 0.38605883 0.53875385
0.25819249 0.38125966 0.53383910
0.40621460 0.37653851 0.52900547
0.55381464 0.37184869 0.52420506
0.70160547 0.36716994 0.51941709
0.84992519 0.36249099 0.51463001
0.99789974 0.35834062 0.50983972
1.00000000 0.35761922 0.50784974
0.00000000 0.51330160 0.52856769
0.09644965 0.50974257 0.52396821
0.24959535 0.50580722 0.51889711
0.40080535 0.50192677 0.51391132
0.55136480 0.49851003 0.50897053
0.69925973 0.49595978 0.50411901
0.84404870 0.49347311 0.49935369
0.98603535 0.49104453 0.49466501
1.00000000 0.49004519 0.49272533
0.00000000 0.64281201 0.51334191
0.08632179 0.63982520 0.50861060
0.24554074 0.63627381 0.50348041
0.39869506 0.63285950 0.49852955
0.54752666 0.62954332 0.49370281
0.69282254 0.62630766 0.48897534
0.83503802 0.62314232 0.48433286
0.97447212 0.62004059 0.47976602
1.00000000 0.61876118 0.47787703
0.00000000 0.77297290 0.49787658
0.09096645 0.76901251 0.49325948
0.24741788 0.76473127 0.48826138
0.39787875 0.76060666 0.48343909
0.54406243 0.75659218 0.47873873
0.68674328 0.75266689 0.47413609
0.82636944 0.74881870 0.46961720
0.96323531 0.74503969 0.46517294
1.00000000 0.74347849 0.46333496
0.00000000 0.89865257 0.48272697
0.09603669 0.89402015 0.47823150
0.24970641 0.88900533 0.47336618
0.39746003 0.88416677 0.46867311
0.54098223 0.87945042 0.46409979
0.68103465 0.87483197 0.45962260
0.81805825 0.87029744 0.45522794
0.95234272 0.86583767 0.45090689
1.00000000 0.86399323 0.44912018
0.00000000 1.00000000 0.46908834
0.10107904 1.00000000 0.46470525
0.25217876 0.99950747 0.45996260
0.39743117 0.99400929 0.45538892
0.53849444 0.98864448 0.45093296
0.67611849 0.98338563 0.44657169
0.81073758 0.97821699 0.44229179
0.94263713 0.97312828 0.43808459
0.99703921 0.97102216 0.43634523
0.01241114 0.06333404 0.69060166
0.13927271 0.05667232 0.68735736
0.27991326 0.04935007 0.68376556
0.41895281 0.04217338 0.68021948
0.55772216 0.03506953 0.67668485
0.69679200 0.02800673 0.67314695
0.83647647 0.02096718 0.66959763
0.97697199 0.01393953 0.66603180
1.00000000 0.01100227 0.66453487
0.00000000 0.16365385 0.68054669
0.12935203 0.15773644 0.67716767
0.27307351 0.15122669 0.67342882
0.41511154 0.14484075 0.66973961
0.55682868 0.13851427 0.66606428
0.69880968 0.13221920 0.66238742
0.84137670 0.12593983 0.65870052
0.98473129 0.11966616 0.65499822
1.00000000 0.11704260 0.65344450
0.00000000 0.27283779 0.66969352
0.11863800 0.26769163 0.66617491
0.26555190 0.26202376 0.66228368
0.41069690 0.25645718 0.65844617
0.55546847 0.25093622 0.65462505
0.70046598 0.24543665 0.65080421
0.84601983 0.23994495 0.64697474
0.99233694 0.23445255 0.64313103
1.00000000 0.23215405 0.64151848
0.00000000 0.38917922 0.65821839
0.10730419 0.38481635 0.65455801
0.25746034 0.38000352 0.65051202
0.40576081 0.37526909 0.64652390
0.55363451 0.37056621 0.64255470
0.70169561 0.36587456 0.63858763
0.85028293 0.36118284 0.63461337
0.99684829 0.35785421 0.62994729
1.00000000 0.35713720 0.62767778
0.00000000 0.51229617 0.64616227
0.09539083 0.50872463 0.64235866
0.24882256 0.50477563 0.63815632
0.40031092 0.50088190 0.63401604
0.55101663 0.49780455 0.62895612
0.69868634 0.49526505 0.62342052
0.84325231 0.49278902 0.61797785
0.98501777 0.49037099 0.61261733
1.00000000 0.48937605 0.61039813
0.00000000 0.64203286 0.63354266
0.08670611 0.63889781 0.62854562
0.24568671 0.63535780 0.62269146
0.39860907 0.63195457 0.61703601
0.54721262 0.62864927 0.61151659
0.69228328 0.62542436 0.60610504
0.83427575 0.62226966 0.60078521
0.97348867 0.61917849 0.59554653
1.00000000 0.61790347 0.59337802
0.00000000 0.77184537 0.61628967
0.09138512 0.76789540 0.61100935
0.24759819 0.76362554 0.60528728
0.39782709 0.75951200 0.59976040
0.54378272 0.75550841 0.59436736
0.68623835 0.75159387 0.58908064
0.82564152 0.74775633 0.58388440
0.96228620 0.74398787 0.57876830
1.00000000 0.74243106 0.57665080
0.00000000 0.89733435 0.59894371
0.09648987 0.89271235 0.59378502
0.24992124 0.88770891 0.58819573
0.39744289 0.88288142 0.58279807
0.54073704 0.87817595 0.57753206
0.68056425 0.87356826 0.57237080
0.81736484 0.86904437 0.56729878
0.95142813 0.86459516 0.56230591
1.00000000 0.86275511 0.56023966
0.00000000 1.00000000 0.58327589
0.10156411 1.00000000 0.57822957
0.25242548 0.99803486 0.57276295
0.39744592 0.99254777 0.56748468
0.53828114 0.98719384 0.56233605
0.67567997 0.98194574 0.55729069
0.81007606 0.97678774 0.55233345
0.94175442 0.97170958 0.54745441
0.99606448 0.96960786 0.54543553
0.01122019 0.06140733 0.80089434
0.13834946 0.05473282 0.79846314
0.27928221 0.04739663 0.79575892
0.41860616 0.04020637 0.79307666
0.55765509 0.03308917 0.79039124
0.69700104 0.02601319 0.78769201
0.83695891 0.01896060 0.78497311
0.97772560 0.01192000 0.78223093
1.00000000 0.00897736 0.78107670
0.00000000 0.16194291 0.79332466
0.12838971 0.15601273 0.79075874
0.27240341 0.14948903 0.78790746
0.41472584 0.14308951 0.78508207
0.55672255 0.13674969 0.78225596
0.69897967 0.13044144 0.77941777
0.84182008 0.12414902 0.77656128
0.98544585 0.11786241 0.77368264
1.00000000 0.11523347 0.77247162
0.00000000 0.27135044 0.78504671
0.11763522 0.26619150 0.78234119
0.26484134 0.26050969 0.77933753
0.41027072 0.25492954 0.77636385
0.55532188 0.24939522 0.77339194
0.70059550 0.24388247 0.77040976
0.84642275 0.23837773 0.76741071
0.99301103 0.23287238 0.76439066
1.00000000 0.23056850 0.76312081
0.00000000 0.38791895 0.77618699
0.10626031 0.38354330 0.77333970
0.25670868 0.37871653 0.77018129
0.40529353 0.37396852 0.76705698
0.55344682 0.36925229 0.76393701
0.70178403 0.36454746 0.76080860
0.85064475 0.35984269 0.75766476
0.99577713 0.35736032 0.75226371
1.00000000 0.35664779 0.74970862
0.00000000 0.51126531 0.76677316
0.09430543 0.50768100 0.76378264
0.24802937 0.50371805 0.76046788
0.39980213 0.49981074 0.75719141
0.55066397 0.49708684 0.75114792
0.69810359 0.49455832 0.74491343
0.84244173 0.49209317 0.73877875
0.98398121 0.48968593 0.73273185
1.00000000 0.48869547 0.73022707
0.00000000 0.64122413 0.75676469
0.08710182 0.63795340 0.75068577
0.24583891 0.63442501 0.74409196
0.39852426 0.63103309 0.73771666
0.54689483 0.62773892 0.73148956
0.69173539 0.62452499 0.72537912
0.83350004 0.62138116 0.71936727
0.97248698 0.61830078 0.71344221
1.00000000 0.61703025 0.71098813
0.00000000 0.77069649 0.73687492
0.09181590 0.76675716 0.73091702
0.24778546 0.76249893 0.72445531
0.39777737 0.75839670 0.71820858
0.54350001 0.75440423 0.71210786
0.68572555 0.75050067 0.70612225
0.82490089 0.74667400 0.70023399
0.96131959 0.74291633 0.69443152
1.00000000 0.74136401 0.69202843
0.00000000 0.89599064 0.71728506
0.09695592 0.89137929 0.71144878
0.25014377 0.88638747 0.70511985
0.39742843 0.88157130 0.69900234
0.54048959 0.87687695 0.69302866
0.68008671 0.87228024 0.68716850
0.81665947 0.86776722 0.68140447
0.95049678 0.86332880 0.67572521
1.00000000 0.86149324 0.67337339
0.00000000 1.00000000 0.69954411
0.10206274 1.00000000 0.69382021
0.25268059 0.99653343 0.68761395
0.39746404 0.99105765 0.68161583
0.53806627 0.98571484 0.67575951
0.67523501 0.98047772 0.67001527
0.80940327 0.97533060 0.66436601
0.94085566 0.97026323 0.65880059
0.99507169 0.96816599 0.65649613
0.01000318 0.05944082 0.91373549
0.13740515 0.05275330 0.91213257
0.27863557 0.04540289 0.91033251
0.41824922 0.03819881 0.90853019
0.55758296 0.03106801 0.90670986
0.69721018 0.02397861 0.90486495
0.83744656 0.01691272 0.90299198
0.97848948 0.00985894 0.90108885
1.00000000 0.00691081 0.90028371
0.00000000 0.16019622 0.90869752
0.12740562 0.15425301 0.90695988
0.27171699 0.14771510 0.90501275
0.41432912 0.14130176 0.90306732
0.55661064 0.13494835 0.90110628
0.69914903 0.12862667 0.89912242
0.84226794 0.12232095 0.89711186
0.98616994 0.11602116 0.89507226
1.00000000 0.11338673 0.89421034
0.00000000 0.26983150 0.90304287
0.11660990 0.26465955 0.90116563
0.26411369 0.25896353 0.89906613
0.40983278 0.25336955 0.89697240
0.55516874 0.24782164 0.89486557
0.70072363 0.24229546 0.89273772
0.84682938 0.23677743 0.89058460
0.99369390 0.23125890 0.88840359
1.00000000 0.22894952 0.88748283
0.00000000 0.38663133 0.89684741
0.10519312 0.38224267 0.89482841
0.25593916 0.37740168 0.89257415
0.40481372 0.37263985 0.89032980
0.55325181 0.36791003 0.88807490
0.70187029 0.36319177 0.88580082
0.85084678 0.35858861 0.88332452
0.99468914 0.35686038 0.87645751
1.00000000 0.35615242 0.87361152
0.00000000 0.51021139 0.89012522
0.09319594 0.50661406 0.88796299
0.24721756 0.50263690 0.88555238
0.39954293 0.49894770 0.88228840
0.55030790 0.49635890 0.87521478
0.69751313 0.49384157 0.86826835
0.84161918 0.49138749 0.86142872
0.98292847 0.48899124 0.85468262
1.00000000 0.48800535 0.85188693
0.00000000 0.64025440 0.88146916
0.08750808 0.63699453 0.87470000
0.24599711 0.63347798 0.86735273
0.39844105 0.63009758 0.86024414
0.54657427 0.62681474 0.85329614
0.69118045 0.62361199 0.84647377
0.83271301 0.62047925 0.83975698
0.97146976 0.61740985 0.83313272
1.00000000 0.61614389 0.83038771
0.00000000 0.76952931 0.85930523
0.09225791 0.76560084 0.85265709
0.24797941 0.76135444 0.84544192
0.39772989 0.75726374 0.83846189
0.54321520 0.75328260 0.83164028
0.68520635 0.74939023 0.82494273
0.82414960 0.74557464 0.81834953
0.96033811 0.74182795 0.81184785
1.00000000 0.74028020 0.80915385
0.00000000 0.89462501 0.83742955
0.09743385 0.89002450 0.83090304
0.25037364 0.88504453 0.82382064
0.39741687 0.88023988 0.81696984
0.54024070 0.87555686 0.81027526
0.67960342 0.87097133 0.80370317
0.81594410 0.86646940 0.79723420
0.94955122 0.86204196 0.79085573
1.00000000 0.86021097 0.78821300
0.00000000 1.00000000 0.81757675
0.10257385 1.00000000 0.81116262
0.25294364 0.99500713 0.80420289
0.39748567 0.98954287 0.79747148
0.53785057 0.98421139 0.79089427
0.67478491 0.97898546 0.78443809
0.80872108 0.97384942 0.77808389
0.93994328 0.96879303 0.77181926
0.99406354 0.96670037 0.76922389
