luts/cubes/cinematic_teal_orange.cube
TITLE "teal_orange"
LUT_3D_SIZE 33
DOMAIN_MIN 0.0 0.0 0.0
DOMAIN_MAX 1.0 1.0 1.0
0.01870149 0.07354920 0.11029100
0.03555122 0.07266024 0.10926844
0.07273747 0.07070194 0.10701627
0.10872274 0.06881154 0.10484272
0.14413510 0.06695563 0.10270937
0.17919615 0.06512238 0.10060257
0.21402060 0.06330564 0.09851524
0.24867848 0.06150162 0.09644301
0.28321688 0.05970778 0.09438295
0.31766954 0.05792229 0.09233295
0.35206176 0.05614376 0.09029141
0.38641316 0.05437112 0.08825708
0.42073939 0.05260351 0.08622897
0.45505317 0.05084021 0.08420628
0.48936506 0.04908066 0.08218831
0.52368394 0.04732434 0.08017450
0.55801734 0.04557084 0.07816435
0.59237177 0.04381979 0.07615745
0.62675288 0.04207088 0.07415342
0.66116560 0.04032381 0.07215194
0.69561431 0.03857835 0.07015272
0.73010285 0.03683427 0.06815551
0.76463470 0.03509137 0.06616006
0.79921295 0.03334947 0.06416618
0.83384039 0.03160841 0.06217367
0.86851955 0.02986805 0.06018236
0.90325274 0.02812824 0.05819211
0.93804205 0.02638886 0.05620275
0.97288939 0.02464981 0.05421416
1.00000000 0.02291097 0.05222622
1.00000000 0.02174127 0.05088919
1.00000000 0.02174127 0.05088919
1.00000000 0.02174127 0.05088919
0.01569586 0.09717160 0.10466854
0.03263825 0.09630707 0.10364156
0.07002832 0.09440253 0.10137966
0.10620997 0.09256391 0.09919674
0.14181476 0.09075875 0.09705420
0.17706554 0.08897554 0.09493834
0.21207766 0.08720828 0.09284205
0.24692156 0.08545333 0.09076094
0.28164460 0.08370818 0.08869207
0.31628072 0.08197107 0.08663332
0.35085536 0.08024065 0.08458307
0.38538826 0.07851587 0.08254008
0.41989515 0.07679590 0.08050335
0.45438885 0.07508006 0.07847206
0.48887997 0.07336776 0.07644554
0.52337743 0.07165854 0.07442320
0.55788883 0.06995199 0.07240456
0.59242072 0.06824773 0.07038919
0.62697876 0.06654548 0.06837672
0.66156794 0.06484495 0.06636681
0.69619264 0.06314590 0.06435919
0.73085676 0.06144812 0.06235360
0.76556376 0.05975141 0.06034979
0.80031678 0.05805560 0.05834756
0.83511862 0.05636054 0.05634673
0.86997183 0.05466607 0.05434712
0.90487872 0.05297207 0.05234857
0.93984140 0.05127842 0.05035094
0.97486181 0.04958500 0.04835409
1.00000000 0.04789172 0.04635791
1.00000000 0.04675263 0.04501533
1.00000000 0.04675263 0.04501533
1.00000000 0.04675263 0.04501533
0.01258463 0.12172978 0.09887053
0.02962215 0.12089035 0.09783901
0.06722150 0.11904099 0.09556712
0.10360477 0.11725555 0.09337457
0.13940714 0.11550249 0.09122261
0.17485271 0.11377065 0.08909745
0.21005752 0.11205421 0.08699196
0.24509242 0.11034962 0.08490174
0.28000504 0.10865447 0.08282382
0.31482952 0.10696703 0.08075607
0.34959145 0.10528600 0.07869688
0.38431070 0.10361037 0.07664500
0.41900309 0.10193932 0.07459941
0.45368151 0.10027219 0.07255931
0.48835665 0.09860842 0.07052400
0.52303747 0.09694756 0.06849292
0.55773164 0.09528920 0.06646555
0.59244572 0.09363300 0.06444148
0.62718543 0.09197865 0.06242034
0.66195578 0.09032590 0.06040179
0.69676118 0.08867450 0.05838554
0.73160556 0.08702426 0.05637134
0.76649240 0.08537498 0.05435895
0.80142486 0.08372649 0.05234816
0.83640576 0.08207864 0.05033878
0.87143766 0.08043130 0.04833064
0.90652290 0.07878434 0.04632358
0.94166360 0.07713763 0.04431745
0.97686170 0.07549107 0.04231212
1.00000000 0.07384457 0.04030747
1.00000000 0.07273691 0.03895921
1.00000000 0.07273691 0.03895921
1.00000000 0.07273691 0.03895921
0.00940413 0.14694330 0.09296601
0.02653811 0.14612930 0.09192988
0.06434964 0.14433590 0.08964786
0.10093733 0.14260437 0.08744556
0.13694001 0.14090413 0.08528403
0.17258308 0.13922437 0.08314945
0.20798325 0.13755946 0.08103463
0.24321179 0.13590593 0.07893517
0.27831662 0.13426147 0.07684807
0.31333207 0.13262440 0.07477121
0.34828389 0.13099344 0.07270295
0.38319207 0.12936764 0.07064205
0.41807254 0.12774618 0.06858749
0.45293824 0.12612844 0.06653845
0.48779995 0.12451388 0.06449424
0.52266668 0.12290204 0.06245428
0.55754614 0.12129254 0.06041807
0.59244494 0.11968506 0.05838518
0.62736883 0.11807928 0.05635525
0.66232287 0.11647497 0.05432793
0.69731148 0.11487189 0.05230294
0.73233861 0.11326984 0.05028001
0.76740779 0.11166865 0.04825892
0.80252218 0.11006814 0.04623945
0.83768462 0.10846817 0.04422140
0.87289769 0.10686860 0.04220461
0.90816375 0.10526932 0.04018892
0.94348493 0.10367021 0.03817418
0.97886319 0.10207116 0.03616025
1.00000000 0.10047209 0.03414701
1.00000000 0.09939629 0.03279298
1.00000000 0.09939629 0.03279298
1.00000000 0.09939629 0.03279298
0.00616673 0.17271796 0.08697868
0.02339808 0.17192965 0.08593790
0.06142380 0.17019273 0.08364566
0.09821786 0.16851562 0.08143351
0.13442275 0.16686871 0.07926233
0.17026520 0.16524153 0.07711823
0.20586259 0.16362863 0.07499400
0.24128661 0.16202666 0.07288520
0.27658547 0.16043336 0.07078885
0.31179370 0.15884713 0.06870278
0.34693723 0.15726673 0.06662538
0.38203614 0.15569122 0.06455537
0.41710645 0.15411983 0.06249175
0.45216123 0.15255195 0.06043368
0.48721127 0.15098706 0.05838048
0.52226568 0.14942472 0.05633156
0.55733219 0.14786455 0.05428642
0.59241747 0.14630624 0.05224464
0.62752730 0.14474950 0.05020583
0.66266676 0.14319408 0.04816966
0.69784032 0.14163978 0.04613584
0.73305195 0.14008639 0.04410411
0.76830520 0.13853373 0.04207423
0.80360324 0.13698166 0.04004599
0.83894895 0.13543002 0.03801920
0.87434492 0.13387869 0.03599368
0.90979352 0.13232754 0.03396927
0.94529690 0.13077648 0.03194583
0.98085703 0.12922540 0.02992322
1.00000000 0.12767420 0.02790132
1.00000000 0.12663057 0.02654147
1.00000000 0.12663057 0.02654147
1.00000000 0.12663057 0.02654147
0.00287875 0.19900604 0.08092084
0.02020818 0.19824359 0.07987539
0.05844965 0.19656357 0.07757284
0.09545157 0.19494128 0.07535077
0.13186014 0.19334809 0.07316987
0.16790341 0.19177386 0.07101619
0.20369945 0.19021335 0.06888247
0.23932037 0.18866330 0.06676428
0.27481467 0.18712155 0.06465860
0.31021709 0.18558652 0.06256326
0.34555370 0.18405705 0.06047664
0.38084472 0.18253220 0.05839746
0.41610627 0.18101124 0.05632471
0.45135148 0.17949358 0.05425756
0.48659123 0.17797872 0.05219530
0.52183467 0.17646622 0.05013736
0.55708959 0.17495574 0.04808323
0.59236270 0.17344697 0.04603248
0.62765982 0.17193962 0.04398473
0.66298605 0.17043346 0.04193964
0.69834590 0.16892828 0.03989693
0.73374337 0.16742390 0.03785633
0.76918201 0.16592014 0.03581760
0.80466505 0.16441684 0.03378053
0.84019535 0.16291389 0.03174493
0.87577554 0.16141114 0.02971062
0.91140800 0.15990848 0.02767744
0.94709490 0.15840582 0.02564524
0.98283822 0.15690304 0.02361388
1.00000000 0.15540007 0.02158325
1.00000000 0.15438883 0.02021754
1.00000000 0.15438883 0.02021754
1.00000000 0.15438883 0.02021754
0.00000000 0.22577892 0.07480004
0.01697214 0.22504249 0.07374988
0.05543062 0.22341970 0.07143698
0.09264161 0.22185254 0.06920493
0.12925506 0.22031338 0.06701424
0.16550033 0.21879243 0.06485092
0.20149618 0.21728460 0.06270767
0.23731516 0.21578679 0.06058002
0.27300604 0.21429688 0.05846496
0.30860379 0.21281336 0.05636030
0.34413462 0.21133510 0.05426440
0.37961887 0.20986121 0.05217601
0.41507278 0.20839099 0.05009407
0.45050954 0.20692384 0.04801777
0.48594011 0.20545930 0.04594641
0.52137370 0.20399695 0.04387939
0.55681813 0.20253645 0.04181621
0.59228017 0.20107749 0.03975645
0.62776567 0.19961983 0.03769970
0.66327978 0.19816321 0.03564565
0.69882701 0.19670745 0.03359400
0.73441140 0.19525236 0.03154447
0.77003653 0.19379778 0.02949684
0.80570564 0.19234356 0.02745089
0.84142162 0.19088957 0.02540643
0.87718712 0.18943568 0.02336327
0.91300452 0.18798180 0.02132126
0.94887601 0.18652782 0.01928025
0.98480359 0.18507364 0.01724010
1.00000000 0.18361918 0.01520069
1.00000000 0.18264052 0.01382908
1.00000000 0.18264052 0.01382908
1.00000000 0.18264052 0.01382908
0.00000000 0.25301773 0.06862137
0.01369244 0.25230744 0.06756647
0.05236899 0.25074216 0.06524316
0.08979010 0.24923041 0.06300108
0.12660943 0.24774554 0.06080057
0.16305769 0.24627812 0.05862756
0.19925434 0.24482325 0.05647472
0.23527235 0.24337793 0.05433758
0.27116079 0.24194011 0.05221308
0.30695482 0.24050836 0.05009905
0.34268082 0.23908158 0.04799385
0.37835927 0.23765890 0.04589618
0.41400648 0.23623965 0.04380502
0.44963574 0.23482327 0.04171953
0.48525807 0.23340930 0.03963901
0.52088273 0.23199734 0.03756287
0.55651762 0.23058706 0.03549061
0.59216951 0.22917818 0.03342178
0.62784433 0.22777043 0.03135600
0.66354722 0.22636361 0.02929294
0.69928276 0.22495750 0.02723229
0.73505500 0.22355195 0.02517380
0.77086754 0.22214679 0.02311723
0.80672364 0.22074188 0.02106235
0.84262621 0.21933710 0.01900898
0.87857792 0.21793233 0.01695693
0.91458117 0.21652745 0.01490605
0.95063817 0.21512239 0.01285619
0.98675092 0.21371704 0.01080720
1.00000000 0.21231133 0.00875897
1.00000000 0.21136542 0.00738143
1.00000000 0.21136542 0.00738143
1.00000000 0.21136542 0.00738143
0.00000000 0.28070922 0.06238849
0.01037083 0.28002518 0.06132884
0.04926640 0.27851766 0.05899507
0.08689850 0.27706156 0.05674292
0.12392460 0.27563122 0.05453254
0.16057671 0.27421756 0.05234980
0.19697502 0.27281587 0.05018734
0.23319290 0.27142325 0.04804065
0.26927973 0.27003776 0.04590669
0.30527088 0.26865799 0.04378325
0.34119289 0.26728289 0.04166869
0.37706635 0.26591164 0.03956171
0.41290768 0.26454359 0.03746129
0.44873026 0.26317819 0.03536657
0.48454516 0.26181500 0.03327686
0.52036171 0.26045365 0.03119156
0.55618786 0.25909381 0.02911017
0.59203042 0.25773520 0.02703224
0.62789535 0.25637760 0.02495738
0.66378784 0.25502077 0.02288527
0.69971249 0.25366454 0.02081560
0.73567336 0.25230873 0.01874811
0.77167411 0.25095321 0.01668255
0.80771799 0.24959782 0.01461871
0.84380795 0.24824245 0.01255639
0.87994667 0.24688700 0.01049542
0.91613656 0.24553135 0.00843563
0.95237984 0.24417541 0.00637687
0.98867855 0.24281910 0.00431901
1.00000000 0.24146234 0.00226192
1.00000000 0.24054932 0.00087843
1.00000000 0.24054932 0.00087843
1.00000000 0.24054932 0.00087843
0.00000000 0.30884370 0.05610415
0.00700865 0.30818601 0.05503973
0.04612404 0.30673647 0.05269548
0.08396793 0.30533621 0.05043322
0.12120156 0.30396060 0.04821293
0.15805829 0.30260090 0.04602042
0.19465900 0.30125259 0.04384830
0.23107750 0.29991288 0.04169204
0.26736347 0.29857990 0.03954857
0.30355247 0.29725231 0.03741569
0.33967121 0.29592910 0.03529173
0.37574042 0.29460947 0.03317541
0.41177660 0.29329280 0.03106569
0.44779321 0.29197857 0.02896171
0.48380141 0.29066635 0.02686278
0.51981057 0.28935579 0.02476828
0.55582868 0.28804658 0.02267773
0.59186263 0.28673845 0.02059066
0.62791838 0.28543116 0.01850670
0.66400117 0.28412452 0.01642550
0.70011563 0.28281835 0.01434677
0.73626586 0.28151248 0.01227024
0.77245551 0.28020677 0.01019567
0.80868787 0.27890109 0.00812283
0.84496592 0.27759532 0.00605154
0.88129234 0.27628937 0.00398160
0.91766957 0.27498312 0.00191287
0.95409984 0.27367649 0.00000000
0.99058520 0.27236941 0.00000000
1.00000000 0.27106179 0.00000000
1.00000000 0.27018178 0.00000000
1.00000000 0.27018178 0.00000000
1.00000000 0.27018178 0.00000000
0.00000000 0.33741381 0.04977051
0.00360689 0.33678257 0.04870131
0.04294283 0.33539119 0.04634652
0.08099922 0.33404697 0.04407412
0.11844107 0.33272627 0.04184390
0.15550310 0.33142071 0.03964159
0.19230689 0.33012595 0.03745978
0.22892668 0.32883933 0.03529390
0.26541244 0.32755904 0.03314090
0.30179996 0.32628380 0.03099854
0.33811610 0.32501264 0.02886517
0.37438169 0.32374481 0.02673947
0.41061337 0.32247969 0.02462042
0.44682467 0.32121680 0.02250715
0.48302680 0.31995573 0.02039895
0.51922921 0.31869614 0.01829524
0.55543993 0.31743772 0.01619549
0.59166589 0.31618022 0.01409925
0.62791311 0.31492343 0.01200615
0.66418684 0.31366714 0.00991584
0.70049174 0.31241119 0.00782802
0.73683194 0.31115542 0.00574242
0.77321113 0.30989969 0.00365880
0.80963261 0.30864389 0.00157694
0.84609937 0.30738789 0.00000000
0.88261411 0.30613160 0.00000000
0.91917931 0.30487492 0.00000000
0.95579719 0.30361777 0.00000000
0.99246981 0.30236007 0.00000000
1.00000000 0.30110175 0.00000000
1.00000000 0.30025486 0.00000000
1.00000000 0.30025486 0.00000000
1.00000000 0.30025486 0.00000000
0.00000000 0.36641386 0.04338928
0.00016635 0.36580914 0.04231528
0.03972351 0.36447610 0.03994993
0.07799304 0.36318809 0.03766736
0.11564373 0.36192247 0.03542717
0.15291168 0.36067121 0.03321503
0.18991915 0.35943017 0.03102349
0.22674085 0.35819679 0.02884798
0.26342700 0.35696935 0.02668541
0.30001363 0.35574662 0.02453355
0.33652775 0.35452767 0.02239073
0.37299033 0.35331178 0.02025563
0.40941810 0.35209838 0.01812721
0.44582466 0.35088698 0.01600463
0.48222131 0.34967721 0.01388715
0.51861755 0.34846873 0.01177418
0.55502146 0.34726126 0.00966521
0.59144002 0.34605456 0.00755978
0.62787927 0.34484841 0.00545751
0.66434451 0.34364262 0.00335806
0.70084043 0.34243705 0.00126113
0.73737118 0.34123153 0.00000000
0.77394047 0.34002593 0.00000000
0.81055163 0.33882015 0.00000000
0.84720767 0.33761407 0.00000000
0.88391131 0.33640759 0.00000000
0.92066503 0.33520063 0.00000000
0.95747108 0.33399310 0.00000000
0.99433155 0.33278494 0.00000000
1.00000000 0.33157607 0.00000000
1.00000000 0.33076240 0.00000000
1.00000000 0.33076240 0.00000000
1.00000000 0.33076240 0.00000000
0.00000000 0.39583935 0.03696186
0.00000000 0.39526122 0.03588304
0.03646666 0.39398668 0.03350711
0.07494991 0.39275503 0.03121433
0.11281002 0.39154463 0.02896414
0.15028445 0.39034783 0.02674215
0.18749617 0.38916065 0.02454087
0.22452031 0.38798066 0.02235569
0.26140741 0.38680621 0.02018353
0.29819370 0.38563613 0.01802214
0.33490634 0.38446954 0.01586984
0.37156645 0.38330574 0.01372531
0.40819083 0.38214419 0.01158751
0.44479320 0.38098443 0.00945558
0.48138490 0.37982610 0.00732879
0.51797550 0.37866888 0.00520655
0.55457314 0.37751249 0.00308833
0.59118481 0.37635672 0.00097368
0.62781662 0.37520135 0.00000000
0.66447390 0.37404621 0.00000000
0.70116136 0.37289114 0.00000000
0.73788318 0.37173601 0.00000000
0.77464309 0.37058069 0.00000000
0.81144446 0.36942507 0.00000000
0.84829029 0.36826904 0.00000000
0.88518335 0.36711251 0.00000000
0.92212611 0.36595540 0.00000000
0.95912085 0.36479764 0.00000000
0.99616966 0.36363914 0.00000000
1.00000000 0.36247986 0.00000000
1.00000000 0.36169950 0.00000000
1.00000000 0.36169950 0.00000000
1.00000000 0.36169950 0.00000000
0.00000000 0.42568665 0.03048940
0.00000000 0.42513518 0.02940576
0.03317276 0.42391928 0.02701921
0.07187026 0.42274414 0.02471621
0.10994032 0.42158911 0.02245600
0.14762174 0.42044690 0.02022412
0.18503822 0.41931372 0.01801307
0.22226532 0.41818725 0.01581821
0.25935388 0.41706592 0.01363643
0.29634032 0.41594863 0.01146548
0.33325199 0.41483453 0.00930368
0.37011012 0.41372295 0.00714971
0.40693162 0.41261338 0.00500250
0.44373028 0.41150539 0.00286119
0.48051753 0.41039863 0.00072507
0.51730298 0.40929279 0.00000000
0.55409482 0.40818762 0.00000000
0.59090010 0.40708290 0.00000000
0.62772496 0.40597844 0.00000000
0.66457476 0.40487407 0.00000000
0.70145424 0.40376965 0.00000000
0.73836761 0.40266503 0.00000000
0.77531863 0.40156010 0.00000000
0.81231067 0.40045477 0.00000000
0.84934678 0.39934891 0.00000000
0.88642973 0.39824246 0.00000000
0.92356201 0.39713534 0.00000000
0.96074591 0.39602746 0.00000000
0.99798355 0.39491876 0.00000000
1.00000000 0.39380918 0.00000000
1.00000000 0.39344103 0.00000000
1.00000000 0.39344103 0.00000000
1.00000000 0.39344103 0.00000000
0.00000000 0.45595282 0.02397289
0.00000000 0.45542808 0.02288440
0.02984219 0.45427096 0.02048722
0.06875444 0.45315245 0.01817397
0.10703494 0.45205292 0.01590371
0.14492385 0.45096542 0.01366193
0.18254556 0.44988636 0.01144108
0.21997609 0.44881354 0.00923651
0.25726656 0.44774547 0.00704509
0.29445363 0.44668109 0.00486457
0.33156480 0.44561959 0.00269325
0.36862141 0.44456036 0.00052980
0.40564048 0.44350289 0.00000000
0.44263589 0.44244679 0.00000000
0.47961914 0.44139171 0.00000000
0.51659989 0.44033737 0.00000000
0.55358639 0.43928354 0.00000000
0.59058573 0.43823000 0.00000000
0.62760409 0.43717657 0.00000000
0.66464685 0.43612309 0.00000000
0.70171880 0.43506942 0.00000000
0.73882417 0.43401544 0.00000000
0.77596673 0.43296103 0.00000000
0.81314990 0.43190609 0.00000000
0.85037673 0.43085053 0.00000000
0.88765000 0.42979428 0.00000000
0.92478863 0.42881248 0.00000000
0.96076268 0.42827898 0.00000000
0.99657135 0.42774878 0.00000000
1.00000000 0.42722184 0.00000000
1.00000000 0.42686917 0.00000000
1.00000000 0.42686917 0.00000000
1.00000000 0.42686917 0.00000000
0.00000000 0.48663545 0.01741314
0.00000000 0.48613749 0.01631981
0.02647529 0.48503929 0.01391197
0.06560276 0.48397753 0.01158844
0.10409415 0.48293361 0.00930812
0.14219098 0.48190095 0.00705642
0.18001838 0.48087613 0.00482575
0.21765278 0.47985708 0.00261145
0.25514561 0.47884237 0.00041037
0.29253374 0.47783101 0.00000000
0.32984482 0.47682223 0.00000000
0.36710034 0.47581546 0.00000000
0.40431742 0.47481021 0.00000000
0.44151001 0.47380610 0.00000000
0.47868968 0.47280283 0.00000000
0.51586616 0.47180011 0.00000000
0.55304774 0.47079772 0.00000000
0.59024156 0.46979546 0.00000000
0.62745382 0.46879317 0.00000000
0.66468997 0.46779069 0.00000000
0.70195481 0.46678789 0.00000000
0.73925258 0.46578465 0.00000000
0.77658712 0.46478086 0.00000000
0.81363859 0.46392012 0.00000000
0.84996998 0.46333437 0.00000000
0.88612581 0.46275218 0.00000000
0.92210984 0.46217348 0.00000000
0.95792555 0.46159822 0.00000000
0.99357615 0.46102634 0.00000000
1.00000000 0.46045779 0.00000000
1.00000000 0.46007716 0.00000000
1.00000000 0.46007716 0.00000000
1.00000000 0.46007716 0.00000000
0.00000000 0.51773255 0.01081089
0.00000000 0.51726142 0.00971270
0.02307233 0.51622224 0.00729417
0.06241546 0.51521736 0.00496035
0.10111816 0.51422917 0.00266994
0.13942335 0.51325145 0.00040830
0.17745684 0.51228099 0.00000000
0.21529553 0.51131580 0.00000000
0.25299112 0.51035457 0.00000000
0.29058071 0.50939634 0.00000000
0.32809213 0.50844039 0.00000000
0.36554696 0.50748618 0.00000000
0.40296244 0.50653325 0.00000000
0.44035261 0.50558125 0.00000000
0.47772909 0.50462988 0.00000000
0.51510169 0.50367888 0.00000000
0.55247875 0.50272804 0.00000000
0.58986744 0.50177718 0.00000000
0.62727401 0.50082612 0.00000000
0.66470394 0.49987475 0.00000000
0.70184708 0.49908711 0.00000000
0.73857060 0.49844785 0.00000000
0.77510547 0.49781249 0.00000000
0.81145658 0.49718092 0.00000000
0.84762838 0.49655308 0.00000000
0.88362493 0.49592888 0.00000000
0.91945000 0.49530826 0.00000000
0.95510704 0.49469116 0.00000000
0.99059926 0.49407752 0.00000000
1.00000000 0.49346727 0.00000000
1.00000000 0.49305863 0.00000000
1.00000000 0.49305863 0.00000000
1.00000000 0.49305863 0.00000000
0.00000000 0.54924244 0.00416675
0.00000000 0.54879820 0.00306369
0.01963356 0.54781816 0.00063446
0.05919275 0.54687026 0.00000000
0.09810717 0.54593790 0.00000000
0.13662110 0.54501523 0.00000000
0.17486108 0.54409922 0.00000000
0.21290444 0.54318801 0.00000000
0.25080319 0.54228035 0.00000000
0.28859462 0.54137535 0.00000000
0.32630674 0.54047234 0.00000000
0.36396127 0.53957078 0.00000000
0.40157553 0.53867028 0.00000000
0.43916365 0.53777048 0.00000000
0.47673733 0.53687111 0.00000000
0.51430642 0.53597193 0.00000000
0.55187932 0.53507274 0.00000000
0.58929352 0.53431346 0.00000000
0.62645535 0.53361911 0.00000000
0.66341105 0.53292910 0.00000000
0.70016721 0.53224329 0.00000000
0.73672975 0.53156158 0.00000000
0.77310403 0.53088386 0.00000000
0.80929490 0.53021004 0.00000000
0.84530679 0.52954003 0.00000000
0.88114377 0.52887375 0.00000000
0.91680958 0.52821113 0.00000000
0.95230765 0.52755210 0.00000000
0.98764120 0.52689661 0.00000000
1.00000000 0.52624459 0.00000000
1.00000000 0.52580789 0.00000000
1.00000000 0.52580789 0.00000000
1.00000000 0.52580789 0.00000000
0.00000000 0.58116374 0.00000000
0.00000000 0.58074643 0.00000000
0.01615917 0.57982564 0.00000000
0.05593481 0.57893482 0.00000000
0.09506133 0.57805840 0.00000000
0.13378438 0.57719088 0.00000000
0.17223122 0.57632942 0.00000000
0.21047961 0.57547228 0.00000000
0.24858187 0.57461829 0.00000000
0.28657552 0.57376661 0.00000000
0.32448870 0.57291662 0.00000000
0.36234327 0.57206783 0.00000000
0.40015667 0.57121984 0.00000000
0.43794309 0.57037233 0.00000000
0.47581098 0.56960121 0.00000000
0.51347543 0.56884967 0.00000000
0.55090911 0.56810309 0.00000000
0.58812146 0.56736128 0.00000000
0.62512076 0.56662407 0.00000000
0.66191438 0.56589132 0.00000000
0.69850889 0.56516288 0.00000000
0.73491017 0.56443864 0.00000000
0.77112357 0.56371849 0.00000000
0.80715391 0.56300233 0.00000000
0.84300562 0.56229008 0.00000000
0.87868273 0.56158164 0.00000000
0.91418899 0.56087695 0.00000000
0.94952781 0.56017593 0.00000000
0.98470239 0.55947851 0.00000000
1.00000000 0.55878464 0.00000000
1.00000000 0.55831983 0.00000000
1.00000000 0.55831983 0.00000000
1.00000000 0.55831983 0.00000000
0.00000000 0.61349528 0.00000000
0.00000000 0.61310495 0.00000000
0.01264934 0.61224351 0.00000000
0.05264179 0.61140986 0.00000000
0.09198077 0.61058947 0.00000000
0.13091329 0.60977719 0.00000000
0.16956734 0.60897038 0.00000000
0.20802111 0.60816740 0.00000000
0.24632723 0.60736717 0.00000000
0.28452343 0.60656891 0.00000000
0.32263802 0.60577203 0.00000000
0.36115399 0.60495534 0.00000000
0.39941701 0.60414360 0.00000000
0.43741175 0.60333779 0.00000000
0.47515292 0.60253758 0.00000000
0.51265306 0.60174270 0.00000000
0.54992297 0.60095293 0.00000000
0.58697205 0.60016806 0.00000000
0.62380856 0.59938792 0.00000000
0.66043983 0.59861235 0.00000000
0.69687241 0.59784121 0.00000000
0.73311216 0.59707438 0.00000000
0.76916439 0.59631173 0.00000000
0.80503394 0.59555317 0.00000000
0.84072519 0.59479859 0.00000000
0.87624217 0.59404793 0.00000000
0.91158861 0.59330109 0.00000000
0.94676791 0.59255800 0.00000000
0.98178326 0.59181859 0.00000000
1.00000000 0.59108280 0.00000000
1.00000000 0.59058983 0.00000000
1.00000000 0.59058983 0.00000000
1.00000000 0.59058983 0.00000000
0.00000000 0.64623608 0.00000000
0.00000000 0.64587277 0.00000000
0.00910422 0.64507077 0.00000000
0.04931384 0.64429440 0.00000000
0.08886561 0.64353012 0.00000000
0.12800794 0.64277317 0.00000000
0.16686953 0.64202109 0.00000000
0.20554042 0.64127075 0.00000000
0.24492703 0.64038575 0.00000000
0.28394754 0.63950907 0.00000000
0.32263545 0.63863996 0.00000000
0.36101706 0.63777782 0.00000000
0.39911359 0.63692217 0.00000000
0.43694252 0.63607263 0.00000000
0.47451853 0.63522886 0.00000000
0.51185410 0.63439059 0.00000000
0.54895997 0.63355756 0.00000000
0.58584551 0.63272957 0.00000000
0.62251897 0.63190643 0.00000000
0.65898763 0.63108797 0.00000000
0.69525802 0.63027406 0.00000000
0.73133598 0.62946456 0.00000000
0.76722680 0.62865934 0.00000000
0.80293529 0.62785831 0.00000000
0.83846582 0.62706135 0.00000000
0.87382242 0.62626839 0.00000000
0.90900878 0.62547933 0.00000000
0.94402831 0.62469411 0.00000000
0.97888417 0.62391264 0.00000000
1.00000000 0.62313487 0.00000000
1.00000000 0.62261368 0.00000000
1.00000000 0.62261368 0.00000000
1.00000000 0.62261368 0.00000000
0.00000000 0.67938531 0.00000000
0.00000000 0.67904907 0.00000000
0.00552395 0.67830660 0.00000000
0.04595106 0.67758758 0.00000000
0.08573072 0.67687677 0.00000000
0.12638388 0.67591290 0.00000000
0.16647854 0.67496222 0.00000000
0.20610368 0.67402263 0.00000000
0.24531988 0.67309268 0.00000000
0.28417107 0.67217135 0.00000000
0.32269061 0.67125784 0.00000000
0.36090471 0.67035152 0.00000000
0.39883449 0.66945191 0.00000000
0.43649738 0.66855857 0.00000000
0.47390797 0.66767118 0.00000000
0.51107870 0.66678944 0.00000000
0.54802029 0.66591308 0.00000000
0.58474206 0.66504190 0.00000000
0.62125221 0.66417570 0.00000000
0.65755802 0.66331430 0.00000000
0.69366597 0.66245755 0.00000000
0.72958189 0.66160531 0.00000000
0.76531105 0.66075746 0.00000000
0.80085823 0.65991389 0.00000000
0.83622781 0.65907448 0.00000000
0.87142378 0.65823916 0.00000000
0.90644981 0.65740783 0.00000000
0.94130932 0.65658040 0.00000000
0.97600545 0.65575681 0.00000000
1.00000000 0.65493699 0.00000000
1.00000000 0.65438755 0.00000000
