luts/cubes/clean_modern.cube
TITLE "clean_modern"
LUT_3D_SIZE 5
DOMAIN_MIN 0.0 0.0 0.0
DOMAIN_MAX 1.0 1.0 1.0
0.22443599 0.22443599 0.22443599
0.37432531 0.22085085 0.22085085
0.54809598 0.21740208 0.21740208
0.70939545 0.21402699 0.21402699
0.82243209 0.21097020 0.21097020
0.21253935 0.36292836 0.21253935
0.35815257 0.35815257 0.20909302
0.53078460 0.35353257 0.20577936
0.69482263 0.34898653 0.20253801
0.81202567 0.34484792 0.19960364
0.20141224 0.52407139 0.20141224
0.34271998 0.51890227 0.19810095
0.51386882 0.51386882 0.19491856
0.68025820 0.50888399 0.19180697
0.80145638 0.50431810 0.18899123
0.19083348 0.67888808 0.19083348
0.32776550 0.67435561 0.18765524
0.49709431 0.66991398 0.18460202
0.66548764 0.66548764 0.18161797
0.79056084 0.66140896 0.17891869
0.18152427 0.79346599 0.18152427
0.31437167 0.79005064 0.17846687
0.48173967 0.78668787 0.17553085
0.65167166 0.78332095 0.17266238
0.78020448 0.78020448 0.17006854
0.22321384 0.22321384 0.37753472
0.37267917 0.21964270 0.37267917
0.54635295 0.21620755 0.36797921
0.70794305 0.21284597 0.36335182
0.82140240 0.20980154 0.35913683
0.21136433 0.36130338 0.36130338
0.35653701 0.35653701 0.35653701
0.52903217 0.35192643 0.35192643
0.69332888 0.34738994 0.34738994
0.81094951 0.34326029 0.34326029
0.20028309 0.52231645 0.34580818
0.34113704 0.51714584 0.34113704
0.51211129 0.51211129 0.33662142
0.67872612 0.50712572 0.33218110
0.80033459 0.50255947 0.32814133
0.18974955 0.67735255 0.33078676
0.32621735 0.67280886 0.32621735
0.49533569 0.66835650 0.32180277
0.66391975 0.66391975 0.31746437
0.78939366 0.65983174 0.31351956
0.18048141 0.79231075 0.31732775
0.31285734 0.78888138 0.31285734
0.47998353 0.78550496 0.30854076
0.65007307 0.78212454 0.30430094
0.77899573 0.77899573 0.30044769
0.22202924 0.22202924 0.55477214
0.37108029 0.21847172 0.54964993
0.54465588 0.21504985 0.54465588
0.70652578 0.21170140 0.53970397
0.82039604 0.20866901 0.53516288
0.21022560 0.35972533 0.53750070
0.35496820 0.35496820 0.53234729
0.52732637 0.35036686 0.52732637
0.69187156 0.34583975 0.52235127
0.80989787 0.34171887 0.51779194
0.19918899 0.52060837 0.52060837
0.33960023 0.51543642 0.51543642
0.51040092 0.51040092 0.51040092
0.67723171 0.50541476 0.50541476
0.79923852 0.50084825 0.50084825
0.18869941 0.67585480 0.50384187
0.32471463 0.67130026 0.49866323
0.49362466 0.66683753 0.49362466
0.66239073 0.66239073 0.48863882
0.78825342 0.65829368 0.48407554
0.17947120 0.79118213 0.48848126
0.31138772 0.78773912 0.48330670
0.47827527 0.78434943 0.47827527
0.64851440 0.78095587 0.47329956
0.77781504 0.77781504 0.46874821
0.22086118 0.22086118 0.71760554
0.36950051 0.21731715 0.71338886
0.54297513 0.21390840 0.70925007
0.70511903 0.21057296 0.70511903
0.81939559 0.20755248 0.70130669
0.20910294 0.35816636 0.70327222
0.35341847 0.35341847 0.69893130
0.52563736 0.34882636 0.69467310
0.69042534 0.34430860 0.69042534
0.80885257 0.34019648 0.68650750
0.19811048 0.51891725 0.68893051
0.33808243 0.51374410 0.68447391
0.50870777 0.50870777 0.68010482
0.67574899 0.50372114 0.67574899
0.79814922 0.49915449 0.67173371
0.18766439 0.67436879 0.67436879
0.32323080 0.66980357 0.66980357
0.49193125 0.66533066 0.66533066
0.66087397 0.66087397 0.66087397
0.78712039 0.65676805 0.65676805
0.17847567 0.79006060 0.66073263
0.30993684 0.78660408 0.65607372
0.47658497 0.78320125 0.65151159
0.64696852 0.77979470 0.64696852
0.77664198 0.77664198 0.64278525
0.21979552 0.21979552 0.82993146
0.36805646 0.21626384 0.82698764
0.54143530 0.21286712 0.82408476
0.70382751 0.20954359 0.82117393
0.81847573 0.20653401 0.81847573
0.20807886 0.35674154 0.81986828
0.35200218 0.35200218 0.81678872
0.52409032 0.34741857 0.81375326
0.68909785 0.34290945 0.81071074
0.80789161 0.33880541 0.80789161
0.19712682 0.51736842 0.80963658
0.33669559 0.51219426 0.80642340
0.50715729 0.50715729 0.80325757
0.67438824 0.50217031 0.80008572
0.79714794 0.49760363 0.79714794
0.18672052 0.67300506 0.79907741
0.32187525 0.66843011 0.79573096
0.49038086 0.66394793 0.79243527
0.65948225 0.65948225 0.78913475
0.78607907 0.65536828 0.78607907
0.17756791 0.78902980 0.78902980
0.30861162 0.78556092 0.78556092
0.47503772 0.78214606 0.78214606
0.64555035 0.77872761 0.77872761
0.77556401 0.77556401 0.77556401
