luts/cubes/clean_modern.cube
TITLE "clean_modern"
LUT_3D_SIZE 9
DOMAIN_MIN 0.0 0.0 0.0
DOMAIN_MAX 1.0 1.0 1.0
0.22443599 0.22443599 0.22443599
0.29486256 0.22261374 0.22261374
0.37432531 0.22085085 0.22085085
0.46028757 0.21911584 0.21911584
0.54809598 0.21740208 0.21740208
0.63260429 0.21570642 0.21570642
0.70939545 0.21402699 0.21402699
0.77562487 0.21236256 0.21236256
0.82243209 0.21097020 0.21097020
0.21834793 0.28972827 0.21834793
0.28757247 0.28757247 0.21656131
0.36609059 0.28548408 0.21483311
0.45152649 0.28342601 0.21313244
0.53933373 0.28139051 0.21145280
0.62435761 0.27937393 0.20979110
0.70206064 0.27737411 0.20814551
0.76941833 0.27538966 0.20651480
0.81721519 0.27372768 0.20515080
0.21253935 0.36292836 0.21253935
0.28058339 0.36050434 0.21078744
0.35815257 0.35815257 0.20909302
0.44303064 0.35583151 0.20742578
0.53078460 0.35353257 0.20577936
0.61626370 0.35125169 0.20415070
0.69482263 0.34898653 0.20253801
0.76326490 0.34673556 0.20094008
0.81202567 0.34484792 0.19960364
0.20690199 0.44224387 0.20690199
0.27376869 0.43965569 0.20518444
0.35037143 0.43714053 0.20352344
0.43465423 0.43465423 0.20188928
0.52230493 0.43218770 0.20027569
0.60818849 0.42973670 0.19867970
0.68756245 0.42729877 0.19709953
0.75706368 0.42487234 0.19553398
0.80677838 0.42283466 0.19422476
0.20141224 0.52407139 0.20141224
0.26710228 0.52145204 0.19972879
0.34271998 0.51890227 0.19810095
0.42637023 0.51637757 0.19649959
0.51386882 0.51386882 0.19491856
0.60010785 0.51137177 0.19335494
0.68025820 0.50888399 0.19180697
0.75079533 0.50640393 0.19027351
0.80145638 0.50431810 0.18899123
0.19605848 0.60423849 0.19605848
0.26057215 0.60172505 0.19440889
0.33518663 0.59927430 0.19281395
0.41816798 0.59684369 0.19124513
0.50546655 0.59442450 0.18969640
0.59201270 0.59201270 0.18816488
0.67290118 0.58960600 0.18664885
0.74445162 0.58720291 0.18514718
0.79605197 0.58517883 0.18389160
0.19083348 0.67888808 0.19083348
0.25417142 0.67659498 0.18921750
0.32776550 0.67435561 0.18765524
0.41004278 0.67213125 0.18611872
0.49709431 0.66991398 0.18460202
0.58389951 0.66770014 0.18310234
0.66548764 0.66548764 0.18161797
0.73802839 0.66327512 0.18014781
0.79056084 0.66140896 0.17891869
0.18573217 0.74518769 0.18573217
0.24789568 0.74318895 0.18414955
0.32045339 0.74123434 0.18261971
0.40199278 0.73929019 0.18111522
0.48875113 0.73734962 0.17963031
0.57576741 0.73540942 0.17816218
0.65801617 0.73346778 0.17670921
0.73152350 0.73152350 0.17527027
0.78498033 0.72988155 0.17406736
0.18152427 0.79346599 0.18152427
0.24269919 0.79174011 0.17996958
0.31437167 0.79005064 0.17846687
0.39526368 0.78836854 0.17698919
0.48173967 0.78668787 0.17553085
0.56889671 0.78500587 0.17408912
0.65167166 0.78332095 0.17266238
0.72597480 0.78163206 0.17124954
0.78020448 0.78020448 0.17006854
0.22381596 0.22381596 0.29630623
0.29412175 0.22199730 0.29412175
0.37349061 0.22023791 0.29200529
0.45940192 0.21850636 0.28991929
0.54721268 0.21679605 0.28785589
0.63177520 0.21510381 0.28581140
0.70865984 0.21342780 0.28378365
0.77500374 0.21176677 0.28177122
0.82191079 0.21037728 0.28008561
0.21774000 0.28899508 0.28899508
0.28684253 0.28684253 0.28684253
0.36526353 0.28475732 0.28475732
0.45064363 0.28270241 0.28270241
0.53844773 0.28067008 0.28067008
0.62352098 0.27865666 0.27865666
0.70131428 0.27666001 0.27666001
0.76878514 0.27467872 0.27467872
0.81668198 0.27301941 0.27301941
0.21194321 0.36210436 0.28198511
0.27986422 0.35968274 0.27986422
0.35733333 0.35733333 0.27780998
0.44215100 0.35501465 0.27578588
0.52989649 0.35271809 0.27378429
0.61542015 0.35043962 0.27180160
0.69406605 0.34817689 0.26983569
0.76262003 0.34592837 0.26788517
0.81148082 0.34404281 0.26625184
0.20631751 0.44136455 0.27514939
0.27306036 0.43877747 0.27306036
0.34956030 0.43626342 0.27103726
0.43377827 0.43377827 0.26904412
0.52141524 0.43131292 0.26707342
0.60733850 0.42886313 0.26512158
0.68679598 0.42642645 0.26318653
0.75640730 0.42400131 0.26126688
0.80622194 0.42196473 0.25965959
0.20083935 0.52318198 0.26846179
0.26640487 0.52056222 0.26640487
0.34191724 0.51801209 0.26441315
0.42549840 0.51548709 0.26245119
0.51297807 0.51297807 0.26051156
0.59925189 0.51048080 0.25859077
0.67948216 0.50799285 0.25668673
0.75012761 0.50551267 0.25479809
0.80088840 0.50342676 0.25321695
0.19549709 0.60338552 0.26191029
0.25988574 0.60087024 0.25988574
0.33439256 0.59841775 0.25792562
0.41730072 0.59598544 0.25599504
0.50457524 0.59356460 0.25408670
0.59115122 0.59115122 0.25219711
0.67211590 0.58874296 0.25032426
0.74377270 0.58633836 0.24846679
0.79547248 0.58431304 0.24691192
0.19028351 0.67811029 0.25548805
0.25349609 0.67581429 0.25349609
0.32698036 0.67357213 0.25156778
0.40918052 0.67134502 0.24966878
0.49620295 0.66912505 0.24779189
0.58303296 0.66690855 0.24593368
0.66469342 0.66469342 0.24409216
0.73733843 0.66247832 0.24226599
0.78996986 0.66061000 0.24073749
0.18519353 0.74451005 0.24919066
0.24723150 0.74250783 0.24723150
0.31967744 0.74054986 0.24533518
0.40113594 0.73860238 0.24346792
0.48786022 0.73665850 0.24162263
0.57489626 0.73471504 0.23979594
0.65721335 0.73277016 0.23798587
0.73082266 0.73082266 0.23619111
0.78437790 0.72917800 0.23468907
0.18099512 0.79288106 0.24397583
0.24204445 0.79115158 0.24204445
0.31360365 0.78945861 0.24017523
0.39441172 0.78777303 0.23833484
0.48084953 0.78608892 0.23651629
0.56802203 0.78440349 0.23471626
0.65086185 0.78271515 0.23293278
0.72526491 0.78102287 0.23116456
0.77959243 0.77959243 0.22968488
0.22321384 0.22321384 0.37753472
0.29340199 0.22139868 0.37507058
0.37267917 0.21964270 0.37267917
0.45854043 0.21791452 0.37031829
0.54635295 0.21620755 0.36797921
0.63096775 0.21451865 0.36565785
0.70794305 0.21284597 0.36335182
0.77439821 0.21118825 0.36105958
0.82140240 0.20980154 0.35913683
0.21714965 0.28828274 0.36927107
0.28613336 0.28613336 0.36682908
0.36445956 0.28405125 0.36445956
0.44978490 0.28199943 0.36212070
0.53758541 0.27997018 0.35980381
0.62270624 0.27795984 0.35750485
0.70058705 0.27596627 0.35522144
0.76816788 0.27398806 0.35295207
0.81616201 0.27233136 0.35104877
0.21136433 0.36130338 0.36130338
0.27916555 0.35888410 0.35888410
0.35653701 0.35653701 0.35653701
0.44129546 0.35422065 0.35422065
0.52903217 0.35192643 0.35192643
0.61459871 0.34965031 0.34965031
0.69332888 0.34738994 0.34738994
0.76199141 0.34514382 0.34514382
0.81094951 0.34326029 0.34326029
0.20574999 0.44050932 0.35349149
0.27237225 0.43792333 0.35109577
0.34877190 0.43541038 0.34877190
0.43292636 0.43292636 0.34647882
0.52054944 0.43046216 0.34420802
0.60651084 0.42801357 0.34195547
0.68604923 0.42557812 0.33971887
0.75576749 0.42315424 0.33749669
0.80567936 0.42111876 0.33563351
0.20028309 0.52231645 0.34580818
0.26572740 0.51969630 0.34343686
0.34113704 0.51714584 0.34113704
0.42465055 0.51462054 0.33886804
0.51211129 0.51211129 0.33662142
0.59841845 0.50961382 0.33439321
0.67872612 0.50712572 0.33218110
0.74947677 0.50464543 0.32998359
0.80033459 0.50255947 0.32814133
0.19495202 0.60255498 0.33824188
0.25921899 0.60003792 0.33589581
0.33362083 0.59758374 0.33362083
0.41645736 0.59514980 0.33137668
0.50370798 0.59272738 0.32915499
0.59031245 0.59031245 0.32695185
0.67135089 0.58790270 0.32476495
0.74311098 0.58549665 0.32259280
0.79490746 0.58347013 0.32077205
0.18974955 0.67735255 0.33078676
0.25284014 0.67505374 0.32846674
0.32621735 0.67280886 0.32621735
0.40834207 0.67057909 0.32399879
0.49533569 0.66835650 0.32180277
0.58218931 0.66613743 0.31962538
0.66391975 0.66391975 0.31746437
0.73666597 0.66170214 0.31531825
0.78939366 0.65983174 0.31351956
0.18467059 0.74384958 0.32343968
0.24658640 0.74184398 0.32114645
0.31892339 0.73988272 0.31892339
0.40030281 0.73793201 0.31673112
0.48699345 0.73598493 0.31456143
0.57404817 0.73403830 0.31241048
0.65643135 0.73209026 0.31027600
0.73013963 0.73013963 0.30815653
0.78379056 0.72849235 0.30638041
0.18048141 0.79231075 0.31732775
0.24140854 0.79057776 0.31505768
0.31285734 0.78888138 0.31285734
0.39358338 0.78719243 0.31068774
0.47998353 0.78550496 0.30854076
0.56717056 0.78381620 0.30641257
0.65007307 0.78212454 0.30430094
0.72457309 0.78042895 0.30220440
0.77899573 0.77899573 0.30044769
0.22261900 0.22261900 0.46534876
0.29269059 0.22080731 0.46273755
0.37187671 0.21905470 0.46019879
0.45768799 0.21732986 0.45768799
0.54550172 0.21562621 0.45519599
0.63016782 0.21394061 0.45271854
0.70723255 0.21227121 0.45025317
0.77379772 0.21061677 0.44779832
0.82089810 0.20923282 0.44573589
0.21656647 0.28757870 0.45657284
0.28543246 0.28543246 0.45396906
0.36366455 0.28335343 0.45143799
0.44893523 0.28130468 0.44893523
0.53673168 0.27927848 0.44645166
0.62189913 0.27727119 0.44398301
0.69986625 0.27528068 0.44152684
0.76755580 0.27330553 0.43908156
0.81564623 0.27165141 0.43702751
0.21079250 0.36051135 0.44805961
0.27847507 0.35809440 0.44546458
0.35574961 0.35574961 0.44294246
0.44044899 0.35343555 0.44044899
0.52817651 0.35114365 0.43797505
0.61378502 0.34886986 0.43551640
0.69259827 0.34661186 0.43307058
0.76136808 0.34436810 0.43063603
0.81042250 0.34248660 0.42859130
0.20518940 0.43966318 0.43966318
0.27169223 0.43707827 0.43707827
0.34799237 0.43456642 0.43456642
0.43208353 0.43208353 0.43208353
0.51969236 0.42962050 0.42962050
0.60569103 0.42717310 0.42717310
0.68530915 0.42473888 0.42473888
0.75513310 0.42231627 0.42231627
0.80514119 0.42028189 0.42028189
0.19973366 0.52145963 0.43135655
0.26505794 0.51883910 0.42878311
0.34036565 0.51628833 0.42628283
0.42381179 0.51376277 0.42381179
0.51125328 0.51125328 0.42136093
0.59759296 0.50875564 0.41892603
0.67797688 0.50626741 0.41650464
0.74883147 0.50378702 0.41409518
0.79978529 0.50170101 0.41207215
0.19441365 0.60173234 0.42312913
0.25856015 0.59921353 0.42056847
0.33285785 0.59675769 0.41808103
0.41562310 0.59432215 0.41562310
0.50284954 0.59189817 0.41318563
0.58948173 0.58948173 0.41076443
0.67059280 0.58707051 0.40835706
0.74245491 0.58466303 0.40596195
0.79434706 0.58263535 0.40395126
0.18922217 0.67660164 0.41497629
0.25219198 0.67430004 0.41242969
0.32546304 0.67205249 0.40995634
0.40751271 0.66982010 0.40751271
0.49447731 0.66759492 0.40508984
0.58135380 0.66537330 0.40268353
0.66315312 0.66315312 0.40029134
0.73599929 0.66093303 0.39791172
0.78882221 0.65906057 0.39591433
0.18415412 0.74319475 0.40689624
0.24594900 0.74118581 0.40436495
0.31817798 0.73922131 0.40190688
0.39947875 0.73726739 0.39947875
0.48613560 0.73531715 0.39707163
0.57320832 0.73336737 0.39468135
0.65565649 0.73141622 0.39230548
0.72946249 0.72946249 0.38994247
0.78320808 0.72781262 0.38795930
0.17997407 0.79174512 0.40013998
0.24078025 0.79000867 0.39762254
0.31211961 0.78830891 0.39517826
0.39276409 0.78661662 0.39276409
0.47912649 0.78492583 0.39037114
0.56632739 0.78323377 0.38799523
0.64929154 0.78153882 0.38563397
0.72388727 0.77983995 0.38328579
0.77840398 0.77840398 0.38131532
0.22202924 0.22202924 0.55477214
0.29198492 0.22022099 0.55217738
0.37108029 0.21847172 0.54964993
0.45684145 0.21675020 0.54714578
0.54465588 0.21504985 0.54465588
0.62937250 0.21336753 0.54217608
0.70652578 0.21170140 0.53970397
0.77320011 0.21005022 0.53723802
0.82039604 0.20866901 0.53516288
0.21598829 0.28688036 0.54603212
0.28473725 0.28473725 0.54342834
0.36287555 0.28266128 0.54089258
0.44809151 0.28061557 0.53838062
0.53588341 0.27859241 0.53588341
0.62109672 0.27658816 0.53339676
0.69914925 0.27460069 0.53091826
0.76694666 0.27262858 0.52844637
0.81513276 0.27097704 0.52636656
0.21022560 0.35972533 0.53750070
0.27779021 0.35731070 0.53488967
0.35496820 0.35496820 0.53234729
0.43960849 0.35265645 0.52982922
0.52732637 0.35036686 0.52732637
0.61297610 0.34809540 0.52483453
0.69187156 0.34583975 0.52235127
0.76074778 0.34359837 0.51987506
0.80989787 0.34171887 0.51779194
0.20463366 0.43882300 0.52903471
0.27101779 0.43623919 0.52641799
0.34721882 0.43372845 0.52387053
0.43124669 0.43124669 0.52134785
0.51884086 0.42878483 0.51884086
0.60487607 0.42633863 0.51634531
0.68457305 0.42390565 0.51385878
0.75450182 0.42148431 0.51137972
0.80460547 0.41945102 0.50929454
0.19918899 0.52060837 0.52060837
0.26439399 0.51798749 0.51798749
0.33960023 0.51543642 0.51543642
0.42297904 0.51291061 0.51291061
0.51040092 0.51040092 0.51040092
0.59677241 0.50790311 0.50790311
0.67723171 0.50541476 0.50541476
0.74818936 0.50293429 0.50293429
0.79923852 0.50084825 0.50084825
0.19387997 0.60091459 0.51221201
0.25790676 0.59839407 0.50958847
0.33210081 0.59593659 0.50703525
0.41479485 0.59349946 0.50450774
0.50199679 0.59107395 0.50199679
0.58865602 0.58865602 0.49949816
0.66983886 0.58624336 0.49700939
0.74180212 0.58383448 0.49452893
0.79378927 0.58180564 0.49244321
0.18869941 0.67585480 0.50384187
0.25154923 0.67355046 0.50121715
0.32471463 0.67130026 0.49866323
0.40668938 0.66906526 0.49613545
0.49362466 0.66683753 0.49362466
0.58052338 0.66461339 0.49112660
0.66239073 0.66239073 0.48863882
0.73533598 0.66016819 0.48615976
0.78825342 0.65829368 0.48407554
0.18364219 0.74254319 0.49549703
0.24531694 0.74053092 0.49287259
0.31743844 0.73856321 0.49031939
0.39866073 0.73660612 0.48779276
0.48528353 0.73465273 0.48528353
0.57237362 0.73269984 0.48278743
0.65488596 0.73074560 0.48030202
0.72878880 0.72878880 0.47782574
0.78262834 0.72713636 0.47574416
0.17947120 0.79118213 0.48848126
0.24015724 0.78944223 0.48585820
0.31138772 0.78773912 0.48330670
0.39195085 0.78604351 0.48078212
0.47827527 0.78434943 0.47827527
0.56548944 0.78265408 0.47578191
0.64851440 0.78095587 0.47329956
0.72320497 0.77925375 0.47082667
0.77781504 0.77781504 0.46874821
0.22144351 0.22144351 0.64037605
0.29128373 0.21963868 0.63795460
0.37028849 0.21789274 0.63559178
0.45599934 0.21617452 0.63324663
0.54381397 0.21447745 0.63091080
0.62858041 0.21279840 0.62858041
0.70582150 0.21113551 0.62625323
0.77260434 0.20948757 0.62392786
0.81989537 0.20810909 0.62196792
0.21541408 0.28618647 0.63220239
0.28404648 0.28404648 0.62975772
0.36209118 0.28197356 0.62737265
0.44725225 0.27993089 0.62500582
0.53503913 0.27791076 0.62264878
0.62029761 0.27590954 0.62029761
0.69843483 0.27392509 0.61795009
0.76633943 0.27195602 0.61560476
0.81462074 0.27030704 0.61362831
0.20966261 0.35894393 0.62417576
0.27710977 0.35653163 0.62170967
0.35419143 0.35419143 0.61930410
0.43877249 0.35188197 0.61691731
0.52648027 0.34959469 0.61454078
0.61217056 0.34732557 0.61217056
0.69114749 0.34507226 0.60980440
0.76012945 0.34283325 0.60744084
0.80937474 0.34095576 0.60544931
0.20408178 0.43798733 0.61616335
0.27034773 0.43540461 0.61367722
0.34644989 0.43289499 0.61125251
0.43041438 0.43041438 0.60884713
0.51799345 0.42795369 0.60645247
0.60406456 0.42550871 0.60406456
0.68383967 0.42307697 0.60168112
0.75387257 0.42065690 0.59930068
0.80407130 0.41862472 0.59729524
0.19864812 0.51976120 0.60814121
0.26373437 0.51713998 0.60563638
0.33883942 0.51458863 0.60319383
0.42215084 0.51206258 0.60077115
0.50955270 0.50955270 0.59835967
0.59595537 0.50705475 0.59595537
0.67648933 0.50456629 0.59355596
0.74754934 0.50208576 0.59115996
0.79869334 0.49999970 0.58914171
0.19335004 0.60010032 0.60010032
0.25725768 0.59757810 0.59757810
0.33134837 0.59511901 0.59511901
0.41397118 0.59268032 0.59268032
0.50114825 0.59025330 0.59025330
0.58783390 0.58783390 0.58783390
0.66908778 0.58541981 0.58541981
0.74115149 0.58300955 0.58300955
0.79323313 0.58097958 0.58097958
0.18818033 0.67511077 0.59203713
0.25091073 0.67280370 0.58949884
0.32397081 0.67055087 0.58702450
0.40587064 0.66831330 0.58457109
0.49277627 0.66608303 0.58212981
0.57969661 0.66385639 0.57969661
0.66163127 0.66163127 0.57726913
0.73467488 0.65940630 0.57484589
0.78768634 0.65752977 0.57280530
0.18313389 0.74189377 0.58395075
0.24468909 0.73987821 0.58139772
0.31670347 0.73790730 0.57890943
0.39784732 0.73594705 0.57644260
0.48443575 0.73399055 0.57398837
0.57154264 0.73203456 0.57154264
0.65411843 0.73007724 0.56910308
0.72811740 0.72811740 0.56666817
0.78205036 0.72646240 0.56461805
0.17897191 0.79062081 0.57711524
0.23953841 0.78887748 0.57455083
0.31066038 0.78717103 0.57205180
0.39114222 0.78547212 0.56957466
0.47742839 0.78377476 0.56711052
0.56465526 0.78207615 0.56465526
0.64774032 0.78037469 0.56220651
0.72252500 0.77866933 0.55976278
0.77722790 0.77722790 0.55770549
0.22086118 0.22086118 0.71760554
0.29058629 0.21905976 0.71547305
0.36950051 0.21731715 0.71338886
0.45516081 0.21560221 0.71131697
0.54297513 0.21390840 0.70925007
0.62779075 0.21223260 0.70718474
0.70511903 0.21057296 0.70511903
0.77200983 0.20892825 0.70305167
0.81939559 0.20755248 0.70130669
0.21484323 0.28549632 0.71039336
0.28335944 0.28335944 0.70822855
0.36131064 0.28128957 0.70611308
0.44641660 0.27924992 0.70401043
0.53419797 0.27723281 0.70191313
0.61950101 0.27523461 0.69981774
0.69772227 0.27325319 0.69772227
0.76573350 0.27128715 0.69562545
0.81410964 0.26964071 0.69385582
0.20910294 0.35816636 0.70327222
0.27643303 0.35575639 0.70107658
0.35341847 0.35341847 0.69893130
0.43794013 0.35111132 0.69679933
0.52563736 0.34882636 0.69467310
0.61136759 0.34655956 0.69254911
0.69042534 0.34430860 0.69042534
0.75951247 0.34207196 0.68830051
0.80885257 0.34019648 0.68650750
0.20353317 0.43715530 0.69612515
0.26968134 0.43457369 0.69389964
0.34568479 0.43206519 0.69172551
0.42958573 0.42958573 0.68956517
0.51714929 0.42712624 0.68741097
0.60325568 0.42468246 0.68525935
0.68310827 0.42225198 0.68310827
0.75324473 0.41983320 0.68095642
0.80353813 0.41780212 0.67914085
0.19811048 0.51891725 0.68893051
0.26307841 0.51629572 0.68667603
0.33808243 0.51374410 0.68447391
0.42132634 0.51121783 0.68228610
0.50870777 0.50870777 0.68010482
0.59514103 0.50620969 0.67792647
0.67574899 0.50372114 0.67574899
0.74691078 0.50124056 0.67357105
0.79814922 0.49915449 0.67173371
0.19282329 0.59928872 0.68167966
0.25661221 0.59676482 0.67939709
0.33059975 0.59430413 0.67716787
0.41315123 0.59186390 0.67495345
0.50030304 0.58943538 0.67274597
0.58701453 0.58701453 0.67054179
0.66833880 0.58459904 0.66833880
0.74050236 0.58218740 0.66613569
0.79267807 0.58015631 0.66427736
0.18766439 0.67436879 0.67436879
0.25027583 0.67205901 0.67205901
0.32323080 0.66980357 0.66980357
0.40505565 0.66756344 0.66756344
0.49193125 0.66533066 0.66533066
0.57887265 0.66310154 0.66310154
0.66087397 0.66087397 0.66087397
0.73401533 0.65864659 0.65864659
0.78712039 0.65676805 0.65676805
0.18262867 0.74124585 0.66699643
0.24406479 0.73922701 0.66466036
0.31597230 0.73725292 0.66237959
0.39703767 0.73528953 0.66011465
0.48359141 0.73332992 0.65785748
0.57071454 0.73137085 0.65560436
0.65335313 0.72941048 0.65335313
0.72744760 0.72744760 0.65110243
0.78147355 0.72579006 0.64920449
0.17847567 0.79006060 0.66073263
0.23892310 0.78831385 0.65837512
0.30993684 0.78660408 0.65607372
0.39033737 0.78490188 0.65378859
0.47658497 0.78320125 0.65151159
0.56382400 0.78149940 0.64923895
0.64696852 0.77979470 0.64696852
0.72184669 0.77808612 0.64469891
0.77664198 0.77664198 0.64278525
0.22028185 0.22028185 0.78365049
0.28989212 0.21848383 0.78186513
0.36871581 0.21674453 0.78011780
0.45432527 0.21503287 0.77837844
0.54213879 0.21334232 0.77664091
0.62700300 0.21166976 0.77490236
0.70441788 0.21001335 0.77316114
0.77141617 0.20837185 0.77141617
0.81889637 0.20699878 0.76994146
0.21427535 0.28480943 0.77760230
0.28267566 0.28267566 0.77578131
0.36053338 0.28060882 0.77399934
0.44558399 0.27857220 0.77222571
0.53335938 0.27655810 0.77045417
0.61870637 0.27456292 0.76868180
0.69701110 0.27258452 0.76690693
0.76512847 0.27062149 0.76512847
0.81359914 0.26897761 0.76362563
0.20854620 0.35739208 0.77160244
0.27575953 0.35498444 0.76974687
0.35264882 0.35264882 0.76793129
0.43711084 0.35034397 0.76612443
0.52479706 0.34806132 0.76431991
0.61056664 0.34579686 0.76251478
0.68970464 0.34354825 0.76070733
0.75889643 0.34131397 0.75889643
0.80833103 0.33944050 0.75736636
0.20298745 0.43632634 0.76555253
0.26901817 0.43374586 0.76366286
0.34492300 0.43123850 0.76181415
0.42876020 0.42876020 0.75997455
0.51630779 0.42630190 0.75813756
0.60244889 0.42385935 0.75630018
0.68237836 0.42143013 0.75446066
0.75261786 0.41901264 0.75261786
0.80300562 0.41698268 0.75106102
0.19757570 0.51807597 0.75943361
0.26242565 0.51545413 0.75751025
0.33732875 0.51290226 0.75562881
0.42050498 0.51037579 0.75375688
0.50786557 0.50786557 0.75188784
0.59432884 0.50536736 0.75001864
0.67501019 0.50287873 0.74814749
0.74627325 0.50039812 0.74627325
0.79760578 0.49831206 0.74469002
0.19229936 0.59847923 0.75323752
0.25596991 0.59595367 0.75128085
0.32985444 0.59349140 0.74936706
0.41233445 0.59104965 0.74746320
0.49946060 0.58861965 0.74556252
0.58619737 0.58619737 0.74366190
0.66759143 0.58378048 0.74175956
0.73985431 0.58136750 0.73985431
0.79212374 0.57933530 0.73824507
0.18715122 0.67362838 0.74696007
0.24964406 0.67131590 0.74497047
0.32249409 0.66905786 0.74302474
0.40424385 0.66681519 0.74108934
0.49108906 0.66457991 0.73915743
0.57805096 0.66234833 0.73722583
0.66011833 0.66011833 0.73529272
0.73335692 0.65788856 0.73335692
0.78655520 0.65600803 0.73172206
0.18212618 0.74059901 0.74059901
0.24344362 0.73857690 0.73857690
0.31524443 0.73659964 0.73659964
0.39623123 0.73463313 0.73463313
0.48274992 0.73267042 0.73267042
0.56988876 0.73070829 0.73070829
0.65258954 0.72874488 0.72874488
0.72677898 0.72677898 0.72677898
0.78089754 0.72511891 0.72511891
0.17798212 0.78950113 0.73516997
0.23831088 0.78775097 0.73312079
0.30921659 0.78603789 0.73111728
0.38953575 0.78433242 0.72912490
0.47574444 0.78262853 0.72713658
0.56299511 0.78092344 0.72514907
0.64619849 0.77921552 0.72316048
0.72116959 0.77750372 0.72116959
0.77605689 0.77605689 0.71948860
0.21979552 0.21979552 0.82993146
0.28930913 0.21800036 0.82844442
0.36805646 0.21626384 0.82698764
0.45362283 0.21455494 0.82553612
0.54143530 0.21286712 0.82408476
0.62634003 0.21119729 0.82263115
0.70382751 0.20954359 0.82117393
0.77091610 0.20790480 0.81971218
0.81847573 0.20653401 0.81847573
0.21379864 0.28423256 0.82488798
0.28210141 0.28210141 0.82336622
0.35988032 0.28003713 0.82187559
0.44488404 0.27800305 0.82039050
0.53265402 0.27599150 0.81890572
0.61803764 0.27399886 0.81741880
0.69641231 0.27202300 0.81592833
0.76461884 0.27006251 0.81443340
0.81316900 0.26842077 0.81316900
0.20807886 0.35674154 0.81986828
0.27519394 0.35433586 0.81831251
0.35200218 0.35200218 0.81678872
0.43641373 0.34969927 0.81527075
0.52409032 0.34741857 0.81375326
0.60989264 0.34515608 0.81223373
0.68909785 0.34290945 0.81071074
0.75837755 0.34067717 0.80918334
0.80789161 0.33880541 0.80789161
0.20252938 0.43562952 0.81478998
0.26846129 0.43304999 0.81320034
0.34428299 0.43054359 0.81164355
0.42806628 0.42806628 0.81009286
0.51560007 0.42560899 0.80854282
0.60176999 0.42316749 0.80699087
0.68176386 0.42073933 0.80543554
0.75208988 0.41832295 0.80387587
0.80255697 0.41629393 0.80255697
0.19712682 0.51736842 0.80963658
0.26187752 0.51474634 0.80801313
0.33669559 0.51219426 0.80642340
0.41981460 0.50966763 0.80484007
0.50715729 0.50715729 0.80325757
0.59364543 0.50465899 0.80167328
0.67438824 0.50217031 0.80008572
0.74573630 0.49968968 0.79849389
0.79714794 0.49760363 0.79714794
0.19185960 0.59779808 0.80440050
0.25543060 0.59527113 0.80274327
0.32922833 0.59280755 0.80112064
0.41164796 0.59036452 0.79950473
0.49875217 0.58793329 0.79788982
0.58550982 0.58550982 0.79627328
0.66696229 0.58309177 0.79465356
0.73930852 0.58067766 0.79302967
0.79165674 0.57864454 0.79165674
0.18672052 0.67300506 0.79907741
0.24911361 0.67069033 0.79738644
0.32187525 0.66843011 0.79573096
0.40356158 0.66618531 0.79408251
0.49038086 0.66394793 0.79243527
0.57735963 0.66171429 0.79078654
0.65948225 0.65948225 0.78913475
0.73280242 0.65725047 0.78747888
0.78607907 0.65536828 0.78607907
0.18170446 0.74005424 0.79366460
0.24292208 0.73802938 0.79193994
0.31463304 0.73604946 0.79025166
0.39555350 0.73408033 0.78857074
0.48204236 0.73211502 0.78689124
0.56919402 0.73015032 0.78521041
0.65194680 0.72818435 0.78352665
0.72621591 0.72621591 0.78183892
0.78041231 0.72455372 0.78041231
0.17756791 0.78902980 0.78902980
0.23779688 0.78727678 0.78727678
0.30861162 0.78556092 0.78556092
0.38886210 0.78385268 0.78385268
0.47503772 0.78214606 0.78214606
0.56229779 0.78043824 0.78043824
0.64555035 0.77872761 0.77872761
0.72059941 0.77701312 0.77701312
0.77556401 0.77556401 0.77556401
