luts/cubes/clean_modern.cube
TITLE "clean_modern"
LUT_3D_SIZE 33
DOMAIN_MIN 0.0 0.0 0.0
DOMAIN_MAX 1.0 1.0 1.0
0.22443599 0.22443599 0.22443599
0.24132389 0.22396686 0.22396686
0.25856832 0.22351107 0.22351107
0.27640778 0.22306059 0.22306059
0.29486256 0.22261374 0.22261374
0.31391847 0.22216973 0.22216973
0.33354438 0.22172811 0.22172811
0.35369740 0.22128855 0.22128855
0.37432531 0.22085085 0.22085085
0.39536793 0.22041484 0.22041484
0.41675830 0.21998040 0.21998040
0.43842387 0.21954743 0.21954743
0.46028757 0.21911584 0.21911584
0.48226910 0.21868556 0.21868556
0.50428621 0.21825654 0.21825654
0.52625593 0.21782873 0.21782873
0.54809598 0.21740208 0.21740208
0.56972594 0.21697655 0.21697655
0.59106852 0.21655212 0.21655212
0.61205063 0.21612875 0.21612875
0.63260429 0.21570642 0.21570642
0.65266750 0.21528509 0.21528509
0.67218483 0.21486476 0.21486476
0.69110786 0.21444540 0.21444540
0.70939545 0.21402699 0.21402699
0.72701385 0.21360951 0.21360951
0.74393665 0.21319296 0.21319296
0.76014450 0.21277731 0.21277731
0.77562487 0.21236256 0.21236256
0.79037156 0.21194868 0.21194868
0.80438425 0.21153568 0.21153568
0.81766787 0.21112353 0.21112353
0.82243209 0.21097020 0.21097020
0.22286060 0.24015843 0.22286060
0.23966659 0.23966659 0.22239382
0.25683269 0.23918870 0.22194032
0.27459675 0.23871634 0.22149210
0.29297957 0.23824774 0.22104750
0.31196763 0.23778209 0.22060573
0.33153051 0.23731890 0.22016633
0.35162605 0.23685784 0.21972900
0.37220273 0.23639869 0.21929351
0.39320101 0.23594129 0.21885972
0.41455453 0.23548549 0.21842748
0.43619121 0.23503119 0.21799671
0.45803438 0.23457831 0.21756732
0.48000401 0.23412677 0.21713924
0.50201798 0.23367652 0.21671241
0.52399334 0.23322750 0.21628678
0.54584768 0.23277966 0.21586232
0.56750033 0.23233298 0.21543898
0.58887365 0.23188740 0.21501673
0.60989404 0.23144291 0.21459554
0.63049298 0.23099947 0.21417538
0.65060782 0.23055705 0.21375624
0.67018240 0.23011565 0.21333808
0.68916756 0.22967523 0.21292089
0.70752141 0.22923577 0.21250465
0.72520942 0.22879727 0.21208934
0.74220441 0.22835970 0.21167495
0.75848631 0.22792304 0.21126147
0.77404189 0.22748730 0.21084888
0.78886430 0.22705244 0.21043716
0.80295262 0.22661847 0.21002632
0.81631126 0.22618537 0.20961633
0.82110317 0.22602423 0.20946381
0.22133533 0.25616390 0.22133533
0.23806154 0.25565032 0.22087084
0.25515125 0.25515125 0.22041956
0.27284171 0.25465791 0.21997355
0.29115420 0.25416847 0.21953113
0.31007584 0.25368206 0.21909154
0.32957691 0.25319819 0.21865431
0.34961597 0.25271650 0.21821914
0.37014217 0.25223678 0.21778582
0.39109662 0.25175883 0.21735417
0.41241353 0.25128252 0.21692408
0.43402131 0.25080775 0.21649546
0.45584367 0.25033441 0.21606820
0.47780087 0.24986245 0.21564226
0.49981091 0.24939179 0.21521756
0.52179089 0.24892238 0.21479407
0.54365828 0.24845417 0.21437174
0.56533220 0.24798713 0.21395052
0.58673464 0.24752121 0.21353039
0.60779155 0.24705639 0.21311132
0.62843388 0.24659263 0.21269329
0.64859833 0.24612991 0.21227626
0.66822808 0.24566821 0.21186021
0.68727324 0.24520751 0.21144514
0.70569118 0.24474777 0.21103101
0.72344661 0.24428900 0.21061781
0.74051161 0.24383117 0.21020553
0.75686541 0.24337427 0.20979415
0.77249407 0.24291827 0.20938367
0.78739013 0.24246318 0.20897406
0.80155207 0.24200897 0.20856531
0.81498378 0.24155564 0.20815742
0.81980268 0.24138698 0.20800568
0.21983301 0.27267920 0.21983301
0.23648017 0.27214462 0.21937078
0.25349412 0.27162510 0.21892171
0.27111151 0.27111151 0.21847787
0.28935408 0.27060192 0.21803763
0.30820960 0.27009546 0.21760019
0.32764904 0.26959158 0.21716511
0.34763167 0.26908995 0.21673209
0.36810730 0.26859031 0.21630089
0.38901771 0.26809249 0.21587138
0.41029766 0.26759633 0.21544342
0.43187606 0.26710173 0.21501691
0.45367702 0.26660859 0.21459178
0.47562107 0.26611683 0.21416795
0.49762638 0.26562639 0.21374537
0.51961010 0.26513722 0.21332399
0.54148958 0.26464926 0.21290376
0.56318374 0.26416248 0.21248465
0.58461424 0.26367682 0.21206662
0.60570659 0.26319227 0.21164965
0.62639119 0.26270880 0.21123371
0.64660416 0.26222636 0.21081878
0.66628799 0.26174495 0.21040483
0.68539209 0.26126454 0.20999184
0.70387308 0.26078510 0.20957980
0.72169494 0.26030663 0.20916869
0.73882901 0.25982910 0.20875850
0.75525380 0.25935250 0.20834921
0.77095471 0.25887681 0.20794080
0.78592363 0.25840203 0.20753328
0.80015846 0.25792813 0.20712661
0.81366257 0.25745510 0.20672080
0.81850821 0.25727910 0.20656984
0.21834793 0.28972827 0.21834793
0.23491649 0.28917356 0.21788796
0.25185506 0.28863442 0.21744107
0.26939964 0.28810139 0.21699941
0.28757247 0.28757247 0.21656131
0.30636195 0.28704674 0.21612602
0.32573972 0.28652366 0.21569308
0.34566577 0.28600285 0.21526218
0.36609059 0.28548408 0.21483311
0.38695659 0.28496714 0.21440571
0.40819912 0.28445189 0.21397986
0.42974758 0.28393821 0.21355547
0.45152649 0.28342601 0.21313244
0.47345666 0.28291520 0.21271071
0.49545646 0.28240572 0.21229023
0.51744305 0.28189750 0.21187094
0.53933373 0.28139051 0.21145280
0.56104720 0.28088469 0.21103578
0.58250481 0.28038001 0.21061985
0.60363166 0.27987643 0.21020496
0.62435761 0.27937393 0.20979110
0.64461817 0.27887247 0.20937825
0.66435520 0.27837203 0.20896638
0.68351739 0.27787258 0.20855547
0.70206064 0.27737411 0.20814551
0.71994818 0.27687660 0.20773648
0.73715062 0.27638004 0.20732836
0.75364576 0.27588439 0.20692113
0.76941833 0.27538966 0.20651480
0.78445959 0.27489582 0.20610934
0.79876685 0.27440286 0.20570474
0.81234294 0.27391078 0.20530100
0.81721519 0.27372768 0.20515080
0.21687738 0.30730403 0.21687738
0.23336767 0.30673020 0.21641965
0.25023109 0.30617243 0.21597495
0.26770302 0.30562092 0.21553544
0.28580617 0.30507362 0.21509949
0.30452957 0.30452957 0.21466633
0.32384556 0.30398821 0.21423551
0.34371480 0.30344917 0.21380673
0.36408849 0.30291217 0.21337977
0.38490966 0.30237703 0.21295448
0.40611426 0.30184359 0.21253074
0.42763220 0.30131173 0.21210844
0.44938838 0.30078135 0.21168750
0.47130395 0.30025237 0.21126787
0.49329743 0.29972472 0.21084947
0.51528605 0.29919833 0.21043227
0.53718707 0.29867316 0.21001622
0.55891898 0.29814917 0.20960128
0.58040282 0.29762631 0.20918742
0.60156327 0.29710454 0.20877461
0.62232971 0.29658384 0.20836282
0.64263704 0.29606418 0.20795204
0.66242648 0.29554553 0.20754224
0.68164602 0.29502787 0.20713340
0.70025083 0.29451118 0.20672550
0.71820341 0.29399544 0.20631853
0.73547365 0.29348063 0.20591247
0.75203863 0.29296674 0.20550731
0.76788241 0.29245374 0.20510303
0.78299560 0.29194163 0.20469963
0.79737493 0.29143039 0.20429709
0.81102271 0.29092002 0.20389540
0.81592147 0.29073010 0.20374596
0.21541976 0.32538481 0.21541976
0.23183203 0.32479305 0.21496426
0.24862047 0.32421780 0.21452173
0.26601984 0.32364894 0.21408437
0.28405332 0.32308438 0.21365056
0.30271056 0.32252312 0.21321952
0.32196458 0.32196458 0.21279082
0.34177676 0.32140838 0.21236415
0.36209895 0.32085424 0.21193929
0.38287485 0.32030197 0.21151610
0.40404099 0.31975140 0.21109445
0.42552778 0.31920241 0.21067425
0.44726056 0.31865491 0.21025540
0.46916078 0.31810879 0.20983785
0.49114715 0.31756400 0.20942153
0.51313700 0.31702047 0.20900640
0.53504749 0.31647815 0.20859243
0.55679698 0.31593698 0.20817956
0.57830620 0.31539695 0.20776777
0.59949942 0.31485799 0.20735703
0.62030553 0.31432009 0.20694731
0.64065887 0.31378322 0.20653859
0.66049998 0.31324734 0.20613085
0.67977618 0.31271244 0.20572406
0.69844191 0.31217849 0.20531822
0.71645897 0.31164548 0.20491331
0.73379649 0.31111338 0.20450930
0.75043086 0.31058218 0.20410619
0.76634545 0.31005187 0.20370396
0.78153024 0.30952242 0.20330261
0.79598137 0.30899384 0.20290211
0.80970061 0.30846609 0.20250247
0.81462581 0.30826970 0.20235379
0.21397401 0.34393926 0.21397401
0.23030846 0.34333092 0.21352073
0.24702204 0.34273950 0.21308036
0.26434891 0.34215460 0.21264514
0.28231268 0.34157406 0.21221346
0.30090365 0.34099687 0.21178455
0.32009550 0.34042241 0.21135795
0.33985030 0.33985030 0.21093338
0.36012062 0.33928027 0.21051063
0.38085078 0.33871210 0.21008953
0.40197791 0.33814563 0.20966997
0.42343294 0.33758073 0.20925184
0.44514164 0.33701730 0.20883507
0.46702576 0.33645526 0.20841960
0.48900425 0.33589452 0.20800536
0.51099450 0.33533504 0.20759230
0.53291365 0.33477674 0.20718039
0.55467988 0.33421959 0.20676959
0.57621364 0.33366354 0.20635986
0.59743882 0.33310856 0.20595118
0.61828382 0.33255462 0.20554352
0.63868240 0.33200168 0.20513685
0.65857448 0.33144972 0.20473116
0.67790670 0.33089871 0.20432643
0.69663278 0.33034864 0.20392264
0.71471377 0.32979947 0.20351977
0.73211811 0.32925121 0.20311781
0.74882145 0.32870382 0.20271674
0.76480650 0.32815729 0.20231656
0.78006260 0.32761161 0.20191724
0.79458530 0.32706676 0.20151879
0.80837582 0.32652273 0.20112118
0.81332740 0.32632026 0.20097326
0.21253935 0.36292836 0.21253935
0.22879616 0.36230498 0.21208829
0.24543499 0.36169888 0.21165009
0.26268937 0.36109940 0.21121701
0.28058339 0.36050434 0.21078744
0.29910794 0.35991263 0.21036064
0.31823739 0.35932369 0.20993615
0.33793452 0.35873709 0.20951368
0.35815257 0.35815257 0.20909302
0.37883651 0.35756989 0.20867401
0.39992407 0.35698891 0.20825653
0.42134671 0.35640949 0.20784048
0.44303064 0.35583151 0.20742578
0.46489794 0.35525491 0.20701238
0.48686777 0.35467959 0.20660020
0.50885762 0.35410549 0.20618921
0.53078460 0.35353257 0.20577936
0.55256674 0.35296077 0.20537061
0.57412423 0.35239004 0.20496294
0.59538058 0.35182036 0.20455631
0.61626370 0.35125169 0.20415070
0.63670680 0.35068400 0.20374609
0.65664918 0.35011725 0.20334245
0.67603678 0.34955144 0.20293976
0.69482263 0.34898653 0.20253801
0.71296706 0.34842251 0.20213719
0.73043776 0.34785935 0.20173726
0.74720971 0.34729704 0.20133823
0.76326490 0.34673556 0.20094008
0.77859205 0.34617491 0.20054280
0.79318611 0.34561506 0.20014638
0.80704775 0.34505600 0.19975080
0.81202567 0.34484792 0.19960364
0.21111523 0.38230667 0.21111523
0.22729455 0.38166995 0.21066638
0.24385871 0.38105081 0.21023033
0.26104061 0.38043838 0.20979938
0.27886480 0.37983039 0.20937194
0.29732277 0.37922578 0.20894724
0.31638960 0.37862392 0.20852485
0.33602873 0.37802441 0.20810447
0.35619409 0.37742695 0.20768590
0.37683133 0.37683133 0.20726897
0.39787878 0.37623738 0.20685356
0.41926841 0.37564497 0.20643958
0.44092688 0.37505398 0.20602696
0.46277662 0.37446433 0.20561562
0.48473701 0.37387594 0.20520550
0.50672565 0.37328875 0.20479657
0.52865965 0.37270270 0.20438877
0.55045689 0.37211774 0.20398208
0.57203730 0.37153382 0.20357646
0.59332403 0.37095092 0.20317188
0.61424452 0.37036900 0.20276832
0.63473144 0.36978802 0.20236574
0.65472345 0.36920796 0.20196414
0.67416583 0.36862879 0.20156350
0.69301091 0.36805050 0.20116378
0.71121828 0.36747305 0.20076499
0.72875493 0.36689644 0.20036710
0.74559512 0.36632064 0.19997010
0.76172016 0.36574565 0.19957398
0.77711811 0.36517143 0.19917873
0.79178334 0.36459799 0.19878433
0.80571598 0.36402531 0.19839078
0.81072020 0.36381215 0.19824437
0.20970119 0.40202320 0.20970119
0.22580316 0.40137498 0.20925455
0.24229272 0.40074459 0.20882065
0.25940213 0.40012097 0.20839183
0.27715640 0.39950181 0.20796650
0.29554764 0.39888602 0.20754391
0.31455159 0.39827298 0.20712361
0.33413239 0.39766227 0.20670532
0.35424467 0.39705359 0.20628882
0.37483473 0.39644672 0.20587397
0.39584149 0.39584149 0.20546063
0.41719748 0.39523777 0.20504872
0.43882981 0.39463544 0.20463816
0.46066126 0.39403441 0.20422888
0.48261145 0.39343461 0.20382082
0.50459810 0.39283598 0.20341394
0.52653830 0.39223844 0.20300820
0.54834984 0.39164196 0.20260355
0.56995237 0.39104649 0.20219997
0.59126871 0.39045200 0.20179744
0.61222583 0.38985844 0.20139591
0.63275585 0.38926579 0.20099538
0.65279684 0.38867402 0.20059581
0.67229341 0.38808310 0.20019720
0.69119718 0.38749302 0.19979952
0.70946703 0.38690375 0.19940275
0.72706922 0.38631527 0.19900689
0.74397729 0.38572757 0.19861192
0.76017189 0.38514062 0.19821782
0.77564043 0.38455442 0.19782459
0.79037665 0.38396895 0.19743221
0.80438016 0.38338420 0.19704068
0.80941065 0.38316653 0.19689503
0.20829687 0.42202217 0.20829687
0.22432162 0.42136443 0.20785244
0.24073663 0.42072472 0.20742068
0.25777354 0.42009180 0.20699398
0.27545781 0.41946334 0.20657076
0.29378214 0.41883825 0.20615027
0.31272296 0.41821588 0.20573206
0.33224511 0.41759581 0.20531585
0.35230389 0.41697774 0.20490143
0.37284627 0.41636144 0.20448865
0.39381180 0.41574675 0.20407738
0.41513353 0.41513353 0.20366753
0.43673904 0.41452166 0.20325903
0.45855147 0.41391106 0.20285180
0.48049068 0.41330164 0.20244580
0.50247455 0.41269334 0.20204096
0.52442016 0.41208611 0.20163727
0.54624518 0.41147988 0.20123466
0.56786906 0.41087462 0.20083313
0.58921423 0.41027029 0.20043263
0.61020724 0.40966685 0.20003314
0.63077969 0.40906428 0.19963464
0.65086902 0.40846254 0.19923710
0.67041919 0.40786161 0.19884052
0.68938112 0.40726147 0.19844486
0.70771298 0.40666209 0.19805012
0.72538030 0.40606346 0.19765628
0.74235592 0.40546557 0.19726333
0.75861981 0.40486838 0.19687125
0.77415871 0.40427190 0.19648004
0.78896578 0.40367610 0.19608967
0.80304005 0.40308098 0.19570015
0.80809678 0.40285943 0.19555525
0.20690199 0.44224387 0.20690199
0.22284963 0.44157869 0.20645976
0.23919014 0.44093167 0.20603014
0.25615453 0.44029145 0.20560556
0.27376869 0.43965569 0.20518444
0.29202595 0.43902326 0.20476604
0.31090339 0.43839352 0.20434992
0.33036655 0.43776605 0.20393579
0.35037143 0.43714053 0.20352344
0.37086565 0.43651675 0.20311272
0.39178937 0.43589452 0.20270352
0.41307622 0.43527373 0.20229573
0.43465423 0.43465423 0.20188928
0.45644691 0.43403596 0.20148410
0.47837440 0.43341882 0.20108014
0.50035470 0.43280276 0.20067735
0.52230493 0.43218770 0.20027569
0.54414264 0.43157361 0.19987513
0.56578706 0.43096044 0.19947563
0.58716031 0.43034815 0.19907716
0.60818849 0.42973670 0.19867970
0.62880267 0.42912606 0.19828323
0.64893970 0.42851621 0.19788772
0.66854288 0.42790712 0.19749316
0.68756245 0.42729877 0.19709953
0.70595587 0.42669113 0.19670681
0.72368793 0.42608420 0.19631498
0.74073078 0.42547794 0.19592405
0.75706368 0.42487234 0.19553398
0.77267274 0.42426740 0.19514478
0.78755050 0.42366309 0.19475643
0.80169543 0.42305940 0.19436891
0.80677838 0.42283466 0.19422476
0.20551628 0.46262539 0.20551628
0.22138693 0.46195495 0.20507624
0.23765298 0.46130273 0.20464876
0.25454483 0.46065731 0.20422630
0.27208879 0.46001631 0.20380728
0.29027880 0.45937861 0.20339097
0.30909260 0.45874355 0.20297693
0.32849644 0.45811070 0.20256487
0.34844701 0.45747977 0.20215459
0.36889258 0.45685052 0.20174594
0.38977396 0.45622278 0.20133879
0.41102530 0.45559641 0.20093305
0.43257514 0.45497130 0.20052865
0.45434735 0.45434735 0.20012552
0.47626236 0.45372449 0.19972361
0.49823830 0.45310264 0.19932286
0.52019235 0.45248176 0.19892323
0.54204195 0.45186178 0.19852470
0.56370614 0.45124266 0.19812723
0.58510671 0.45062437 0.19773079
0.60616933 0.45000687 0.19733536
0.62682456 0.44939013 0.19694091
0.64700866 0.44877412 0.19654742
0.66666429 0.44815882 0.19615488
0.68574099 0.44754420 0.19576326
0.70419550 0.44693024 0.19537256
0.72199191 0.44631692 0.19498275
0.73910165 0.44570423 0.19459382
0.75550331 0.44509215 0.19420577
0.77118232 0.44448067 0.19381857
0.78613063 0.44386976 0.19343222
0.80034613 0.44325943 0.19304671
0.80545527 0.44303219 0.19290330
0.20413954 0.48310159 0.20413954
0.21993330 0.48242811 0.20370170
0.23612494 0.48177288 0.20327635
0.25294422 0.48112440 0.20285599
0.27041787 0.48048028 0.20243907
0.28854046 0.47983942 0.20202484
0.30729038 0.47920115 0.20161288
0.32663457 0.47856503 0.20120289
0.34653041 0.47793078 0.20079468
0.36692686 0.47729815 0.20038808
0.38776533 0.47666697 0.19998299
0.40898056 0.47603710 0.19957930
0.43050155 0.47540844 0.19917695
0.45225258 0.47478088 0.19877586
0.47415434 0.47415434 0.19837598
0.49612516 0.47352877 0.19797727
0.51808223 0.47290409 0.19757968
0.53994295 0.47228027 0.19718318
0.56162613 0.47165725 0.19678773
0.58305326 0.47103500 0.19639332
0.60414960 0.47041348 0.19599990
0.62484520 0.46979266 0.19560747
0.64507574 0.46917251 0.19521600
0.66478323 0.46855301 0.19482547
0.68391654 0.46793414 0.19443587
0.70243170 0.46731587 0.19404717
0.72029208 0.46669819 0.19365937
0.73746840 0.46608107 0.19327245
0.75393854 0.46546451 0.19288640
0.76968731 0.46484848 0.19250121
0.78470602 0.46423297 0.19211686
0.79899200 0.46361798 0.19173334
0.80412731 0.46338899 0.19159068
0.20277158 0.50360593 0.20277158
0.21848857 0.50293167 0.20233593
0.23460583 0.50227562 0.20191270
0.25135250 0.50162625 0.20149446
0.26875576 0.50098119 0.20107963
0.28681074 0.50033932 0.20066748
0.30549653 0.49969997 0.20025759
0.32478074 0.49906272 0.19984967
0.34462145 0.49842727 0.19944352
0.36496829 0.49779338 0.19903898
0.38576331 0.49716087 0.19863593
0.40694182 0.49652962 0.19823429
0.42843329 0.49589951 0.19783398
0.45016243 0.49527043 0.19743493
0.47205020 0.49464233 0.19703708
0.49401511 0.49401511 0.19664040
0.51597443 0.49338874 0.19624484
0.53784547 0.49276316 0.19585036
0.55954687 0.49213832 0.19545694
0.58099980 0.49151418 0.19506454
0.60212914 0.49089072 0.19467315
0.62286443 0.49026789 0.19428273
0.64314078 0.48964568 0.19389327
0.66289957 0.48902405 0.19350475
0.68208898 0.48840299 0.19311716
0.70066434 0.48778247 0.19273047
0.71858830 0.48716247 0.19234467
0.73583087 0.48654298 0.19195975
0.75236925 0.48592398 0.19157570
0.76818758 0.48530546 0.19119250
0.78327655 0.48468740 0.19081015
0.79763292 0.48406980 0.19042863
0.80279438 0.48383982 0.19028671
0.20141224 0.52407139 0.20141224
0.21705255 0.52339862 0.20097877
0.23309548 0.52274395 0.20055768
0.24976952 0.52209588 0.20014153
0.26710228 0.52145204 0.19972879
0.28508949 0.52081131 0.19931873
0.30371089 0.52017304 0.19891091
0.32293480 0.51953679 0.19850505
0.34271998 0.51890227 0.19810095
0.36301674 0.51826925 0.19769846
0.38376776 0.51763754 0.19729746
0.40490893 0.51700702 0.19689786
0.42637023 0.51637757 0.19649959
0.44807676 0.51574910 0.19610257
0.46994980 0.51512153 0.19570675
0.49190804 0.51449479 0.19531210
0.51386882 0.51386882 0.19491856
0.53574939 0.51324357 0.19452610
0.55746823 0.51261901 0.19413470
0.57894623 0.51199508 0.19374432
0.60010785 0.51137177 0.19335494
0.62088215 0.51074902 0.19296653
0.64120369 0.51012683 0.19257908
0.66101320 0.50950516 0.19219256
0.68025820 0.50888399 0.19180697
0.69889330 0.50826330 0.19142228
0.71688046 0.50764307 0.19103848
0.73418897 0.50702329 0.19065556
0.75079533 0.50640393 0.19027351
0.76668302 0.50578499 0.18989230
0.78184210 0.50516645 0.18951194
0.79626879 0.50454830 0.18913241
0.80145638 0.50431810 0.18899123
0.20006139 0.54443141 0.20006139
0.21562512 0.54376238 0.19963010
0.23159375 0.54311125 0.19921112
0.24819514 0.54246663 0.19879708
0.26545730 0.54182616 0.19838642
0.28337657 0.54118870 0.19797843
0.30193333 0.54055363 0.19757268
0.32109661 0.53992051 0.19716888
0.34082586 0.53928903 0.19676683
0.36107207 0.53865899 0.19636639
0.38177856 0.53803019 0.19596743
0.40288179 0.53740250 0.19556987
0.42431226 0.53677582 0.19517362
0.44599547 0.53615004 0.19477864
0.46785303 0.53552510 0.19438485
0.48980384 0.53490092 0.19399222
0.51176529 0.53427744 0.19360070
0.53365462 0.53365462 0.19321026
0.55539013 0.53303242 0.19282087
0.57689244 0.53241079 0.19243250
0.59808563 0.53178970 0.19204512
0.61889827 0.53116913 0.19165872
0.63926436 0.53054903 0.19127328
0.65912402 0.52992940 0.19088876
0.67842409 0.52931020 0.19050517
0.69711850 0.52869142 0.19012248
0.71516847 0.52807303 0.18974067
0.73254259 0.52745502 0.18935974
0.74921667 0.52683738 0.18897968
0.76517353 0.52622009 0.18860046
0.78040260 0.52560314 0.18822209
0.79489950 0.52498651 0.18784454
0.80011321 0.52475686 0.18770410
0.19871888 0.56462080 0.19871888
0.21420615 0.56395767 0.19828977
0.23010052 0.56331222 0.19787291
0.24662922 0.56267315 0.19746096
0.26382069 0.56203812 0.19705239
0.28167184 0.56140602 0.19664647
0.30016373 0.56077622 0.19624278
0.31926607 0.56014829 0.19584103
0.33893900 0.55952193 0.19544103
0.35913419 0.55889692 0.19504263
0.37979560 0.55827309 0.19464571
0.40086029 0.55765029 0.19425019
0.42225927 0.55702843 0.19385597
0.44391847 0.55640740 0.19346301
0.46575982 0.55578714 0.19307124
0.48770242 0.55516757 0.19268063
0.50966378 0.55454863 0.19229112
0.53156109 0.55393029 0.19190270
0.55331250 0.55331250 0.19151532
0.57483837 0.55269521 0.19112895
0.59606240 0.55207840 0.19074358
0.61691270 0.55146203 0.19035919
0.63732272 0.55084608 0.18997574
0.65723196 0.55023053 0.18959322
0.67658659 0.54961534 0.18921162
0.69533985 0.54900051 0.18883092
0.71345225 0.54838601 0.18845111
0.73089166 0.54777182 0.18807217
0.74763321 0.54715794 0.18769409
0.76365904 0.54654434 0.18731686
0.77895796 0.54593101 0.18694046
0.79352500 0.54531795 0.18656490
0.79876480 0.54508962 0.18642519
0.19738462 0.58457651 0.19738462
0.21279551 0.58392137 0.19695768
0.22861566 0.58328364 0.19654293
0.24507165 0.58265214 0.19613307
0.26219234 0.58202457 0.19572658
0.27997521 0.58139984 0.19532272
0.29840199 0.58077731 0.19492109
0.31744306 0.58015657 0.19452139
0.33705928 0.57953731 0.19412344
0.35720299 0.57891933 0.19372708
0.37781880 0.57830244 0.19333220
0.39884436 0.57768653 0.19293870
0.42021120 0.57707147 0.19254651
0.44184569 0.57645718 0.19215557
0.46367009 0.57584357 0.19176582
0.48560373 0.57523060 0.19137722
0.50756421 0.57461819 0.19098973
0.52946872 0.57400631 0.19060331
0.55123526 0.57339491 0.19021794
0.57278394 0.57278394 0.18983357
0.59403810 0.57217339 0.18945021
0.61492540 0.57156322 0.18906780
0.63537871 0.57095340 0.18868635
0.65533696 0.57034390 0.18830583
0.67474564 0.56973471 0.18792622
0.69355730 0.56912581 0.18754751
0.71173174 0.56851718 0.18716968
0.72923612 0.56790880 0.18679272
0.74604488 0.56730066 0.18641662
0.76213948 0.56669274 0.18604137
0.77750810 0.56608503 0.18566695
0.79214519 0.56547752 0.18529336
0.79741107 0.56525124 0.18515439
0.19605848 0.60423849 0.19605848
0.21139310 0.60359333 0.19563371
0.22713908 0.60296525 0.19522108
0.24352234 0.60234325 0.19481331
0.26057215 0.60172505 0.19440889
0.27828658 0.60110958 0.19400709
0.29664801 0.60049622 0.19360751
0.31562751 0.59988456 0.19320987
0.33518663 0.59927430 0.19281395
0.35527840 0.59866524 0.19241963
0.37584808 0.59805720 0.19202677
0.39683392 0.59745005 0.19163530
0.41816798 0.59684369 0.19124513
0.43977707 0.59623802 0.19085621
0.46158379 0.59563297 0.19046848
0.48350771 0.59502848 0.19008189
0.50546655 0.59442450 0.18969640
0.52737748 0.59382096 0.18931199
0.54915839 0.59321785 0.18892862
0.57072913 0.59261510 0.18854625
0.59201270 0.59201270 0.18816488
0.61293630 0.59141062 0.18778447
0.63343229 0.59080882 0.18740501
0.65343897 0.59020729 0.18702648
0.67290118 0.58960600 0.18664885
0.69177078 0.58900494 0.18627213
0.71000688 0.58840408 0.18589628
0.72757591 0.58780341 0.18552130
0.74445162 0.58720291 0.18514718
0.76061479 0.58660258 0.18477390
0.77605298 0.58600239 0.18440146
0.79076004 0.58540234 0.18402984
0.79605197 0.58517883 0.18389160
0.19474039 0.62355035 0.19474039
0.20999884 0.62291703 0.19431778
0.22567068 0.62230040 0.19390725
0.24198119 0.62168968 0.19350157
0.25896004 0.62108264 0.19309922
0.27660587 0.62047822 0.19269948
0.29490172 0.61987581 0.19230195
0.31381934 0.61927501 0.19190635
0.33332099 0.61867553 0.19151247
0.35336037 0.61807716 0.19112018
0.37388340 0.61747973 0.19072935
0.39482893 0.61688313 0.19033990
0.41612956 0.61628724 0.18995175
0.43771256 0.61569197 0.18956484
0.45950088 0.61509726 0.18917912
0.48141432 0.61450304 0.18879454
0.50337074 0.61390925 0.18841106
0.52528732 0.61331585 0.18802864
0.54708184 0.61272280 0.18764727
0.56867390 0.61213006 0.18726690
0.58998616 0.61153760 0.18688752
0.61094540 0.61094540 0.18650910
0.63148342 0.61035341 0.18613162
0.65153795 0.60976164 0.18575507
0.67105318 0.60917004 0.18537943
0.68998027 0.60857861 0.18500468
0.70827763 0.60798732 0.18463081
0.72591098 0.60739616 0.18425781
0.74285337 0.60680511 0.18388566
0.75908492 0.60621417 0.18351435
0.77459253 0.60562331 0.18314388
