luts/cubes/cold_blue.cube
TITLE "cold_blue"
LUT_3D_SIZE 5
DOMAIN_MIN 0.0 0.0 0.0
DOMAIN_MAX 1.0 1.0 1.0
0.19814205 0.19814205 0.21683250
0.27598692 0.20164092 0.22057063
0.38903638 0.20584169 0.22505459
0.51919021 0.21023320 0.22973742
0.64903498 0.21477680 0.23457735
0.21272935 0.30819434 0.23239700
0.29420249 0.31287827 0.23632248
0.41048308 0.31847201 0.24102764
0.54145323 0.32428523 0.24593735
0.66911740 0.33026297 0.25100735
0.22853386 0.44956981 0.24920018
0.31364846 0.45498926 0.25331582
0.43290078 0.46141756 0.25824490
0.56417837 0.46804809 0.26338363
0.68914795 0.47481374 0.26868513
0.24532954 0.60115046 0.26698905
0.33399135 0.60638415 0.27129233
0.45584132 0.61254739 0.27644170
0.58687630 0.61885425 0.28180495
0.70869790 0.62523762 0.28733261
0.26306420 0.73637144 0.28569671
0.35511933 0.74059642 0.29018215
0.47913213 0.74554003 0.29554464
0.60936484 0.75056361 0.30112427
0.72763265 0.75561223 0.30686896
0.20005953 0.20005953 0.35297309
0.27839618 0.20358366 0.35798542
0.39189833 0.20781437 0.36395843
0.52219128 0.21223672 0.37015099
0.65176918 0.21681173 0.37650312
0.21475019 0.31076407 0.37364757
0.29670559 0.31546925 0.37878160
0.41339605 0.32108766 0.38489358
0.54443728 0.32692573 0.39122325
0.67177427 0.33292816 0.39770865
0.23066085 0.45254723 0.39540286
0.31624289 0.45797271 0.40064462
0.43585522 0.46440724 0.40687832
0.56713276 0.47104316 0.41332659
0.69171809 0.47781322 0.41992566
0.24756268 0.60403012 0.41782033
0.33667151 0.60925059 0.42315127
0.45882565 0.61539741 0.42948422
0.58978869 0.62168653 0.43602738
0.71117414 0.62805097 0.44271538
0.26540200 0.73869917 0.44074194
0.35787792 0.74289988 0.44614122
0.48213384 0.74781454 0.45254831
0.61222344 0.75280810 0.45916005
0.73000925 0.75782595 0.46590975
0.20184459 0.20184459 0.50525597
0.28063500 0.20539209 0.51072384
0.39455084 0.20965049 0.51719234
0.52496436 0.21410135 0.52384480
0.65428810 0.21870540 0.53061248
0.21663083 0.31315023 0.52757712
0.29903064 0.31787487 0.53302630
0.41609451 0.32351588 0.53946581
0.54719320 0.32937667 0.54608073
0.67422082 0.33540168 0.55280217
0.23263954 0.45530289 0.55041894
0.31865166 0.46073360 0.55582647
0.43859067 0.46717349 0.56220981
0.56985986 0.47381397 0.56875919
0.69408367 0.48058767 0.57540592
0.24963932 0.60668597 0.57329148
0.33915870 0.61189392 0.57863450
0.46158730 0.61802524 0.58493483
0.59247562 0.62429762 0.59139133
0.71345228 0.63064423 0.59793583
0.26757507 0.74083932 0.59601046
0.36043666 0.74501749 0.60126687
0.48491008 0.74990530 0.60745836
0.61485939 0.75487103 0.61379583
0.73219477 0.75986036 0.62021193
0.20357778 0.20357778 0.65155307
0.28280502 0.20714784 0.65650329
0.39711546 0.21143295 0.66231879
0.52763792 0.21591132 0.66825425
0.65670978 0.22054336 0.67424577
0.21845623 0.31546142 0.67156431
0.30128333 0.32020468 0.67637146
0.41870232 0.32586728 0.68201351
0.54984893 0.33174978 0.68776599
0.67657189 0.33779633 0.69356671
0.23455945 0.45796370 0.69151503
0.32098448 0.46339914 0.69616228
0.44123293 0.46984383 0.70161151
0.57248651 0.47648833 0.70716168
0.69635595 0.48326514 0.71275257
0.25165351 0.60924195 0.71097855
0.34156639 0.61443757 0.71545323
0.46425354 0.62055362 0.72069530
0.59506231 0.62680955 0.72602912
0.71563963 0.63313867 0.73139661
0.26968196 0.74289295 0.72982156
0.36291244 0.74704933 0.73411362
0.48758903 0.75191115 0.73913726
0.61739574 0.75684997 0.74424387
0.73429234 0.76181173 0.74937769
0.20431052 0.20431052 0.70691173
0.28372134 0.20789008 0.71142383
0.39819651 0.21218643 0.71671073
0.52876266 0.21667637 0.72209130
0.65772655 0.22132020 0.72750698
0.21922779 0.31643686 0.72508519
0.30223429 0.32118791 0.72942459
0.41980122 0.32685954 0.73450478
0.55096580 0.33275111 0.73967014
0.67755871 0.33880666 0.74486430
0.23537075 0.45908427 0.74302881
0.32196897 0.46452161 0.74718374
0.44234597 0.47096821 0.75204384
0.57359077 0.47761428 0.75698087
0.69730942 0.48439229 0.76194080
0.25250443 0.61031589 0.76036842
0.34258216 0.61550624 0.76433191
0.46537628 0.62161578 0.76896429
0.59614939 0.62786470 0.77366581
0.71655720 0.63418636 0.77838490
0.27057180 0.74375406 0.77700138
0.36395660 0.74790124 0.78076908
0.48871673 0.75275211 0.78516918
0.61846131 0.75767958 0.78963115
0.73517199 0.76262973 0.79410595
