luts/cubes/cold_blue.cube
TITLE "cold_blue"
LUT_3D_SIZE 33
DOMAIN_MIN 0.0 0.0 0.0
DOMAIN_MAX 1.0 1.0 1.0
0.19814205 0.19814205 0.21683250
0.20032390 0.19825174 0.21694973
0.20936857 0.19869760 0.21742625
0.21916731 0.19916575 0.21792652
0.22954105 0.19964611 0.21843978
0.24043400 0.20013527 0.21896239
0.25181781 0.20063146 0.21949245
0.26367379 0.20113359 0.22002879
0.27598692 0.20164092 0.22057063
0.28874316 0.20215292 0.22111737
0.30192807 0.20266917 0.22166860
0.31552607 0.20318935 0.22222396
0.32951989 0.20371322 0.22278318
0.34389030 0.20424054 0.22334602
0.35861596 0.20477116 0.22391231
0.37367326 0.20530492 0.22448188
0.38903638 0.20584169 0.22505459
0.40467728 0.20638136 0.22563031
0.42056582 0.20692382 0.22620895
0.43666990 0.20746900 0.22679042
0.45295567 0.20801682 0.22737462
0.46938770 0.20856721 0.22796148
0.48592935 0.20912011 0.22855094
0.50254295 0.20967545 0.22914294
0.51919021 0.21023320 0.22973742
0.53583250 0.21079331 0.23033433
0.55243121 0.21135572 0.23093363
0.56894812 0.21192041 0.23153527
0.58534569 0.21248734 0.23213921
0.60158744 0.21305647 0.23274542
0.61763825 0.21362778 0.23335387
0.63346462 0.21420123 0.23396452
0.64903498 0.21477680 0.23457735
0.19984921 0.20960025 0.21865678
0.20204512 0.20971462 0.21877472
0.21114698 0.21017950 0.21925412
0.22100569 0.21066760 0.21975742
0.23144065 0.21116838 0.22027378
0.24239539 0.21167830 0.22079954
0.25384103 0.21219551 0.22133278
0.26575843 0.21271889 0.22187234
0.27813214 0.21324764 0.22241742
0.29094768 0.21378122 0.22296744
0.30419021 0.21431918 0.22352195
0.31784370 0.21486121 0.22408062
0.33189047 0.21540703 0.22464316
0.34631087 0.21595642 0.22520934
0.36108312 0.21650920 0.22577898
0.37618326 0.21706520 0.22635191
0.39158505 0.21762430 0.22692799
0.40726012 0.21818637 0.22750711
0.42317798 0.21875131 0.22808914
0.43930626 0.21931904 0.22867401
0.45561082 0.21988947 0.22926162
0.47205606 0.22046252 0.22985191
0.48860515 0.22103814 0.23044480
0.50522033 0.22161627 0.23104023
0.52186324 0.22219685 0.23163816
0.53849524 0.22277984 0.23223852
0.55507780 0.22336518 0.23284127
0.57157279 0.22395285 0.23344637
0.58794282 0.22454279 0.23405378
0.60415164 0.22513498 0.23466347
0.62016437 0.22572939 0.23527539
0.63594782 0.22632598 0.23588952
0.65147072 0.22692472 0.23650583
0.20161649 0.22188515 0.22054454
0.20382688 0.22200433 0.22066321
0.21298757 0.22248880 0.22114558
0.22290794 0.22299740 0.22165199
0.23340581 0.22351919 0.22217153
0.24442398 0.22405047 0.22270052
0.25593305 0.22458930 0.22323704
0.26791340 0.22513451 0.22377991
0.28034913 0.22568528 0.22432833
0.29322534 0.22624102 0.22488170
0.30652672 0.22680130 0.22543960
0.32023682 0.22736576 0.22600166
0.33433751 0.22793413 0.22656761
0.34880872 0.22850616 0.22713723
0.36362826 0.22908167 0.22771031
0.37877173 0.22966050 0.22828670
0.39421253 0.23024250 0.22886625
0.40992191 0.23082754 0.22944884
0.42586906 0.23141553 0.23003436
0.44202131 0.23200636 0.23062273
0.45834426 0.23259996 0.23121385
0.47480212 0.23319624 0.23180765
0.49135788 0.23379513 0.23240406
0.50797368 0.23439659 0.23300302
0.52461112 0.23500054 0.23360448
0.54123157 0.23560695 0.23420839
0.55779655 0.23621575 0.23481469
0.57426804 0.23682691 0.23542334
0.59060886 0.23744040 0.23603431
0.60678295 0.23805616 0.23664756
0.62275570 0.23867417 0.23726306
0.63849423 0.23929440 0.23788076
0.65396764 0.23991681 0.23850065
0.20341459 0.23481628 0.22246440
0.20563960 0.23494032 0.22258381
0.21485979 0.23544447 0.22306918
0.22484244 0.23597370 0.22357873
0.23540382 0.23651661 0.22410148
0.24648598 0.23706935 0.22463374
0.25805898 0.23762990 0.22517357
0.27010273 0.23819704 0.22571978
0.28260085 0.23876992 0.22627157
0.29553800 0.23934792 0.22682833
0.30889844 0.23993060 0.22738964
0.32266526 0.24051757 0.22795513
0.33681990 0.24110855 0.22852453
0.35134184 0.24170330 0.22909761
0.36620848 0.24230161 0.22967417
0.38139501 0.24290331 0.23025405
0.39687443 0.24350826 0.23083710
0.41261763 0.24411633 0.23142320
0.42859349 0.24472739 0.23201224
0.44476901 0.24534136 0.23260414
0.46110958 0.24595815 0.23319880
0.47757918 0.24657767 0.23379615
0.49414067 0.24719986 0.23439611
0.51075608 0.24782464 0.23499864
0.52738697 0.24845197 0.23560367
0.54399473 0.24908178 0.23621115
0.56054095 0.24971403 0.23682103
0.57698774 0.25034867 0.23743327
0.59329810 0.25098566 0.23804783
0.60943620 0.25162496 0.23866468
0.62536772 0.25226653 0.23928378
0.64106009 0.25291035 0.23990509
0.65648276 0.25355637 0.24052859
0.20523723 0.24835590 0.22440965
0.20747699 0.24848477 0.22452980
0.21675707 0.24900852 0.22501818
0.22680241 0.24955829 0.22553089
0.23742766 0.25012222 0.22605688
0.24857412 0.25069632 0.22659243
0.26021131 0.25127848 0.22713559
0.27231863 0.25186743 0.22768516
0.28487927 0.25246229 0.22824033
0.29787742 0.25306242 0.22880051
0.31129688 0.25366735 0.22936525
0.32512031 0.25427669 0.22993419
0.33932869 0.25489013 0.23050706
0.35390108 0.25550743 0.23108362
0.36881444 0.25612837 0.23166367
0.38404355 0.25675277 0.23224706
0.39956103 0.25738048 0.23283363
0.41533742 0.25801137 0.23342326
0.43134125 0.25864532 0.23401585
0.44753925 0.25928222 0.23461129
0.46389657 0.25992198 0.23520951
0.48037697 0.26056452 0.23581043
0.49694319 0.26120977 0.23641397
0.51355717 0.26185764 0.23702008
0.53018043 0.26250809 0.23762869
0.54677439 0.26316106 0.23823976
0.56330071 0.26381649 0.23885325
0.57972166 0.26447434 0.23946909
0.59600041 0.26513456 0.24008727
0.61210139 0.26579711 0.24070773
0.62799055 0.26646195 0.24133044
0.64363566 0.26712905 0.24195538
0.65900653 0.26779838 0.24258251
0.20708147 0.26248245 0.22637710
0.20933606 0.26261608 0.22649800
0.21867635 0.26315919 0.22698940
0.22878465 0.26372923 0.22750529
0.23947400 0.26431391 0.22803453
0.25068495 0.26490907 0.22857338
0.26238645 0.26551254 0.22911988
0.27455742 0.26612300 0.22967282
0.28718057 0.26673952 0.23023140
0.30023964 0.26736146 0.23079500
0.31371797 0.26798830 0.23136318
0.32759777 0.26861965 0.23193559
0.34185957 0.26925521 0.23251194
0.35648201 0.26989469 0.23309200
0.37144160 0.27053789 0.23367556
0.38671272 0.27118462 0.23426247
0.40226763 0.27183471 0.23485257
0.41807647 0.27248803 0.23544575
0.43410748 0.27314445 0.23604189
0.45032710 0.27380387 0.23664090
0.46670023 0.27446619 0.23724269
0.48319047 0.27513131 0.23784718
0.49976039 0.27579917 0.23845431
0.51637188 0.27646970 0.23906401
0.53298642 0.27714281 0.23967622
0.54956547 0.27781847 0.24029090
0.56607079 0.27849661 0.24090800
0.58246478 0.27917718 0.24152746
0.59871083 0.27986014 0.24214925
0.61477361 0.28054544 0.24277334
0.63061937 0.28123304 0.24339969
0.64621621 0.28192291 0.24402826
0.66153430 0.28261501 0.24465903
0.20894560 0.27717756 0.22836490
0.21121507 0.27731586 0.22848654
0.22061581 0.27787791 0.22898099
0.23078729 0.27846779 0.22950005
0.24154090 0.27907276 0.23003255
0.25281645 0.27968851 0.23057471
0.26458230 0.28031282 0.23112456
0.27681691 0.28094428 0.23168089
0.28950248 0.28158197 0.23224288
0.30262231 0.28222519 0.23280992
0.31615928 0.28287343 0.23338156
0.33009513 0.28352627 0.23395744
0.34440997 0.28418339 0.23453728
0.35908197 0.28484451 0.23512084
0.37408725 0.28550940 0.23570792
0.38939976 0.28617787 0.23629836
0.40499137 0.28684976 0.23689200
0.42083189 0.28752492 0.23748873
0.43688923 0.28820322 0.23808843
0.45312956 0.28888454 0.23869101
0.46951755 0.28956879 0.23929638
0.48601662 0.29025587 0.23990446
0.50258921 0.29094571 0.24051518
0.51919713 0.29163823 0.24112849
0.53580187 0.29233336 0.24174431
0.55236491 0.29303103 0.24236260
0.56884813 0.29373120 0.24298331
0.58521408 0.29443381 0.24360640
0.60142636 0.29513881 0.24423182
0.61744989 0.29584615 0.24485955
0.63325123 0.29655580 0.24548953
0.64879883 0.29726771 0.24612174
0.66406324 0.29798185 0.24675615
0.21082849 0.29242207 0.23037182
0.21311290 0.29256490 0.23049421
0.22257428 0.29314532 0.23099170
0.23280907 0.29375442 0.23151396
0.24362705 0.29437905 0.23204972
0.25496725 0.29501476 0.23259520
0.26679746 0.29565923 0.23314841
0.27909563 0.29631104 0.23370813
0.29184349 0.29696920 0.23427353
0.30502385 0.29763301 0.23484401
0.31861917 0.29830192 0.23541912
0.33261072 0.29897553 0.23599848
0.34697814 0.29965347 0.23658182
0.36169919 0.30033548 0.23716889
0.37674954 0.30102132 0.23775949
0.39210276 0.30171077 0.23835347
0.40773033 0.30240368 0.23895066
0.42360171 0.30309989 0.23955094
0.43968450 0.30379926 0.24015421
0.45594461 0.30450168 0.24076037
0.47234647 0.30520705 0.24136932
0.48885334 0.30591526 0.24198099
0.50542754 0.30662623 0.24259532
0.52203082 0.30733990 0.24321222
0.53862466 0.30805617 0.24383166
0.55517060 0.30877500 0.24445357
0.57163063 0.30949632 0.24507790
0.58796746 0.31022008 0.24570462
0.60414492 0.31094622 0.24633367
0.62012819 0.31167469 0.24696503
0.63588414 0.31240546 0.24759866
0.65138157 0.31313848 0.24823451
0.66659141 0.31387372 0.24887257
0.21272935 0.30819434 0.23239700
0.21502875 0.30834151 0.23252015
0.22455091 0.30893957 0.23302068
0.23484914 0.30956711 0.23354613
0.24573155 0.31021059 0.23408517
0.25713641 0.31086543 0.23463397
0.26903093 0.31152923 0.23519054
0.28139253 0.31220051 0.23575366
0.29420249 0.31287827 0.23632248
0.30744314 0.31356178 0.23689641
0.32109647 0.31425048 0.23747498
0.33514329 0.31494393 0.23805782
0.34956281 0.31564179 0.23864466
0.36433234 0.31634375 0.23923525
0.37942713 0.31704957 0.23982938
0.39482034 0.31775905 0.24042689
0.41048308 0.31847201 0.24102764
0.42638448 0.31918828 0.24163149
0.44249181 0.31990773 0.24223833
0.45877073 0.32063025 0.24284806
0.47518547 0.32135571 0.24346060
0.49169910 0.32208402 0.24407587
0.50827384 0.32281510 0.24469379
0.52487139 0.32354886 0.24531430
0.54145323 0.32428523 0.24593735
0.55798098 0.32502414 0.24656288
0.57441674 0.32576552 0.24719084
0.59072339 0.32650933 0.24782119
0.60686499 0.32725551 0.24845388
0.62280701 0.32800401 0.24908887
0.63851662 0.32875478 0.24972614
0.65396298 0.32950778 0.25036564
0.66911740 0.33026297 0.25100735
0.21464761 0.32446939 0.23443980
0.21696203 0.32462070 0.23456369
0.22654509 0.32523548 0.23506728
0.23690684 0.32588051 0.23559593
0.24785372 0.32654187 0.23613824
0.25932320 0.32721483 0.23669037
0.27128193 0.32789692 0.23725030
0.28370682 0.32858664 0.23781682
0.29657865 0.32928295 0.23838907
0.30987929 0.32998508 0.23896644
0.32359026 0.33069248 0.23954848
0.33769191 0.33140468 0.24013481
0.35216301 0.33212132 0.24072515
0.36698041 0.33284211 0.24131925
0.38211896 0.33356678 0.24191692
0.39755142 0.33429513 0.24251797
0.41324852 0.33502697 0.24312227
0.42917906 0.33576213 0.24372968
0.44531001 0.33650048 0.24434009
0.46160676 0.33724188 0.24495341
0.47803334 0.33798623 0.24556953
0.49455268 0.33873342 0.24618840
0.51112689 0.33948337 0.24680992
0.52771762 0.34023598 0.24743404
0.54428637 0.34099118 0.24806071
0.56079484 0.34174890 0.24868985
0.57720524 0.34250908 0.24932144
0.59348067 0.34327166 0.24995541
0.60958539 0.34403658 0.25059174
0.62548517 0.34480378 0.25123037
0.64114751 0.34557323 0.25187128
0.65654192 0.34634488 0.25251443
0.67164011 0.34711868 0.25315978
0.21658281 0.34121853 0.23649971
0.21891228 0.34137370 0.23662436
0.22855634 0.34200414 0.23713100
0.23898166 0.34266554 0.23766284
0.24999300 0.34334361 0.23820843
0.26152706 0.34403351 0.23876388
0.27354989 0.34473270 0.23932719
0.28603788 0.34543963 0.23989710
0.29897133 0.34615324 0.24047278
0.31233163 0.34687274 0.24105360
0.32609982 0.34759756 0.24163911
0.34025583 0.34832722 0.24222893
0.35477794 0.34906135 0.24282277
0.36964259 0.34979964 0.24342039
0.38482420 0.35054184 0.24402158
0.40029513 0.35128772 0.24462618
0.41602576 0.35203708 0.24523403
0.43198453 0.35278977 0.24584500
0.44813814 0.35354563 0.24645899
0.46445174 0.35430454 0.24707588
0.48088913 0.35506637 0.24769559
0.49741311 0.35583102 0.24831805
0.51398570 0.35659841 0.24894318
0.53056852 0.35736843 0.24957091
0.54712309 0.35814102 0.25020118
0.56361118 0.35891610 0.25083395
0.57999516 0.35969360 0.25146915
0.59623832 0.36047346 0.25210676
0.61230516 0.36125562 0.25274671
0.62816174 0.36204003 0.25338898
0.64377590 0.36282664 0.25403353
0.65911750 0.36361541 0.25468032
0.67415866 0.36440628 0.25532932
0.21853461 0.35840908 0.23857633
0.22087915 0.35856781 0.23870173
0.23058428 0.35921269 0.23921143
0.24107319 0.35988917 0.23974647
0.25214897 0.36058263 0.24029533
0.26374752 0.36128810 0.24085411
0.27583430 0.36200301 0.24142079
0.28838518 0.36272575 0.24199410
0.30137996 0.36345524 0.24257320
0.31479956 0.36419068 0.24315748
0.32862456 0.36493146 0.24374645
0.34283441 0.36567711 0.24433976
0.35740696 0.36642725 0.24493710
0.37231820 0.36718156 0.24553824
0.38754213 0.36793976 0.24614296
0.40305074 0.36870164 0.24675110
0.41881403 0.36946700 0.24736250
0.43480013 0.37023566 0.24797703
0.45097544 0.37100747 0.24859458
0.46730485 0.37178230 0.24921505
0.48375202 0.37256003 0.24983835
0.50027956 0.37334055 0.25046440
0.51684944 0.37412377 0.25109313
0.53342325 0.37490958 0.25172446
0.54996254 0.37569792 0.25235835
0.56642918 0.37648871 0.25299473
0.58278568 0.37728187 0.25363355
0.59899553 0.37807735 0.25427478
0.61502350 0.37887508 0.25491836
0.63083593 0.37967501 0.25556426
0.64640100 0.38047709 0.25621244
0.66168896 0.38128126 0.25686287
0.67667231 0.38208749 0.25751551
0.22050271 0.37600441 0.24066933
0.22286234 0.37616636 0.24079549
0.23262859 0.37682430 0.24130824
0.24318111 0.37751441 0.24184648
0.25432128 0.37822176 0.24239862
0.26598421 0.37894129 0.24296072
0.27813477 0.37967036 0.24353076
0.29074830 0.38040735 0.24410748
0.30380410 0.38115113 0.24469000
0.31728262 0.38190089 0.24527772
0.33116397 0.38265601 0.24587017
0.34542712 0.38341602 0.24646696
0.36004950 0.38418050 0.24706780
0.37500664 0.38494915 0.24767245
0.39027216 0.38572169 0.24828070
0.40581763 0.38649787 0.24889238
0.42161271 0.38727750 0.24950732
0.43762519 0.38806041 0.25012541
0.45382120 0.38884644 0.25074653
0.47016542 0.38963545 0.25137058
0.48662129 0.39042732 0.25199746
0.50315132 0.39122193 0.25262710
0.51971740 0.39201919 0.25325942
0.53628109 0.39281900 0.25389435
0.55280400 0.39362129 0.25453184
0.56924811 0.39442596 0.25517183
0.58557607 0.39523296 0.25581427
0.60175159 0.39604222 0.25645912
0.61773970 0.39685367 0.25710632
0.63350705 0.39766725 0.25775585
0.64902216 0.39848292 0.25840766
0.66425565 0.39930063 0.25906172
0.67918045 0.40012032 0.25971799
0.22248687 0.39396398 0.24277844
0.22486161 0.39412878 0.24290535
0.23468902 0.39479825 0.24342115
0.24530512 0.39550039 0.24396259
0.25650961 0.39621999 0.24451800
0.26823680 0.39695190 0.24508343
0.28045095 0.39769344 0.24565684
0.29312686 0.39844294 0.24623695
0.30624335 0.39919926 0.24682290
0.31978038 0.39996158 0.24741406
0.33371759 0.40072926 0.24800997
0.34803350 0.40150182 0.24861024
0.36270507 0.40227884 0.24921458
0.37770742 0.40306000 0.24982274
0.39301375 0.40384501 0.25043452
0.40859524 0.40463364 0.25104972
0.42442120 0.40542568 0.25166822
0.44045912 0.40622096 0.25228986
0.45667485 0.40701930 0.25291454
0.47303283 0.40782058 0.25354216
0.48949634 0.40862466 0.25417262
0.50602777 0.40943144 0.25480584
0.52258894 0.41024080 0.25544174
0.53914142 0.41105265 0.25608027
0.55564686 0.41186691 0.25672136
0.57206735 0.41268351 0.25736496
0.58836573 0.41350235 0.25801101
0.60450590 0.41432339 0.25865947
0.62045318 0.41514655 0.25931029
0.63617452 0.41597177 0.25996343
0.65163880 0.41679900 0.26061886
0.66681703 0.41762820 0.26127655
0.68168253 0.41845930 0.26193645
0.22448689 0.41224360 0.24490342
0.22687676 0.41241085 0.24503108
0.23676533 0.41309020 0.24554993
0.24744499 0.41380262 0.24609457
0.25871371 0.41453269 0.24665325
0.27050501 0.41527516 0.24722200
0.28278252 0.41602731 0.24779877
0.29552054 0.41678745 0.24838227
0.30869737 0.41755443 0.24897164
0.32229248 0.41832739 0.24956624
0.33628504 0.41910571 0.25016561
0.35065313 0.41988886 0.25076936
0.36537324 0.42067646 0.25137719
0.38042008 0.42146815 0.25198886
0.39576642 0.42226366 0.25260415
0.41138308 0.42306273 0.25322289
0.42723902 0.42386516 0.25384492
0.44330141 0.42467077 0.25447011
0.45953584 0.42547940 0.25509835
0.47590654 0.42629089 0.25572953
0.49237661 0.42710512 0.25636356
0.50890835 0.42792198 0.25700036
0.52546351 0.42874136 0.25763985
0.54200366 0.42956316 0.25828197
0.55849054 0.43038729 0.25892665
0.57488635 0.43121368 0.25957384
0.59115409 0.43204225 0.26022350
0.60725791 0.43287293 0.26087556
0.62316340 0.43370565 0.26152999
0.63883783 0.43454035 0.26218675
0.65425043 0.43537699 0.26284579
0.66937260 0.43621550 0.26350709
0.68417808 0.43705583 0.26417061
0.22650261 0.43079572 0.24704406
0.22890760 0.43096497 0.24717247
0.23885734 0.43165243 0.24769437
0.24960050 0.43237328 0.24824220
0.26093335 0.43311191 0.24880414
0.27278858 0.43386300 0.24937622
0.28512923 0.43462379 0.24995634
0.29792904 0.43539258 0.25054323
0.31116583 0.43616818 0.25113601
0.32481858 0.43694975 0.25173405
0.33886597 0.43773664 0.25233687
0.35328564 0.43852833 0.25294410
0.36805362 0.43932441 0.25355542
0.38314420 0.44012454 0.25417059
0.39852975 0.44092842 0.25478939
0.41418071 0.44173581 0.25541165
0.43006569 0.44254649 0.25603721
0.44615157 0.44336028 0.25666595
0.46240368 0.44417702 0.25729774
0.47878604 0.44499655 0.25793247
0.49526159 0.44581875 0.25857007
0.51179253 0.44664349 0.25921044
0.52834057 0.44747068 0.25985350
0.54486731 0.44830021 0.26049920
0.56133454 0.44913199 0.26114747
0.57770458 0.44996593 0.26179826
0.59394065 0.45080198 0.26245150
0.61000713 0.45164004 0.26310716
0.62586987 0.45248006 0.26376519
0.64149649 0.45332197 0.26442555
0.65685658 0.45416572 0.26508821
0.67192192 0.45501126 0.26575311
0.68666668 0.45585852 0.26642024
0.22853386 0.44956981 0.24920018
0.23095398 0.44974061 0.24932934
0.24096487 0.45043432 0.24985428
0.25177147 0.45116164 0.25040529
0.26316832 0.45190680 0.25097050
0.27508730 0.45266446 0.25154589
0.28749083 0.45343182 0.25212936
0.30035212 0.45420715 0.25271963
0.31364846 0.45498926 0.25331582
0.32735837 0.45577729 0.25391730
0.34146006 0.45657059 0.25452357
0.35593068 0.45736864 0.25513426
0.37074584 0.45817101 0.25574906
0.38587941 0.45897736 0.25636772
0.40130333 0.45978740 0.25699003
0.41698770 0.46060087 0.25761581
0.43290078 0.46141756 0.25824490
0.44900916 0.46223728 0.25887717
0.46527792 0.46305986 0.25951250
0.48167087 0.46388516 0.26015079
0.49815082 0.46471303 0.26079194
0.51467986 0.46554337 0.26143587
0.53121968 0.46637606 0.26208251
0.54773189 0.46721099 0.26273178
0.56417837 0.46804809 0.26338363
0.58052160 0.46888727 0.26403799
0.59672497 0.46972844 0.26469482
0.61275311 0.47057154 0.26535407
0.62857217 0.47141650 0.26601569
0.64415009 0.47226326 0.26667964
0.65945683 0.47311176 0.26734589
0.67446460 0.47396194 0.26801440
0.68914795 0.47481374 0.26868513
0.23058052 0.46851291 0.25137161
0.23301576 0.46868478 0.25150152
0.24308778 0.46938278 0.25202950
0.25395773 0.47011452 0.25258369
0.26541844 0.47086414 0.25315216
0.27740096 0.47162623 0.25373085
0.28986710 0.47239799 0.25431767
0.30278951 0.47317767 0.25491132
0.31614500 0.47396408 0.25551091
0.32991158 0.47475635 0.25611581
0.34406700 0.47555382 0.25672553
0.35858794 0.47635596 0.25733968
0.37344958 0.47716235 0.25795795
0.38862534 0.47797264 0.25858010
0.40408681 0.47878653 0.25920591
0.41980368 0.47960378 0.25983520
0.43574391 0.48042415 0.26046780
0.45187378 0.48124746 0.26110360
0.46815815 0.48207355 0.26174247
0.48456062 0.48290225 0.26238429
0.50104387 0.48373345 0.26302899
0.51756990 0.48456700 0.26367648
0.53410038 0.48540281 0.26432667
0.55059696 0.48624078 0.26497951
0.56702162 0.48708080 0.26563492
0.58333697 0.48792280 0.26629286
0.59950661 0.48876670 0.26695326
0.61549543 0.48961242 0.26761609
0.63126988 0.49045990 0.26828129
0.64679823 0.49130906 0.26894882
0.66205083 0.49215987 0.26961866
0.67700027 0.49301225 0.27029075
0.69162154 0.49386615 0.27096507
0.23264246 0.48757011 0.25355821
0.23509283 0.48774255 0.25368886
0.24522592 0.48844284 0.25421987
0.25615912 0.48917690 0.25477724
0.26768353 0.48992881 0.25534896
0.27972937 0.49069314 0.25593095
0.29225783 0.49146708 0.25652111
0.30524101 0.49224887 0.25711813
0.31865521 0.49303731 0.25772112
0.33247795 0.49383154 0.25832943
0.34668651 0.49463087 0.25894259
0.36125712 0.49543479 0.25956019
0.37616451 0.49624288 0.26018193
0.39138168 0.49705476 0.26080756
0.40687982 0.49787016 0.26143685
0.42262829 0.49868881 0.26206964
0.43859469 0.49951049 0.26270576
0.45474505 0.50033502 0.26334507
0.47104396 0.50116222 0.26398746
0.48745487 0.50199193 0.26463282
0.50394031 0.50282403 0.26528106
0.52046223 0.50365839 0.26593209
0.53698226 0.50449490 0.26658583
0.55346212 0.50533346 0.26724222
0.56986386 0.50617397 0.26790119
0.58615028 0.50701635 0.26856268
0.60228518 0.50786052 0.26922665
0.61823372 0.50870640 0.26989304
0.63396263 0.50955393 0.27056181
0.64944056 0.51040304 0.27123292
0.66463822 0.51125368 0.27190633
0.67952860 0.51210578 0.27258199
0.69408714 0.51295929 0.27325989
0.23471958 0.50668518 0.25575983
0.23718506 0.50685769 0.25589123
0.24737917 0.50755823 0.25642526
0.25837551 0.50829248 0.25698581
0.26996345 0.50904449 0.25756076
0.28207236 0.50980884 0.25814605
0.29466282 0.51058270 0.25873954
0.30770639 0.51136432 0.25933992
0.32117885 0.51215250 0.25994630
0.33505724 0.51294636 0.26055802
0.34931834 0.51374523 0.26117460
0.36393794 0.51454859 0.26179564
0.37889033 0.51535600 0.26242084
0.39414810 0.51616712 0.26304994
0.40968205 0.51698164 0.26368272
0.42546118 0.51779931 0.26431899
0.44145278 0.51861991 0.26495861
0.45762259 0.51944324 0.26560143
0.47393499 0.52026913 0.26624734
0.49035325 0.52109744 0.26689622
0.50683979 0.52192802 0.26754798
0.52335647 0.52276074 0.26820254
0.53986495 0.52359551 0.26885982
0.55632697 0.52443221 0.26951975
0.57270473 0.52527076 0.27018227
0.58896117 0.52611106 0.27084731
0.60506032 0.52695304 0.27151483
0.62096760 0.52779662 0.27218478
0.63665008 0.52864173 0.27285711
0.65207674 0.52948831 0.27353177
0.66721867 0.53033630 0.27420874
0.68204929 0.53118564 0.27488797
0.69654445 0.53203628 0.27556942
0.23681178 0.52580122 0.25797634
0.23929236 0.52597331 0.25810849
0.24954741 0.52667205 0.25864554
0.26060676 0.52740434 0.25920925
0.27225803 0.52815425 0.25978744
0.28442977 0.52891638 0.26037601
0.29708191 0.52968791 0.26097283
0.31018547 0.53046707 0.26157656
0.32371572 0.53125268 0.26218632
0.33764919 0.53204386 0.26280144
0.35196223 0.53283994 0.26342143
0.36663013 0.53364039 0.26404591
0.38162677 0.53444478 0.26467456
0.39692431 0.53525276 0.26530711
0.41249318 0.53606403 0.26594336
0.42830202 0.53687833 0.26658312
0.44431782 0.53769545 0.26722623
0.46050605 0.53851518 0.26787254
0.47683088 0.53933737 0.26852195
0.49325540 0.54016185 0.26917434
0.50974191 0.54098849 0.26982962
0.52625225 0.54181716 0.27048770
0.54274806 0.54264776 0.27114851
0.55919116 0.54348017 0.27181197
0.57554386 0.54431432 0.27247802
0.59176928 0.54515010 0.27314660
0.60783168 0.54598744 0.27381765
0.62369676 0.54682627 0.27449114
0.63933190 0.54766651 0.27516701
0.65470645 0.54850811 0.27584522
0.66979189 0.54935099 0.27652573
0.68456205 0.55019511 0.27720851
0.69899321 0.55104041 0.27789351
0.23891895 0.54486133 0.26020764
0.24141463 0.54503248 0.26034052
0.25173053 0.54572740 0.26088059
0.26285274 0.54645559 0.26144745
0.27456714 0.54720122 0.26202887
0.28680143 0.54795892 0.26262072
0.29951491 0.54872587 0.26322084
0.31267805 0.54950032 0.26382792
0.32626560 0.55028108 0.26444105
0.34025361 0.55106729 0.26505956
0.35461793 0.55185826 0.26568296
0.36933343 0.55265348 0.26631086
0.38437354 0.55345252 0.26694294
0.39971002 0.55425502 0.26757895
0.41531291 0.55506069 0.26821866
0.43115051 0.55586928 0.26886188
0.44718951 0.55668056 0.26950847
0.46339512 0.55749433 0.27015827
0.47973129 0.55831044 0.27081117
0.49616096 0.55912872 0.27146706
0.51264635 0.55994904 0.27212584
0.52914922 0.56077127 0.27278743
0.54563125 0.56159531 0.27345174
0.56205433 0.56242105 0.27411872
0.57838090 0.56324840 0.27478829
0.59457426 0.56407727 0.27546039
0.61059892 0.56490757 0.27613498
0.62642086 0.56573925 0.27681199
0.64200778 0.56657222 0.27749139
0.65732940 0.56740642 0.27817313
0.67235760 0.56824180 0.27885717
