luts/cubes/cold_blue.cube
TITLE "cold_blue"
LUT_3D_SIZE 9
DOMAIN_MIN 0.0 0.0 0.0
DOMAIN_MAX 1.0 1.0 1.0
0.19814205 0.19814205 0.21683250
0.22954105 0.19964611 0.21843978
0.27598692 0.20164092 0.22057063
0.32951989 0.20371322 0.22278318
0.38903638 0.20584169 0.22505459
0.45295567 0.20801682 0.22737462
0.51919021 0.21023320 0.22973742
0.58534569 0.21248734 0.23213921
0.64903498 0.21477680 0.23457735
0.20523723 0.24835590 0.22440965
0.23742766 0.25012222 0.22605688
0.28487927 0.25246229 0.22824033
0.33932869 0.25489013 0.23050706
0.39956103 0.25738048 0.23283363
0.46389657 0.25992198 0.23520951
0.53018043 0.26250809 0.23762869
0.59600041 0.26513456 0.24008727
0.65900653 0.26779838 0.24258251
0.21272935 0.30819434 0.23239700
0.24573155 0.31021059 0.23408517
0.29420249 0.31287827 0.23632248
0.34956281 0.31564179 0.23864466
0.41048308 0.31847201 0.24102764
0.47518547 0.32135571 0.24346060
0.54145323 0.32428523 0.24593735
0.60686499 0.32725551 0.24845388
0.66911740 0.33026297 0.25100735
0.22050271 0.37600441 0.24066933
0.25432128 0.37822176 0.24239862
0.30380410 0.38115113 0.24469000
0.36004950 0.38418050 0.24706780
0.42161271 0.38727750 0.24950732
0.48662129 0.39042732 0.25199746
0.55280400 0.39362129 0.25453184
0.61773970 0.39685367 0.25710632
0.67918045 0.40012032 0.25971799
0.22853386 0.44956981 0.24920018
0.26316832 0.45190680 0.25097050
0.31364846 0.45498926 0.25331582
0.37074584 0.45817101 0.25574906
0.43290078 0.46141756 0.25824490
0.49815082 0.46471303 0.26079194
0.56417837 0.46804809 0.26338363
0.62857217 0.47141650 0.26601569
0.68914795 0.47481374 0.26868513
0.23681178 0.52580122 0.25797634
0.27225803 0.52815425 0.25978744
0.32371572 0.53125268 0.26218632
0.38162677 0.53444478 0.26467456
0.44431782 0.53769545 0.26722623
0.50974191 0.54098849 0.26982962
0.57554386 0.54431432 0.27247802
0.63933190 0.54766651 0.27516701
0.69899321 0.55104041 0.27789351
0.24532954 0.60115046 0.26698905
0.28158034 0.60341160 0.26884050
0.33399135 0.60638415 0.27129233
0.39267330 0.60944075 0.27383492
0.45584132 0.61254739 0.27644170
0.52137018 0.61568834 0.27910068
0.58687630 0.61885425 0.28180495
0.64999696 0.62203886 0.28454999
0.70869790 0.62523762 0.28733261
0.25408189 0.67222728 0.27623129
0.29112707 0.67430379 0.27812251
0.34446303 0.67702939 0.28062650
0.40386915 0.67982705 0.28322257
0.46745197 0.68266535 0.28588354
0.53301501 0.68552969 0.28859711
0.59815576 0.68841142 0.29135620
0.66054984 0.69130476 0.29415618
0.71824809 0.69420549 0.29699374
0.26306420 0.73637144 0.28569671
0.30089072 0.73819984 0.28762698
0.35511933 0.74059642 0.29018215
0.41519923 0.74305243 0.29283063
0.47913213 0.74554003 0.29554464
0.54465792 0.74804631 0.29831161
0.60936484 0.75056361 0.30112427
0.67097584 0.75308681 0.30397785
0.72763265 0.75561223 0.30686896
0.19913068 0.19913068 0.28212884
0.23064127 0.20064036 0.28404459
0.27722966 0.20264259 0.28658074
0.33089352 0.20472254 0.28920974
0.39051360 0.20685882 0.29190405
0.45449505 0.20904187 0.29465119
0.52074041 0.21126626 0.29744396
0.58685233 0.21352847 0.30027765
0.65044840 0.21582608 0.30314890
0.20625214 0.24951710 0.29113951
0.23855398 0.25128892 0.29309146
0.28614623 0.25363621 0.29567503
0.34072243 0.25607147 0.29835257
0.40105199 0.25856936 0.30109597
0.46544149 0.26111848 0.30389249
0.53172716 0.26371225 0.30673477
0.59749496 0.26634641 0.30961796
0.66040081 0.26901795 0.31253863
0.21377135 0.30952010 0.30058149
0.24688451 0.31154113 0.30256973
0.29549377 0.31421504 0.30520077
0.35097625 0.31698491 0.30792686
0.41198683 0.31982155 0.31071931
0.47673456 0.32271168 0.31356511
0.54299484 0.32564763 0.31645673
0.60834576 0.32862433 0.31938920
0.67049100 0.33163816 0.32235901
0.22157207 0.37746272 0.31029976
0.25550089 0.37968343 0.31232358
0.30511931 0.38261716 0.31500112
0.36148177 0.38565093 0.31777472
0.42312796 0.38875230 0.32061510
0.48817299 0.39190643 0.32350900
0.55433886 0.39510466 0.32644870
0.61920521 0.39834122 0.32942915
0.68053222 0.40161196 0.33244671
0.22963070 0.45110718 0.32025778
0.26437442 0.45344557 0.32231619
0.31498701 0.45652978 0.32503892
0.37219593 0.45971322 0.32785859
0.43442613 0.46296136 0.33074541
0.49970350 0.46625831 0.33368583
0.56570486 0.46959474 0.33667199
0.63002102 0.47296438 0.33969870
0.69047686 0.47636272 0.34276224
0.23793609 0.52734952 0.33043504
0.27349032 0.52970173 0.33252687
0.32507688 0.53279899 0.33529317
0.38309349 0.53598975 0.33815723
0.44585177 0.53923894 0.34108872
0.51129391 0.54253034 0.34407382
0.57706038 0.54585437 0.34710452
0.64076277 0.54920462 0.35017550
0.70029834 0.55257642 0.35328298
0.24648123 0.60263865 0.34081648
0.28283843 0.60489691 0.34294036
0.33537430 0.60786556 0.34574842
0.39415543 0.61091803 0.34865495
0.45738231 0.61402037 0.35162909
0.52291982 0.61715684 0.35465679
0.58838129 0.62031811 0.35772986
0.65140858 0.62349793 0.36084289
0.70997841 0.62669175 0.36399201
0.25526077 0.67359427 0.35138925
0.29241045 0.67566630 0.35354368
0.34586682 0.67838593 0.35639147
0.40536532 0.68117738 0.35933833
0.46899838 0.68400927 0.36235290
0.53456060 0.68686704 0.36542089
0.59964769 0.68974207 0.36853397
0.66194104 0.69262857 0.37168661
0.71950324 0.69552234 0.37487486
0.26426999 0.73757534 0.36214144
0.30219879 0.73939835 0.36432477
0.35654292 0.74178780 0.36721007
0.41670804 0.74423642 0.37019493
0.48068230 0.74671647 0.37324752
0.54619778 0.74921506 0.37635331
0.61084222 0.75172455 0.37950383
0.67234551 0.75423986 0.38269344
0.72886177 0.75675729 0.38591811
0.20005953 0.20005953 0.35297309
0.23167459 0.20157448 0.35513192
0.27839618 0.20358366 0.35798542
0.33218206 0.20567078 0.36093806
0.39189833 0.20781437 0.36395843
0.45593693 0.21000484 0.36703220
0.52219128 0.21223672 0.37015099
0.58826130 0.21450650 0.37330929
0.65176918 0.21681173 0.37650312
0.20720562 0.25060744 0.36310195
0.23961171 0.25238440 0.36528775
0.28733535 0.25473844 0.36817626
0.34202968 0.25718064 0.37116436
0.40244941 0.25968557 0.37422020
0.46688838 0.26224180 0.37732921
0.53317458 0.26484273 0.38048291
0.59889244 0.26748408 0.38367567
0.66170355 0.27016283 0.38690343
0.21475019 0.31076407 0.37364757
0.24796715 0.31278954 0.37585939
0.29670559 0.31546925 0.37878160
0.35230183 0.31824505 0.38180377
0.41339605 0.32108766 0.38489358
0.47818515 0.32398379 0.38803629
0.54443728 0.32692573 0.39122325
0.60973018 0.32990839 0.39444875
0.67177427 0.33292816 0.39770865
0.22257651 0.37882994 0.38442974
0.25660844 0.38105377 0.38666598
0.30635344 0.38399153 0.38961977
0.36282484 0.38702936 0.39267375
0.42454778 0.39013478 0.39579521
0.48962582 0.39329291 0.39896919
0.55577478 0.39649508 0.40218693
0.62057519 0.39973550 0.40544262
0.68179495 0.40301002 0.40873206
0.23066085 0.45254723 0.39540286
0.26550672 0.45488691 0.39766170
0.31624289 0.45797271 0.40064462
0.37355551 0.46115767 0.40372786
0.43585522 0.46440724 0.40687832
0.50115704 0.46770552 0.41008086
0.56713276 0.47104316 0.41332659
0.63137525 0.47441390 0.41660961
0.69171809 0.47781322 0.41992566
0.23899194 0.52879848 0.40653991
0.27464708 0.53114990 0.40881935
0.32635382 0.53424601 0.41182874
0.38446851 0.53743546 0.41493846
0.44728872 0.54068320 0.41811506
0.51274661 0.54397301 0.42134321
0.57847876 0.54729531 0.42461392
0.64210002 0.55064368 0.42792120
0.70151721 0.55401345 0.43126073
0.24756268 0.60403012 0.41782033
0.28401928 0.60628563 0.42011824
0.33667151 0.60925059 0.42315127
0.39554469 0.61229915 0.42628452
0.45882565 0.61539741 0.42948422
0.52437011 0.61852964 0.43273487
0.58978869 0.62168653 0.43602738
0.65272768 0.62486182 0.43935568
0.71117414 0.62805097 0.44271538
0.25636764 0.67487132 0.42922643
0.29361490 0.67693913 0.43154058
0.34718341 0.67965315 0.43459427
0.40676757 0.68243874 0.43774795
0.47044659 0.68526460 0.44096756
0.53600691 0.68811620 0.44423745
0.60104269 0.69098492 0.44754842
0.66324089 0.69386499 0.45089435
0.72067515 0.69675221 0.45427080
0.26540200 0.73869917 0.44074194
0.30342627 0.74051712 0.44306998
0.35787792 0.74289988 0.44614122
0.41812193 0.74534157 0.44931211
0.48213384 0.74781454 0.45254831
0.54763853 0.75030591 0.45583405
0.61222344 0.75280810 0.45916005
0.67362507 0.75531600 0.46252011
0.73000925 0.75782595 0.46590975
0.20096081 0.20096081 0.42827489
0.23267687 0.20248086 0.43058777
0.27952704 0.20449675 0.43363986
0.33343045 0.20659080 0.43679197
0.39323900 0.20874146 0.44001005
0.45733192 0.21093910 0.44327847
0.52359389 0.21317823 0.44658804
0.58962238 0.21545533 0.44993264
0.65304415 0.21776793 0.45330783
0.20813072 0.25166479 0.43909815
0.24063757 0.25344672 0.44142436
0.28848801 0.25580727 0.44449330
0.34329606 0.25825617 0.44766194
0.40380220 0.26076790 0.45089599
0.46828803 0.26333099 0.45417969
0.53457369 0.26593883 0.45750377
0.60024226 0.26858712 0.46086204
0.66296095 0.27127282 0.46425002
0.21569980 0.31196957 0.45029046
0.24901707 0.31399932 0.45262811
0.29788013 0.31668462 0.45571140
0.35358580 0.31946613 0.45889395
0.41476010 0.32231449 0.46214125
0.47958820 0.32521638 0.46543742
0.54583138 0.32816407 0.46877313
0.61106721 0.33115247 0.47214213
0.67301274 0.33417795 0.47553989
0.22355087 0.38015385 0.46165418
0.25768240 0.38238067 0.46400103
0.30754947 0.38532229 0.46709568
0.36412560 0.38836401 0.47028904
0.42592191 0.39147330 0.47354641
0.49103085 0.39463526 0.47685181
0.55716241 0.39784118 0.48019584
0.62189811 0.40108529 0.48357220
0.68301344 0.40436342 0.48697633
0.23166006 0.45394050 0.47313734
0.26660457 0.45628137 0.47549101
0.31745985 0.45936866 0.47859386
0.37487211 0.46255504 0.48179476
0.43723814 0.46580595 0.48505885
0.50256258 0.46910547 0.48837006
0.56851245 0.47244423 0.49171894
0.63268280 0.47581598 0.49509916
0.69291570 0.47921618 0.49850611
0.24001598 0.53019914 0.48470855
0.27576854 0.53254975 0.48706657
0.32759106 0.53564470 0.49017437
0.38579989 0.53883284 0.49337943
0.44867907 0.54207913 0.49664678
0.51415115 0.54536734 0.49996030
0.57984908 0.54868791 0.50331047
0.64339101 0.55203442 0.50669093
0.70269312 0.55540218 0.51009706
0.24861145 0.60537404 0.49634391
0.28516396 0.60762687 0.49870375
0.33792824 0.61058821 0.50181316
0.39688969 0.61363296 0.50501894
0.46022200 0.61672724 0.50828603
0.52577214 0.61985532 0.51159828
0.59114823 0.62300793 0.51494613
0.65400100 0.62617880 0.51832318
0.71232761 0.62936340 0.52172481
0.25744095 0.67610373 0.50802306
0.29478233 0.67816744 0.51038216
0.34845877 0.68087601 0.51348980
0.40812496 0.68365592 0.51669281
0.47184747 0.68647592 0.51995609
0.53740489 0.68932152 0.52326346
0.60239008 0.69218411 0.52660533
0.66449547 0.69505794 0.52997531
0.72180551 0.69793881 0.53336873
0.26649957 0.73978293 0.51972763
0.30461589 0.74159598 0.52208340
0.35917095 0.74397226 0.52518586
0.41949042 0.74640724 0.52838259
0.48353774 0.74887334 0.53163850
0.54903095 0.75135774 0.53493736
0.61355735 0.75385284 0.53826962
0.67485994 0.75635357 0.54162883
0.73111594 0.75885627 0.54501035
0.20184459 0.20184459 0.50525597
0.23365935 0.20336963 0.50761548
0.28063500 0.20539209 0.51072384
0.33465282 0.20749292 0.51392782
0.39455084 0.20965049 0.51719234
0.45869594 0.21185513 0.52050118
0.52496436 0.21410135 0.52384480
0.59095130 0.21638560 0.52721679
0.65428810 0.21870540 0.53061248
0.20903778 0.25270104 0.51626795
0.24164307 0.25448781 0.51862497
0.28961720 0.25685473 0.52172932
0.34453590 0.25931016 0.52492827
0.40512576 0.26182852 0.52818672
0.46965645 0.26439830 0.53148848
0.53594056 0.26701288 0.53482395
0.60156003 0.26966794 0.53818673
0.66418763 0.27236043 0.54157215
0.21663083 0.31315023 0.52757712
0.25004606 0.31518414 0.52992921
0.29903064 0.31787487 0.53302630
0.35484272 0.32066193 0.53621685
0.41609451 0.32351588 0.53946581
0.48095977 0.32642338 0.54275697
0.54719320 0.32937667 0.54608073
0.61237234 0.33237066 0.54943069
0.67422082 0.33540168 0.55280217
0.22450609 0.38144948 0.53897891
0.25873486 0.38367919 0.54132359
0.30872090 0.38662455 0.54441015
0.36539881 0.38967004 0.54758894
0.42726601 0.39278307 0.55082497
0.49240418 0.39594872 0.55410204
0.55851774 0.39915828 0.55741059
0.62318930 0.40240595 0.56074419
0.68420191 0.40568757 0.56409818
0.23263954 0.45530289 0.55041894
0.26768033 0.45764490 0.55275372
0.31865166 0.46073360 0.55582647
0.37616067 0.46392133 0.55899013
0.43859067 0.46717349 0.56220981
0.50393623 0.47047416 0.56546934
0.56985986 0.47381397 0.56875919
0.63395884 0.47718665 0.57207294
0.69408367 0.48058767 0.57540592
0.24101971 0.53156761 0.56186459
0.27686732 0.53391739 0.56418699
0.32880258 0.53701115 0.56724269
0.38710275 0.54019797 0.57038789
0.45003868 0.54344279 0.57358783
0.51552365 0.54672940 0.57682641
0.58118717 0.55004823 0.58009413
0.64465075 0.55339285 0.58338457
0.70383979 0.55675861 0.58669311
0.24963932 0.60668597 0.57329148
0.28628537 0.60893615 0.57559906
0.33915870 0.61189392 0.57863450
0.39820572 0.61493490 0.58175795
0.46158730 0.61802524 0.58493483
0.52714200 0.62114924 0.58814912
0.59247562 0.62429762 0.59139133
0.65524333 0.62746413 0.59465511
0.71345228 0.63064423 0.59793583
0.25849277 0.67730586 0.58467936
0.29592591 0.67936555 0.58696972
0.34970733 0.68206876 0.58998177
0.40945296 0.68484309 0.59308026
0.47321703 0.68765735 0.59623083
0.53877063 0.69049706 0.59941754
0.60370543 0.69335363 0.60263098
0.66571939 0.69622133 0.60586482
0.72290754 0.69909597 0.60911444
0.26757507 0.74083932 0.59601046
0.30578108 0.74264756 0.59828127
0.36043666 0.74501749 0.60126687
0.42082910 0.74744592 0.60433727
0.48491008 0.74990530 0.60745836
0.55039108 0.75238286 0.61061434
0.61485939 0.75487103 0.61379583
0.67606447 0.75736475 0.61699655
0.73219477 0.75986036 0.62021193
0.20271592 0.20271592 0.58068381
0.23462764 0.20424585 0.58298050
0.28172639 0.20627477 0.58600112
0.33585621 0.20838226 0.58910874
0.39584147 0.21054662 0.59226892
0.46003696 0.21275815 0.59546569
0.52631075 0.21501133 0.59868960
0.59225593 0.21730260 0.60193432
0.65550849 0.21962948 0.60519524
0.20993199 0.25372212 0.59137470
0.24263397 0.25551363 0.59365381
0.29072941 0.25788679 0.59665060
0.34575636 0.26034863 0.59973289
0.40642776 0.26287350 0.60286644
0.47100164 0.26544985 0.60603539
0.53728327 0.26807104 0.60923035
0.60285356 0.27073273 0.61244501
0.66539094 0.27343187 0.61567480
0.21754858 0.31431282 0.60228067
0.25106001 0.31635080 0.60453962
0.30016372 0.31904686 0.60750921
0.35607985 0.32183934 0.61056268
0.41740703 0.32469877 0.61366606
0.48230789 0.32761175 0.61680361
0.54853077 0.33057051 0.61996601
0.61365331 0.33356995 0.62314699
0.67540575 0.33660640 0.62634200
0.22544761 0.38272435 0.61320136
0.25977184 0.38495688 0.61543790
0.30987447 0.38790587 0.61837731
0.36665184 0.39095502 0.62139892
0.42858790 0.39407168 0.62446906
0.49375386 0.39724093 0.62757212
0.55984877 0.40045402 0.63069886
0.62445645 0.40370515 0.63384306
0.68536748 0.40699014 0.63700021
0.23360490 0.45664237 0.62408417
0.26874016 0.45898546 0.62629613
0.31982517 0.46207550 0.62920255
0.37742865 0.46526450 0.63218943
0.43992069 0.46851785 0.63522344
0.50528606 0.47181961 0.63828910
0.57118295 0.47516040 0.64137728
0.63521098 0.47853395 0.64448181
0.69522901 0.48193571 0.64759824
0.24200887 0.53291194 0.63489840
0.27794972 0.53526087 0.63708373
0.32999536 0.53835343 0.63995449
0.38838465 0.54153890 0.64290391
0.45137551 0.54478222 0.64589904
0.51687218 0.54806721 0.64892457
0.58250094 0.55138428 0.65197145
0.64588674 0.55472702 0.65503360
0.70496413 0.55809074 0.65810660
0.25065217 0.60797371 0.64562189
0.28738996 0.61022126 0.64777864
0.34037001 0.61317548 0.65061119
0.39950042 0.61621272 0.65352058
0.46292956 0.61929915 0.65647425
0.52848776 0.62241910 0.65945706
0.59377874 0.62556328 0.66246008
0.65646212 0.62872547 0.66547730
0.71455493 0.63190113 0.66850434
0.25952911 0.67848492 0.65623693
0.29705222 0.68054063 0.65836325
0.35093629 0.68323855 0.66115521
0.41075927 0.68600737 0.66402214
0.47456329 0.68881596 0.66693191
0.54011217 0.69164986 0.66986958
0.60499658 0.69450050 0.67282634
0.66691996 0.69736216 0.67579624
0.72398788 0.70023065 0.67877498
0.26863463 0.74187470 0.66672856
0.30692854 0.74367823 0.66882274
0.36168236 0.74604191 0.67157187
0.42214576 0.74846387 0.67439407
0.48625890 0.75091665 0.67725766
0.55172695 0.75338748 0.68014794
0.61613730 0.75586883 0.68305620
0.67724591 0.75835565 0.68597658
0.73325226 0.76084429 0.68890484
0.20357778 0.20357778 0.65155307
0.23558509 0.20511254 0.65369308
0.28280502 0.20714784 0.65650329
0.33704484 0.20926189 0.65938930
0.39711546 0.21143295 0.66231879
0.46135978 0.21365127 0.66527673
0.52763792 0.21591132 0.66825425
0.59354102 0.21820951 0.67124537
0.65670978 0.22054336 0.67424577
0.21081642 0.25473155 0.66149039
0.24361369 0.25652775 0.66360088
0.29182851 0.25890705 0.66637173
0.34696172 0.26137520 0.66921661
0.40771282 0.26390647 0.67210360
0.47232841 0.26648929 0.67501789
0.53860664 0.26911698 0.67795070
0.60412758 0.27178520 0.68089615
0.66657530 0.27449088 0.68384995
0.21845623 0.31546142 0.67156431
0.25206243 0.31750340 0.67364299
0.30128333 0.32020468 0.67637146
0.35730155 0.32300249 0.67917212
0.41870232 0.32586728 0.68201351
0.48363739 0.32878564 0.68488101
0.54984893 0.33174978 0.68776599
0.61491482 0.33475457 0.69066262
0.67657189 0.33779633 0.69356671
0.22637868 0.38398295 0.68158836
0.26079694 0.38621822 0.68363348
0.31101420 0.38917076 0.68631732
0.36788908 0.39222348 0.68907147
0.42989228 0.39534369 0.69186496
0.49508474 0.39851644 0.69468340
0.56116032 0.40173297 0.69751827
0.62570419 0.40498748 0.70036385
0.68651444 0.40827576 0.70321600
0.23455945 0.45796370 0.69151503
0.26978775 0.46030783 0.69352505
0.32098448 0.46339914 0.69616228
0.37868051 0.46658936 0.69886792
0.44123293 0.46984383 0.70161151
0.50661691 0.47314662 0.70437889
0.57248651 0.47648833 0.70716168
0.63644379 0.47986268 0.70995427
0.69635595 0.48326514 0.71275257
0.24298688 0.53423698 0.70131782
0.27901951 0.53658504 0.70329138
0.33117359 0.53967637 0.70588020
0.38965011 0.54286046 0.70853554
0.45269430 0.54610227 0.71122744
0.51820158 0.54938561 0.71394200
0.58379517 0.55270091 0.71667098
0.64710352 0.55604173 0.71940886
0.70607029 0.55940341 0.72215165
0.25165351 0.60924195 0.71097855
0.28848157 0.61148687 0.71291440
0.34156639 0.61443757 0.71545323
0.40077837 0.61747107 0.71805666
0.46425354 0.62055362 0.72069530
0.52981428 0.62366953 0.72335548
0.59506231 0.62680955 0.72602912
0.65766182 0.62996743 0.72871080
0.71563963 0.63313867 0.73139661
0.26055359 0.67964525 0.72048345
0.29816517 0.68169702 0.72238051
0.35214999 0.68438970 0.72486793
0.41204852 0.68715307 0.72741804
0.47589107 0.68995604 0.73000201
0.54143436 0.69278418 0.73260643
0.60626821 0.69562896 0.73522339
0.66810161 0.69848463 0.73784757
0.72505053 0.70134704 0.74047514
0.26968196 0.74289295 0.72982156
0.30806227 0.74469181 0.73167884
0.36291244 0.74704933 0.73411362
0.42344507 0.74946490 0.73660917
0.48758903 0.75191115 0.73913726
0.55304338 0.75437535 0.74168474
0.61739574 0.75684997 0.74424387
0.67840858 0.75932997 0.74680944
0.73429234 0.76181173 0.74937769
0.20431052 0.20431052 0.70691173
0.23639884 0.20584938 0.70886368
0.28372134 0.20789008 0.71142383
0.33805406 0.21000970 0.71404939
0.39819651 0.21218643 0.71671073
0.46248157 0.21441051 0.71939409
0.52876266 0.21667637 0.72209130
0.59462940 0.21898044 0.72479692
0.65772655 0.22132020 0.72750698
0.21156830 0.25558933 0.71595855
0.24444631 0.25738948 0.71787429
0.29276213 0.25977398 0.72038646
0.34798505 0.26224747 0.72296223
0.40880317 0.26478416 0.72557250
0.47345342 0.26737245 0.72820374
0.53972805 0.27000564 0.73084796
0.60520647 0.27267939 0.73349979
0.66757764 0.27539060 0.73615535
0.21922779 0.31643686 0.72508519
0.25291427 0.31848222 0.72696284
0.30223429 0.32118791 0.72942459
0.35833864 0.32399021 0.73194808
0.41980122 0.32685954 0.73450478
0.48476460 0.32978244 0.73708141
0.55096580 0.33275111 0.73967014
0.61598299 0.33576040 0.74226570
0.67755871 0.33880666 0.74486430
0.22717008 0.38505109 0.73412245
0.26166796 0.38728867 0.73596086
0.31198216 0.39024419 0.73837068
0.36893926 0.39329991 0.74084038
0.43099878 0.39642310 0.74334200
0.49621298 0.39959878 0.74586255
0.56227146 0.40281820 0.74839433
0.62676061 0.40607553 0.75093219
0.68748494 0.40936657 0.75347243
0.23537075 0.45908427 0.74302881
0.27067781 0.46142925 0.74482704
0.32196897 0.46452161 0.74718374
0.37974300 0.46771282 0.74959846
0.44234597 0.47096821 0.75204384
0.50774501 0.47427183 0.75450715
0.57359077 0.47761428 0.75698087
0.63748745 0.48098929 0.75945996
0.69730942 0.48439229 0.76194080
0.24381804 0.53535985 0.75178222
0.27992835 0.53770715 0.75353952
0.33217404 0.54079739 0.75584212
0.39072401 0.54398028 0.75820091
0.45381277 0.54722078 0.76058911
0.51932832 0.55050268 0.76299428
0.58489139 0.55381643 0.76540907
0.64813350 0.55715560 0.76782855
0.70700609 0.56051551 0.77024919
0.25250443 0.61031589 0.76036842
0.28940886 0.61255856 0.76208417
0.34258216 0.61550624 0.76433191
0.40186275 0.61853656 0.76663400
0.46537628 0.62161578 0.76896429
0.53093845 0.62472824 0.77131062
0.59614939 0.62786470 0.77366581
0.65867724 0.63101891 0.77602506
0.71655720 0.63418636 0.77838490
0.26142409 0.68062713 0.76877731
0.29911050 0.68267554 0.77045102
0.35318035 0.68536377 0.77264330
0.41314237 0.68812249 0.77488812
0.47701689 0.69092068 0.77715994
0.54255473 0.69374394 0.77944691
0.60734506 0.69658372 0.78174202
0.66910164 0.69943430 0.78404058
0.72594936 0.70229154 0.78633922
0.27057180 0.74375406 0.77700138
0.30902517 0.74554896 0.77863271
0.36395660 0.74790124 0.78076908
0.42454732 0.75031140 0.78295620
0.48871673 0.75275211 0.78516918
0.55415874 0.75521068 0.78739644
0.61846131 0.75767958 0.78963115
0.67939246 0.76015381 0.79186875
0.73517199 0.76262973 0.79410595
0.20431052 0.20431052 0.70691173
0.23639884 0.20584938 0.70886368
0.28372134 0.20789008 0.71142383
0.33805406 0.21000970 0.71404939
0.39819651 0.21218643 0.71671073
0.46248157 0.21441051 0.71939409
0.52876266 0.21667637 0.72209130
0.59462940 0.21898044 0.72479692
0.65772655 0.22132020 0.72750698
0.21156830 0.25558933 0.71595855
0.24444631 0.25738948 0.71787429
0.29276213 0.25977398 0.72038646
0.34798505 0.26224747 0.72296223
0.40880317 0.26478416 0.72557250
0.47345342 0.26737245 0.72820374
0.53972805 0.27000564 0.73084796
0.60520647 0.27267939 0.73349979
0.66757764 0.27539060 0.73615535
0.21922779 0.31643686 0.72508519
0.25291427 0.31848222 0.72696284
0.30223429 0.32118791 0.72942459
0.35833864 0.32399021 0.73194808
0.41980122 0.32685954 0.73450478
0.48476460 0.32978244 0.73708141
0.55096580 0.33275111 0.73967014
0.61598299 0.33576040 0.74226570
0.67755871 0.33880666 0.74486430
0.22717008 0.38505109 0.73412245
0.26166796 0.38728867 0.73596086
0.31198216 0.39024419 0.73837068
0.36893926 0.39329991 0.74084038
0.43099878 0.39642310 0.74334200
0.49621298 0.39959878 0.74586255
0.56227146 0.40281820 0.74839433
0.62676061 0.40607553 0.75093219
0.68748494 0.40936657 0.75347243
0.23537075 0.45908427 0.74302881
0.27067781 0.46142925 0.74482704
0.32196897 0.46452161 0.74718374
0.37974300 0.46771282 0.74959846
0.44234597 0.47096821 0.75204384
0.50774501 0.47427183 0.75450715
0.57359077 0.47761428 0.75698087
0.63748745 0.48098929 0.75945996
0.69730942 0.48439229 0.76194080
0.24381804 0.53535985 0.75178222
0.27992835 0.53770715 0.75353952
0.33217404 0.54079739 0.75584212
0.39072401 0.54398028 0.75820091
0.45381277 0.54722078 0.76058911
0.51932832 0.55050268 0.76299428
0.58489139 0.55381643 0.76540907
0.64813350 0.55715560 0.76782855
0.70700609 0.56051551 0.77024919
0.25250443 0.61031589 0.76036842
0.28940886 0.61255856 0.76208417
0.34258216 0.61550624 0.76433191
0.40186275 0.61853656 0.76663400
0.46537628 0.62161578 0.76896429
0.53093845 0.62472824 0.77131062
0.59614939 0.62786470 0.77366581
0.65867724 0.63101891 0.77602506
0.71655720 0.63418636 0.77838490
0.26142409 0.68062713 0.76877731
0.29911050 0.68267554 0.77045102
0.35318035 0.68536377 0.77264330
0.41314237 0.68812249 0.77488812
0.47701689 0.69092068 0.77715994
0.54255473 0.69374394 0.77944691
0.60734506 0.69658372 0.78174202
0.66910164 0.69943430 0.78404058
0.72594936 0.70229154 0.78633922
0.27057180 0.74375406 0.77700138
0.30902517 0.74554896 0.77863271
0.36395660 0.74790124 0.78076908
0.42454732 0.75031140 0.78295620
0.48871673 0.75275211 0.78516918
0.55415874 0.75521068 0.78739644
0.61846131 0.75767958 0.78963115
0.67939246 0.76015381 0.79186875
0.73517199 0.76262973 0.79410595
