luts/cubes/cyberpunk.cube
TITLE "cyberpunk"
LUT_3D_SIZE 9
DOMAIN_MIN 0.0 0.0 0.0
DOMAIN_MAX 1.0 1.0 1.0
0.16719423 0.20401367 0.31505774
0.20797425 0.20022218 0.30787745
0.28473742 0.19448078 0.29703651
0.38575079 0.18837346 0.28555125
0.50551818 0.18204962 0.27371513
0.63117841 0.17558498 0.26168116
0.74622130 0.16902960 0.24955325
0.83819375 0.16242138 0.23741173
0.89509979 0.15680200 0.22715961
0.15571139 0.25510467 0.28265371
0.19581890 0.25101578 0.27565506
0.27244038 0.24478981 0.26512906
0.37492062 0.23812127 0.25403146
0.49799859 0.23116593 0.24265367
0.62797801 0.22400191 0.23114775
0.74679292 0.21668084 0.21961616
0.84090022 0.20924211 0.20813710
0.89832136 0.20286928 0.19849610
0.14414896 0.31892409 0.25124057
0.18332182 0.31464888 0.24451436
0.25934358 0.30810050 0.23443791
0.36284608 0.30103443 0.22386662
0.48900225 0.29360639 0.21308494
0.62337911 0.28589283 0.20224083
0.74624561 0.27794358 0.19143296
0.84278800 0.26979662 0.18073536
0.90092836 0.26276010 0.17179850
0.13262783 0.39583555 0.22121662
0.17061391 0.39156899 0.21484419
0.24556581 0.38499281 0.20533563
0.34959639 0.37784094 0.19540957
0.47853731 0.37025996 0.18533884
0.61736202 0.36231909 0.17526450
0.74457457 0.35406196 0.16527932
0.84388008 0.34552111 0.15545151
0.90295880 0.33807981 0.14728434
0.12126487 0.48401780 0.19292933
0.15782827 0.48002419 0.18697840
0.23123761 0.47382894 0.17813398
0.33525588 0.46703683 0.16894673
0.46661921 0.45977537 0.15967386
0.60990282 0.45210097 0.15044713
0.74176530 0.44404678 0.14135177
0.84247243 0.43509863 0.13490812
0.89955036 0.42661927 0.13322520
0.11017013 0.57882953 0.16665845
0.14509728 0.57538442 0.16118018
0.21649970 0.57000542 0.15307009
0.31992521 0.56406049 0.14468655
0.45327333 0.55765039 0.13626788
0.59833264 0.54767179 0.13387667
0.72935095 0.53725554 0.13200360
0.83040549 0.52671867 0.13016971
0.89057767 0.51772435 0.12865097
0.09944417 0.67324864 0.14260502
0.13254939 0.67055096 0.13763248
0.20344874 0.66315662 0.13441716
0.30690933 0.65395830 0.13269025
0.43843653 0.64434302 0.13095662
0.58179588 0.63441258 0.12923866
0.71393799 0.62423190 0.12754972
0.81805477 0.61384880 0.12589858
0.88121941 0.60491816 0.12453326
0.09446428 0.74972771 0.13226165
0.12790165 0.74471218 0.13123769
0.19677749 0.73702368 0.12972646
0.29652337 0.72871696 0.12816859
0.42439726 0.71997039 0.12660675
0.56579965 0.71086894 0.12506135
0.69863356 0.70146600 0.12354457
0.80547946 0.69180058 0.12206446
0.87150800 0.68342601 0.12084286
0.09218835 0.80863696 0.12778226
0.12441881 0.80434633 0.12685982
0.19072867 0.79773649 0.12549990
0.28694823 0.79055088 0.12410004
0.41119456 0.78293502 0.12269892
0.55039691 0.77495594 0.12131510
0.68351395 0.76665440 0.11995969
0.79274191 0.75805946 0.11864010
0.86148091 0.75056176 0.11755353
0.16534118 0.20121133 0.45535778
0.20603011 0.19742560 0.44827807
0.28280067 0.19169558 0.43743418
0.38408022 0.18560387 0.42573486
0.50439839 0.17930002 0.41344072
0.63075341 0.17285989 0.40068203
0.74639022 0.16633360 0.38754602
0.83868988 0.15975907 0.37410122
0.89566624 0.15417184 0.36250763
0.15383712 0.25208425 0.42274790
0.19381058 0.24798835 0.41547270
0.27036629 0.24175456 0.40436502
0.37304398 0.23508146 0.39242984
0.49663881 0.22812556 0.37994294
0.62732718 0.22096549 0.36704456
0.74678017 0.21365319 0.35382972
0.84126152 0.20622830 0.34037331
0.89878512 0.19987131 0.32882651
0.14227324 0.31576798 0.38939083
0.18127029 0.31147053 0.38200286
0.25715058 0.30489102 0.37076152
0.36077364 0.29779535 0.35873510
0.48740342 0.29034062 0.34621143
0.62249958 0.28260409 0.33333883
0.74605107 0.27463624 0.32021837
0.84301886 0.26647555 0.30692966
0.90129619 0.25943151 0.29558503
0.13076999 0.39268786 0.35568159
0.16854070 0.38838335 0.34827326
0.24327431 0.38175156 0.33704167
0.34734077 0.37454310 0.32508063
0.47670137 0.36690650 0.31268609
0.61625018 0.35891208 0.30001189
0.74419655 0.35060434 0.28716302
0.84398331 0.34201650 0.27422168
0.90323607 0.33453867 0.26323189
0.11944330 0.48107345 0.32205283
0.15575499 0.47702909 0.31472235
0.22886981 0.47075776 0.30365080
0.33283228 0.46388580 0.29191642
0.46454953 0.45654295 0.27981865
0.60855446 0.44878687 0.26751386
0.74120053 0.44065161 0.25510843
0.84053572 0.43107815 0.24908860
0.89812159 0.42265875 0.24567628
0.10840185 0.57629129 0.28895527
0.14304514 0.57278916 0.28180179
0.21407926 0.56732344 0.27103982
0.31735156 0.56128576 0.25968963
0.45083807 0.55356116 0.25084664
0.59561460 0.54334571 0.24699979
0.72684547 0.53296158 0.24318540
0.82841886 0.52246164 0.23942285
0.88908433 0.51350233 0.23628459
0.09774446 0.67126241 0.25683463
0.13114207 0.66756241 0.25147300
0.20232229 0.65897218 0.24809536
0.30516742 0.64975886 0.24458698
0.43610134 0.64013216 0.24104082
0.57916161 0.63019439 0.23750146
0.71144481 0.62001088 0.23399565
0.81602758 0.60962968 0.23054133
0.87966642 0.60070449 0.22766325
0.09407440 0.74602534 0.24371258
0.12730849 0.74098148 0.24161746
0.19575443 0.73325218 0.23850908
0.29491510 0.72490490 0.23528340
0.42219769 0.71611952 0.23202628
0.56325832 0.70698188 0.22877888
0.69616528 0.69754596 0.22556596
0.80342164 0.68785124 0.22240404
0.86990111 0.67945499 0.21977271
0.09184692 0.80547132 0.23447995
0.12389158 0.80114395 0.23255568
0.18980340 0.79447971 0.22970302
0.28546869 0.78723790 0.22674568
0.40913079 0.77956579 0.22376280
0.54795633 0.77153135 0.22079234
0.68108261 0.76317605 0.21785713
0.79066380 0.75452950 0.21497243
0.85982664 0.74699009 0.21257501
0.16366738 0.19868982 0.59041719
0.20426823 0.19491015 0.58455936
0.28103548 0.18919168 0.57548564
0.38254579 0.18311541 0.56555465
0.50335602 0.17683099 0.55495505
0.63033921 0.17041436 0.54377097
0.74651712 0.16391569 0.53205258
0.83911786 0.15737290 0.51983589
0.89616191 0.15181578 0.50911279
0.15214696 0.24935814 0.56299504
0.19199373 0.24525686 0.55671879
0.26847978 0.23901744 0.54701908
0.37132518 0.23234177 0.53643399
0.49538029 0.22538699 0.52517230
0.62670915 0.21823214 0.51333033
0.74674345 0.21092943 0.50096792
0.84156871 0.20351873 0.48812969
0.89918929 0.19717748 0.47690344
0.14058451 0.31290998 0.53371107
0.17941749 0.30859335 0.52704361
0.25515965 0.30198717 0.51676517
0.35888002 0.29486633 0.50558467
0.48592971 0.28738915 0.49373130
0.62167503 0.27963365 0.48131412
0.74585041 0.27165083 0.46840314
0.84320900 0.26347962 0.45505202
0.90161476 0.25643043 0.44342523
0.12909998 0.38982754 0.50271473
0.16667137 0.38548949 0.49569792
0.24119762 0.37880864 0.48491082
0.34528405 0.37155039 0.47321851
0.47501438 0.36386499 0.46087026
0.61521574 0.35582378 0.44798790
0.74383021 0.34747199 0.43465171
0.84405872 0.33884349 0.42092432
0.90347366 0.33133427 0.40902301
0.11780842 0.47838830 0.47022422
0.15388859 0.47429853 0.46291556
0.22672759 0.46795917 0.45171370
0.33062653 0.46101590 0.43961866
0.46265254 0.45360047 0.42689855
0.60730629 0.44577166 0.41368748
0.74003076 0.43735799 0.40111351
0.83878320 0.42747959 0.39494542
0.89682497 0.41911487 0.38975286
0.10681723 0.57396814 0.43652913
0.14120066 0.57041459 0.42900163
0.21189297 0.56487069 0.41750209
0.31501333 0.55874943 0.40513741
0.44863143 0.54964808 0.39760540
0.59317658 0.53945867 0.39177155
0.72458888 0.52910494 0.38593734
0.82662263 0.51863970 0.38013269
0.88773018 0.50971311 0.37525231
0.09622358 0.66943796 0.40198769
0.13055448 0.66380018 0.39855062
0.20132202 0.65519552 0.39343807
0.30361675 0.64597023 0.38808691
0.43401604 0.63633483 0.38263495
0.57680043 0.62639211 0.37714895
0.70920107 0.61620771 0.37166985
0.81419614 0.60582989 0.36622582
0.87825926 0.59691101 0.36165439
0.09373000 0.74267131 0.38674666
0.12678342 0.73760264 0.38352449
0.19484652 0.72983771 0.37871537
0.29348417 0.72145514 0.37368773
0.42023467 0.71263614 0.36857173
0.56098205 0.70346731 0.36343034
0.69394568 0.69400315 0.35830212
0.80156401 0.68428357 0.35321352
0.86844624 0.67586912 0.34894591
0.09154580 0.80259562 0.37242948
0.12342538 0.79823560 0.36940601
0.18898287 0.79152305 0.36489768
0.28415305 0.78423143 0.36018999
0.40729007 0.77650954 0.35540542
0.54577181 0.76842624 0.35060323
0.67889793 0.76002359 0.34581962
0.78878935 0.75133169 0.34107937
0.85833005 0.74375574 0.33710899
0.16208175 0.19630958 0.70810493
0.20259410 0.19253640 0.70395402
0.27934946 0.18682998 0.69747093
0.38106989 0.18076950 0.69029987
0.50234148 0.17450466 0.68255738
0.62992036 0.16811147 0.67428651
0.74661505 0.16164012 0.66550600
0.83950596 0.15512853 0.65622389
0.89661782 0.14960085 0.64796562
0.15054827 0.24677746 0.68843865
0.19027016 0.24267190 0.68385213
0.26668124 0.23642842 0.67669943
0.36967613 0.22975166 0.66880288
0.49416150 0.22279936 0.66029478
0.62609727 0.21565088 0.65122628
0.74668674 0.20835872 0.64162178
0.84184320 0.20096291 0.63149415
0.89955956 0.19463779 0.62250578
0.13898953 0.31019617 0.66675594
0.17766251 0.30586220 0.66171628
0.25326479 0.29923201 0.65386975
0.35706715 0.29208870 0.64522529
0.48450766 0.28459173 0.63593263
0.62086749 0.27681978 0.62605221
0.74563856 0.26882439 0.61561531
0.84337322 0.26064487 0.60464077
0.90190479 0.25359222 0.59492749
0.12752496 0.38710278 0.64298758
0.16490340 0.38273361 0.63748368
0.23922432 0.37600733 0.62892976
0.34331875 0.36870308 0.61952780
0.47339106 0.36097273 0.60944650
0.61420928 0.35288857 0.59875693
0.74346138 0.34449653 0.58749845
0.84411468 0.33583109 0.57569715
0.90368768 0.32829353 0.56528421
0.11626874 0.47582194 0.61709775
0.15212597 0.47168952 0.61112733
0.22469516 0.46528634 0.60186699
0.32852242 0.45827624 0.59171492
0.46083124 0.45079287 0.58086021
0.60609724 0.44289607 0.56938587
0.73789574 0.43391819 0.55974953
0.83712004 0.42409878 0.55245879
0.89559119 0.41578629 0.54625894
0.10532698 0.57174039 0.58909550
0.13946126 0.56813819 0.58266775
0.20982186 0.56252034 0.57272048
0.31301451 0.55588828 0.56242683
0.44656153 0.54595743 0.55561267
0.59088152 0.53579394 0.54867604
0.72245658 0.52547020 0.54166645
0.82491925 0.51503899 0.53461906
0.88644256 0.50614432 0.52863620
0.09585495 0.66589492 0.56075897
0.13000761 0.66023723 0.55672983
0.20038910 0.65162019 0.55066493
0.30216712 0.64238491 0.54425761
0.43206104 0.63274268 0.53766610
0.57457918 0.62279671 0.53096761
0.70708247 0.61261289 0.52421039
0.81246067 0.60223971 0.51742860
0.87692221 0.59332802 0.51168055
0.09341037 0.73948514 0.54264320
0.12629515 0.73439367 0.53874599
0.19400022 0.72659606 0.53288704
0.29214714 0.71818123 0.52670688
0.41839532 0.70933163 0.52035935
0.55884205 0.70013456 0.51391944
0.69185139 0.69064501 0.50743396
0.79980502 0.68090327 0.50093592
0.86706486 0.67247279 0.49543704
0.09126677 0.79985690 0.52515127
0.12299230 0.79546642 0.52139855
0.18821853 0.78870885 0.51576367
0.28292443 0.78137087 0.50982878
0.40556629 0.77360275 0.50374269
0.54371939 0.76547414 0.49757793
0.67683803 0.75702768 0.49137967
0.78701574 0.74829395 0.48517965
0.85691007 0.74068437 0.47994106
0.16055408 0.19402405 0.80089069
0.20097652 0.19025779 0.79832906
0.27771236 0.18456400 0.79430317
0.37962736 0.17851979 0.78981506
0.50133905 0.17227489 0.78492851
0.62949246 0.16590535 0.77966205
0.74668906 0.15946137 0.77401873
0.83986416 0.15298086 0.76799435
0.89704479 0.14748237 0.76258348
0.14901024 0.24429275 0.78864423
0.18860735 0.24018382 0.78574861
0.26493793 0.23393759 0.78120342
0.36806819 0.22726102 0.77614399
0.49296270 0.22031238 0.77064393
0.62548343 0.21317136 0.76472564
0.74661203 0.20589069 0.75839410
0.84209266 0.19851057 0.75164618
0.89990493 0.19220212 0.74559494
0.13745722 0.30757567 0.77482537
0.17597189 0.30322573 0.77156639
0.25143110 0.29657356 0.76645681
0.35530301 0.28940988 0.76077733
0.48311358 0.28189518 0.75461259
0.62006507 0.27410881 0.74798957
0.74541447 0.26610278 0.74091574
0.84351697 0.25791677 0.73338964
0.90217362 0.25086212 0.72665170
0.12601392 0.38446360 0.75929848
0.16320267 0.38006506 0.75564586
0.23731763 0.37329596 0.74992577
0.34140965 0.36594848 0.74357697
0.47180375 0.35817600 0.73669651
0.61321509 0.35005173 0.72931683
0.74308596 0.34162229 0.72144865
0.84415447 0.33292270 0.71309292
0.90319958 0.32545295 0.70593229
0.11479360 0.47332830 0.74192542
0.15043277 0.46915514 0.73784897
0.22273420 0.46269104 0.73147294
0.32648177 0.45561723 0.72440705
0.45905408 0.44806917 0.71676236
0.60490770 0.44010774 0.70857780
0.73584206 0.43062895 0.70142373
0.83551477 0.42086689 0.69442829
0.89439732 0.41260510 0.68841543
0.10390110 0.56956891 0.72257084
0.13779267 0.56591989 0.71804190
0.20782642 0.56023093 0.71096749
0.31152349 0.55232503 0.70397236
0.44458566 0.54241632 0.69746437
0.58868336 0.53227891 0.69076669
0.72040696 0.52198515 0.68392298
0.82327632 0.51158776 0.67696467
0.88519746 0.50272467 0.67099541
0.09551193 0.66247161 0.70238592
0.12948949 0.65680528 0.69853616
0.19950341 0.64817749 0.69269463
0.30078782 0.63893384 0.68646174
0.43019582 0.62928631 0.67998283
0.57245303 0.61933850 0.67332835
0.70504744 0.60915657 0.66654252
0.81078797 0.59878916 0.65965719
0.87563019 0.58988549 0.65376178
0.09310838 0.73640710 0.68488122
0.12583292 0.73129431 0.68104896
0.19319722 0.72346620 0.67524248
0.29087559 0.71502137 0.66905819
0.41664137 0.70614344 0.66264195
0.55679494 0.69692036 0.65606462
0.68984108 0.68740759 0.64937072
0.79811085 0.67764577 0.64259222
0.86573091 0.66920095 0.63679907
0.09100353 0.79720471 0.66749182
0.12258274 0.79278530 0.66369692
0.18749376 0.78598504 0.65795524
0.28175660 0.77860317 0.65185076
0.40392342 0.77079135 0.64552900
0.54175725 0.76261999 0.63906079
0.67486208 0.75413231 0.63249062
0.78530868 0.74535930 0.62585038
0.85553979 0.73771824 0.62018570
0.15906922 0.19180977 0.86845674
0.19939994 0.18805087 0.86706911
0.27610920 0.18237031 0.86487459
0.37820588 0.17634289 0.86240964
0.50034118 0.17011838 0.85970523
0.62905366 0.16377281 0.85676808
0.74674196 0.15735641 0.85359642
0.84019777 0.15090704 0.85018426
0.89744847 0.14543770 0.84709748
0.14751739 0.24187919 0.86176356
0.18698904 0.23776771 0.86016055
0.26323362 0.23151988 0.85763005
0.36648724 0.22484467 0.85479372
0.49177434 0.21790078 0.85168822
0.62486387 0.21076824 0.84832199
0.74652058 0.20349998 0.84469361
0.84232118 0.19613635 0.84079685
0.90023014 0.18984514 0.83727696
0.13597194 0.30502303 0.85405125
0.17432884 0.30065828 0.85221063
0.24964119 0.29398584 0.84930922
0.35357178 0.28680355 0.84606257
0.48173589 0.27927290 0.84251361
0.61926211 0.27147385 0.83867272
0.74517788 0.26345885 0.83453897
0.84364319 0.25526797 0.83010590
0.90242508 0.24821260 0.82610675
0.12455120 0.38188510 0.84521355
0.16155208 0.37745859 0.84311023
0.23545918 0.37064879 0.83979855
0.33953931 0.36326031 0.83609789
0.47023887 0.35544801 0.83205815
0.61222557 0.34728596 0.82769199
0.74270217 0.33882145 0.82299910
0.84417993 0.33009006 0.81797293
0.90208700 0.32279732 0.81327906
0.11336750 0.47088453 0.83513096
0.14879168 0.46667212 0.83273690
0.22082556 0.46014936 0.82897119
0.32448562 0.45301425 0.82476816
0.45730550 0.44540405 0.82018558
0.60324176 0.43714188 0.81518095
0.73384884 0.42745473 0.80962214
0.83395161 0.41774889 0.80389761
0.89323192 0.40953673 0.79892768
0.10252441 0.56743435 0.82367080
0.13617757 0.56373988 0.82095515
0.20588688 0.55798189 0.81668744
0.31009083 0.54887404 0.81169246
0.44268203 0.53898790 0.80638967
0.58655873 0.52887687 0.80087659
0.71841904 0.51861327 0.79518436
0.82167760 0.50824970 0.78933511
0.88398284 0.49941809 0.78426718
0.09518437 0.65914407 0.81040471
0.12899394 0.65347008 0.80726664
0.19865460 0.64483292 0.80246936
0.29946310 0.63558231 0.79730295
0.42839972 0.62593082 0.79187990
0.57039924 0.61598245 0.78625339
0.70307498 0.60580356 0.78045626
0.80916139 0.59544298 0.77451198
0.87437063 0.58654812 0.76937204
0.09282035 0.73340735 0.79598498
0.12539118 0.72827442 0.79277600
0.19242807 0.72041760 0.78787773
0.28965494 0.71194463 0.78261245
0.41495327 0.70304023 0.77709654
0.55481868 0.69379299 0.77138534
0.68789388 0.68425882 0.76551322
0.79646451 0.67447868 0.75950479
0.86443134 0.66602095 0.75431968
0.09075283 0.79461389 0.78127089
0.12219174 0.79016677 0.77800721
0.18680002 0.78332566 0.77303292
0.28063609 0.77590186 0.76769586
0.40234305 0.76804836 0.76211566
0.53986413 0.75983632 0.75634954
0.67294941 0.75130948 0.75043316
0.78365094 0.74249927 0.74439212
0.85420572 0.73482846 0.73918905
0.15761817 0.18965269 0.91494014
0.19785511 0.18590159 0.91429261
0.27453116 0.18023484 0.91325759
0.37679825 0.17422477 0.91208082
0.49934352 0.16802111 0.91077465
0.62860303 0.16169991 0.90934043
0.74677564 0.15531138 0.90777572
0.84051010 0.14889333 0.90607610
0.89783240 0.14345320 0.90452566
0.14606049 0.23952199 0.91177014
0.18540559 0.23540870 0.91099557
0.26155869 0.22916034 0.90976289
0.36492501 0.22248755 0.90836822
0.49059088 0.21554945 0.90682718
0.62423652 0.20842636 0.90514209
0.74641335 0.20117140 0.90331056
0.84253136 0.19382506 0.90132783
0.90053813 0.18755169 0.89952419
0.13452433 0.30252315 0.90800105
0.17272336 0.29814460 0.90708737
0.24788477 0.29145340 0.90563777
0.35186416 0.28425407 0.90400333
0.48036785 0.27670904 0.90220324
0.61845540 0.26889887 0.90024076
0.74492880 0.26087643 0.89811355
0.84375378 0.25268213 0.89581639
0.90266162 0.24562724 0.89373104
0.12312742 0.37935256 0.90357392
0.15994138 0.37489927 0.90250678
0.23363809 0.36805057 0.90081746
0.33769746 0.36062300 0.89891751
0.46868849 0.35277286 0.89682996
0.61123636 0.34457506 0.89455909
0.74230908 0.33607753 0.89210253
0.84419228 0.32731637 0.88945460
0.90099438 0.32022676 0.88601335
0.11198112 0.46847714 0.89841909
0.14719235 0.46422669 0.89718165
0.21895783 0.45764713 0.89522592
0.32252280 0.45045275 0.89303042
0.45557636 0.44278252 0.89062238
0.60111396 0.43400852 0.88739336
0.73190358 0.42437408 0.88334792
0.83242116 0.41472361 0.87914379
0.89208817 0.40656026 0.87546241
0.10118774 0.56532528 0.89245510
0.13460560 0.56158645 0.89102777
0.20461385 0.55504172 0.88851728
0.30870622 0.54551314 0.88485886
0.44083744 0.53565005 0.88097874
0.58449352 0.52556578 0.87690952
0.71648023 0.51533256 0.87267024
0.82011337 0.50500294 0.86827379
0.88279155 0.49620281 0.86443150
0.09486973 0.65589194 0.88391964
0.12851717 0.65021115 0.88162271
0.19783633 0.64156588 0.87808884
0.29818335 0.63230955 0.87425255
0.42666017 0.62265533 0.87019154
0.56840408 0.61270755 0.86594103
0.70115251 0.60253280 0.86152188
0.80757096 0.59218002 0.85694843
0.87313606 0.58329473 0.85295924
0.09254398 0.73046809 0.87326882
0.12496653 0.72531606 0.87086499
0.19168700 0.71743207 0.86717202
0.28847627 0.70893256 0.86317027
0.41331914 0.70000333 0.85894221
0.55289993 0.69073355 0.85452562
0.68599724 0.68117956 0.84994316
0.79485582 0.67138265 0.84521056
0.86315837 0.66291328 0.84109063
0.09051265 0.79206950 0.86214532
0.12181623 0.78759570 0.85964279
0.18613202 0.78071529 0.85580380
0.27955466 0.77325122 0.85165136
0.40081399 0.76535774 0.84727250
0.53802716 0.75710676 0.84270747
0.67108758 0.74854253 0.83798063
0.78203218 0.73969689 0.83310908
0.85289980 0.73199784 0.82887646
0.15723613 0.18908588 0.92446841
0.19744770 0.18533692 0.92395767
0.27411381 0.17967395 0.92313735
0.37642459 0.17366861 0.92219968
0.49907714 0.16747059 0.92115369
0.62848079 0.16115596 0.91999990
0.74678155 0.15477491 0.91873591
0.84059010 0.14836526 0.91735777
0.89793178 0.14293293 0.91609663
0.14567723 0.23890160 0.92195134
0.18498835 0.23478795 0.92133095
0.26111616 0.22853962 0.92034028
0.36451085 0.22186764 0.91921512
0.49027564 0.21493125 0.91796739
0.62406774 0.20781084 0.91659845
0.74638218 0.20055957 0.91510596
0.84258455 0.19321798 0.91348566
0.90061762 0.18694947 0.91200817
0.13414383 0.30186408 0.91891824
0.17230069 0.29748200 0.91817836
0.24742114 0.29078604 0.91700158
0.35141196 0.28358241 0.91567100
0.48000408 0.27603380 0.91420159
0.61823937 0.26822090 0.91259554
0.74486027 0.26019672 0.91085052
0.84378081 0.25200175 0.90896191
0.90272239 0.24494718 0.90724414
0.12275348 0.37868367 0.91532083
0.15951768 0.37422342 0.91444964
0.23315781 0.36736463 0.91306790
0.33721020 0.35992693 0.91151051
0.46827681 0.35206700 0.90979572
0.61097224 0.34385997 0.90792658
0.74220261 0.33535396 0.90590074
0.84404294 0.32660195 0.90366844
0.90070582 0.31955394 0.90048865
0.11161729 0.46784012 0.91110141
0.14677198 0.46357971 0.91008485
0.21846567 0.45698528 0.90847582
0.32200401 0.44977539 0.90666638
0.45511774 0.44208947 0.90467836
0.60055536 0.43318691 0.90173997
0.73139182 0.42356643 0.89806921
0.83201772 0.41393060 0.89424625
0.89178622 0.40578016 0.89089183
0.10083723 0.56476616 0.90619172
0.13419276 0.56101566 0.90501328
0.20437884 0.55415346 0.90275842
0.30834416 0.54463012 0.89944112
0.44035432 0.53477326 0.89591585
0.58395157 0.52469618 0.89221117
0.71597038 0.51447112 0.88834344
0.81970120 0.50415059 0.88432354
0.88247717 0.49535886 0.88080307
0.09478777 0.65503562 0.89858845
0.12839285 0.64935315 0.89650143
0.19762270 0.64070591 0.89328564
0.29784880 0.63144825 0.88978805
0.42620470 0.62179351 0.88607813
0.56788069 0.61184606 0.88218697
0.70064716 0.60167259 0.87813268
0.80715206 0.59132206 0.87392750
0.87281039 0.58243944 0.87025186
0.09247205 0.72969292 0.88889007
0.12485586 0.72453596 0.88669389
0.19149359 0.71664496 0.88331474
0.28816824 0.70813862 0.87964601
0.41289140 0.69920301 0.87576190
0.55239677 0.68992748 0.87169598
0.68549888 0.68036846 0.86746811
0.79443228 0.67056732 0.86309190
0.86282270 0.66209503 0.85927415
0.09045020 0.79139751 0.87870518
0.12171844 0.78691675 0.87640605
0.18595776 0.78002609 0.87287357
0.27927214 0.77255153 0.86904523
0.40041388 0.76464766 0.86499979
0.53754562 0.75638656 0.86077329
0.67059856 0.74781263 0.85638730
0.78160616 0.73895781 0.85185677
0.85255559 0.73125146 0.84791203
0.15723613 0.18908588 0.92446841
0.19744770 0.18533692 0.92395767
0.27411381 0.17967395 0.92313735
0.37642459 0.17366861 0.92219968
0.49907714 0.16747059 0.92115369
0.62848079 0.16115596 0.91999990
0.74678155 0.15477491 0.91873591
0.84059010 0.14836526 0.91735777
0.89793178 0.14293293 0.91609663
0.14567723 0.23890160 0.92195134
0.18498835 0.23478795 0.92133095
0.26111616 0.22853962 0.92034028
0.36451085 0.22186764 0.91921512
0.49027564 0.21493125 0.91796739
0.62406774 0.20781084 0.91659845
0.74638218 0.20055957 0.91510596
0.84258455 0.19321798 0.91348566
0.90061762 0.18694947 0.91200817
0.13414383 0.30186408 0.91891824
0.17230069 0.29748200 0.91817836
0.24742114 0.29078604 0.91700158
0.35141196 0.28358241 0.91567100
0.48000408 0.27603380 0.91420159
0.61823937 0.26822090 0.91259554
0.74486027 0.26019672 0.91085052
0.84378081 0.25200175 0.90896191
0.90272239 0.24494718 0.90724414
0.12275348 0.37868367 0.91532083
0.15951768 0.37422342 0.91444964
0.23315781 0.36736463 0.91306790
0.33721020 0.35992693 0.91151051
0.46827681 0.35206700 0.90979572
0.61097224 0.34385997 0.90792658
0.74220261 0.33535396 0.90590074
0.84404294 0.32660195 0.90366844
0.90070582 0.31955394 0.90048865
0.11161729 0.46784012 0.91110141
0.14677198 0.46357971 0.91008485
0.21846567 0.45698528 0.90847582
0.32200401 0.44977539 0.90666638
0.45511774 0.44208947 0.90467836
0.60055536 0.43318691 0.90173997
0.73139182 0.42356643 0.89806921
0.83201772 0.41393060 0.89424625
0.89178622 0.40578016 0.89089183
0.10083723 0.56476616 0.90619172
0.13419276 0.56101566 0.90501328
0.20437884 0.55415346 0.90275842
0.30834416 0.54463012 0.89944112
0.44035432 0.53477326 0.89591585
0.58395157 0.52469618 0.89221117
0.71597038 0.51447112 0.88834344
0.81970120 0.50415059 0.88432354
0.88247717 0.49535886 0.88080307
0.09478777 0.65503562 0.89858845
0.12839285 0.64935315 0.89650143
0.19762270 0.64070591 0.89328564
0.29784880 0.63144825 0.88978805
0.42620470 0.62179351 0.88607813
0.56788069 0.61184606 0.88218697
0.70064716 0.60167259 0.87813268
0.80715206 0.59132206 0.87392750
0.87281039 0.58243944 0.87025186
0.09247205 0.72969292 0.88889007
0.12485586 0.72453596 0.88669389
0.19149359 0.71664496 0.88331474
0.28816824 0.70813862 0.87964601
0.41289140 0.69920301 0.87576190
0.55239677 0.68992748 0.87169598
0.68549888 0.68036846 0.86746811
0.79443228 0.67056732 0.86309190
0.86282270 0.66209503 0.85927415
0.09045020 0.79139751 0.87870518
0.12171844 0.78691675 0.87640605
0.18595776 0.78002609 0.87287357
0.27927214 0.77255153 0.86904523
0.40041388 0.76464766 0.86499979
0.53754562 0.75638656 0.86077329
0.67059856 0.74781263 0.85638730
0.78160616 0.73895781 0.85185677
0.85255559 0.73125146 0.84791203
