luts/cubes/cyberpunk.cube
TITLE "cyberpunk"
LUT_3D_SIZE 5
DOMAIN_MIN 0.0 0.0 0.0
DOMAIN_MAX 1.0 1.0 1.0
0.16719423 0.20401367 0.31505774
0.28473742 0.19448078 0.29703651
0.50551818 0.18204962 0.27371513
0.74622130 0.16902960 0.24955325
0.89509979 0.15680200 0.22715961
0.14414896 0.31892409 0.25124057
0.25934358 0.30810050 0.23443791
0.48900225 0.29360639 0.21308494
0.74624561 0.27794358 0.19143296
0.90092836 0.26276010 0.17179850
0.12126487 0.48401780 0.19292933
0.23123761 0.47382894 0.17813398
0.46661921 0.45977537 0.15967386
0.74176530 0.44404678 0.14135177
0.89955036 0.42661927 0.13322520
0.09944417 0.67324864 0.14260502
0.20344874 0.66315662 0.13441716
0.43843653 0.64434302 0.13095662
0.71393799 0.62423190 0.12754972
0.88121941 0.60491816 0.12453326
0.09218835 0.80863696 0.12778226
0.19072867 0.79773649 0.12549990
0.41119456 0.78293502 0.12269892
0.68351395 0.76665440 0.11995969
0.86148091 0.75056176 0.11755353
0.16366738 0.19868982 0.59041719
0.28103548 0.18919168 0.57548564
0.50335602 0.17683099 0.55495505
0.74651712 0.16391569 0.53205258
0.89616191 0.15181578 0.50911279
0.14058451 0.31290998 0.53371107
0.25515965 0.30198717 0.51676517
0.48592971 0.28738915 0.49373130
0.74585041 0.27165083 0.46840314
0.90161476 0.25643043 0.44342523
0.11780842 0.47838830 0.47022422
0.22672759 0.46795917 0.45171370
0.46265254 0.45360047 0.42689855
0.74003076 0.43735799 0.40111351
0.89682497 0.41911487 0.38975286
0.09622358 0.66943796 0.40198769
0.20132202 0.65519552 0.39343807
0.43401604 0.63633483 0.38263495
0.70920107 0.61620771 0.37166985
0.87825926 0.59691101 0.36165439
0.09154580 0.80259562 0.37242948
0.18898287 0.79152305 0.36489768
0.40729007 0.77650954 0.35540542
0.67889793 0.76002359 0.34581962
0.85833005 0.74375574 0.33710899
0.16055408 0.19402405 0.80089069
0.27771236 0.18456400 0.79430317
0.50133905 0.17227489 0.78492851
0.74668906 0.15946137 0.77401873
0.89704479 0.14748237 0.76258348
0.13745722 0.30757567 0.77482537
0.25143110 0.29657356 0.76645681
0.48311358 0.28189518 0.75461259
0.74541447 0.26610278 0.74091574
0.90217362 0.25086212 0.72665170
0.11479360 0.47332830 0.74192542
0.22273420 0.46269104 0.73147294
0.45905408 0.44806917 0.71676236
0.73584206 0.43062895 0.70142373
0.89439732 0.41260510 0.68841543
0.09551193 0.66247161 0.70238592
0.19950341 0.64817749 0.69269463
0.43019582 0.62928631 0.67998283
0.70504744 0.60915657 0.66654252
0.87563019 0.58988549 0.65376178
0.09100353 0.79720471 0.66749182
0.18749376 0.78598504 0.65795524
0.40392342 0.77079135 0.64552900
0.67486208 0.75413231 0.63249062
0.85553979 0.73771824 0.62018570
0.15761817 0.18965269 0.91494014
0.27453116 0.18023484 0.91325759
0.49934352 0.16802111 0.91077465
0.74677564 0.15531138 0.90777572
0.89783240 0.14345320 0.90452566
0.13452433 0.30252315 0.90800105
0.24788477 0.29145340 0.90563777
0.48036785 0.27670904 0.90220324
0.74492880 0.26087643 0.89811355
0.90266162 0.24562724 0.89373104
0.11198112 0.46847714 0.89841909
0.21895783 0.45764713 0.89522592
0.45557636 0.44278252 0.89062238
0.73190358 0.42437408 0.88334792
0.89208817 0.40656026 0.87546241
0.09486973 0.65589194 0.88391964
0.19783633 0.64156588 0.87808884
0.42666017 0.62265533 0.87019154
0.70115251 0.60253280 0.86152188
0.87313606 0.58329473 0.85295924
0.09051265 0.79206950 0.86214532
0.18613202 0.78071529 0.85580380
0.40081399 0.76535774 0.84727250
0.67108758 0.74854253 0.83798063
0.85289980 0.73199784 0.82887646
0.15723613 0.18908588 0.92446841
0.27411381 0.17967395 0.92313735
0.49907714 0.16747059 0.92115369
0.74678155 0.15477491 0.91873591
0.89793178 0.14293293 0.91609663
0.13414383 0.30186408 0.91891824
0.24742114 0.29078604 0.91700158
0.48000408 0.27603380 0.91420159
0.74486027 0.26019672 0.91085052
0.90272239 0.24494718 0.90724414
0.11161729 0.46784012 0.91110141
0.21846567 0.45698528 0.90847582
0.45511774 0.44208947 0.90467836
0.73139182 0.42356643 0.89806921
0.89178622 0.40578016 0.89089183
0.09478777 0.65503562 0.89858845
0.19762270 0.64070591 0.89328564
0.42620470 0.62179351 0.88607813
0.70064716 0.60167259 0.87813268
0.87281039 0.58243944 0.87025186
0.09045020 0.79139751 0.87870518
0.18595776 0.78002609 0.87287357
0.40041388 0.76464766 0.86499979
0.67059856 0.74781263 0.85638730
0.85255559 0.73125146 0.84791203
