luts/cubes/cyberpunk.cube
TITLE "cyberpunk"
LUT_3D_SIZE 33
DOMAIN_MIN 0.0 0.0 0.0
DOMAIN_MAX 1.0 1.0 1.0
0.16719423 0.20401367 0.31505774
0.16788706 0.20394288 0.31492353
0.17916577 0.20282506 0.31280504
0.19272294 0.20155922 0.31040769
0.20797425 0.20022218 0.30787745
0.22481694 0.19883631 0.30525701
0.24322779 0.19741309 0.30256830
0.26320313 0.19595961 0.29982497
0.28473742 0.19448078 0.29703651
0.30781199 0.19298021 0.29420992
0.33238758 0.19146069 0.29135069
0.35839893 0.18992449 0.28846324
0.38575079 0.18837346 0.28555125
0.41431544 0.18680918 0.28261787
0.44393192 0.18523301 0.27966583
0.47440698 0.18364613 0.27669753
0.50551818 0.18204962 0.27371513
0.53701880 0.18044442 0.27072057
0.56864468 0.17883139 0.26771565
0.60012238 0.17721133 0.26470200
0.63117841 0.17558498 0.26168116
0.66154854 0.17395301 0.25865455
0.69098684 0.17231606 0.25562353
0.71927354 0.17067473 0.25258936
0.74622130 0.16902960 0.24955325
0.77167953 0.16738119 0.24651635
0.79553656 0.16573002 0.24347977
0.81771975 0.16407660 0.24044455
0.83819375 0.16242138 0.23741173
0.85695732 0.16076482 0.23438227
0.87403903 0.15910736 0.23135712
0.88949237 0.15744943 0.22833720
0.89509979 0.15680200 0.22715961
0.16433766 0.21566716 0.30688695
0.16502704 0.21559490 0.30675338
0.17625470 0.21445373 0.30464514
0.18976297 0.21316102 0.30225996
0.20497445 0.21179510 0.29974322
0.22179047 0.21037877 0.29713747
0.24019138 0.20892367 0.29446458
0.26017679 0.20743705 0.29173819
0.28174416 0.20592387 0.28896776
0.30487743 0.20438779 0.28616031
0.32953944 0.20283167 0.28332131
0.35566628 0.20125778 0.28045518
0.38316317 0.19966800 0.27756561
0.41190182 0.19806393 0.27465575
0.44171951 0.19644694 0.27172832
0.47242009 0.19481825 0.26878573
0.50377696 0.19317892 0.26583015
0.53553829 0.19152991 0.26286351
0.56743394 0.18987211 0.25988761
0.59918406 0.18820631 0.25690409
0.63050853 0.18653325 0.25391447
0.66113680 0.18485363 0.25092017
0.69081717 0.18316809 0.24792255
0.71932500 0.18147724 0.24492287
0.74646921 0.17978166 0.24192234
0.77209671 0.17808190 0.23892208
0.79609456 0.17637848 0.23592321
0.81839003 0.17467190 0.23292677
0.83894875 0.17296264 0.22993376
0.85777125 0.17125116 0.22694516
0.87488851 0.16953793 0.22396190
0.89035686 0.16782336 0.22098488
0.89596521 0.16715359 0.21982431
0.16147039 0.22804903 0.29875819
0.16215603 0.22797537 0.29862536
0.17332798 0.22681189 0.29652913
0.18678180 0.22549346 0.29415810
0.20194731 0.22409984 0.29165696
0.21873009 0.22265421 0.28906806
0.23711415 0.22116844 0.28641321
0.25710251 0.21964984 0.28370602
0.27869580 0.21810345 0.28095591
0.30188076 0.21653301 0.27816990
0.32662247 0.21494137 0.27535345
0.35285860 0.21333084 0.27251099
0.38049503 0.21170334 0.26964619
0.40940306 0.21006046 0.26676220
0.43941839 0.20840361 0.26386175
0.47034200 0.20673399 0.26094725
0.50194326 0.20505268 0.25802084
0.53396518 0.20336067 0.25508448
0.56613163 0.20165882 0.25213994
0.59815618 0.19994796 0.24918887
0.62975199 0.19822883 0.24623279
0.66064197 0.19650212 0.24327312
0.69056847 0.19476850 0.24031119
0.71930184 0.19302857 0.23734826
0.74664706 0.19128292 0.23438554
0.77244839 0.18953211 0.23142415
0.79659154 0.18777667 0.22846518
0.81900362 0.18601710 0.22550968
0.83965114 0.18425390 0.22255862
0.85853643 0.18248753 0.21961298
0.87569286 0.18071846 0.21667367
0.89117959 0.17894713 0.21374159
0.89679012 0.17825495 0.21259883
0.15859433 0.24118667 0.29067821
0.15927593 0.24111170 0.29054624
0.17038755 0.23992725 0.28846376
0.18378139 0.23858459 0.28610885
0.19889480 0.23716482 0.28362537
0.21563771 0.23569149 0.28105545
0.23399794 0.23417661 0.27842083
0.25398205 0.23262761 0.27573505
0.27559398 0.23104960 0.27300752
0.29882343 0.22944633 0.27024523
0.32363796 0.22782071 0.26745362
0.34997697 0.22617505 0.26463712
0.37774721 0.22451129 0.26179940
0.40681979 0.22283104 0.25894359
0.43702893 0.22113571 0.25607242
0.46817292 0.21942651 0.25318829
0.50001712 0.21770454 0.25029336
0.53229940 0.21597077 0.24738955
0.56473756 0.21422609 0.24447866
0.59703852 0.21247132 0.24156230
0.62890856 0.21070721 0.23864200
0.66006386 0.20893446 0.23571916
0.69024066 0.20715372 0.23279513
0.71920405 0.20536563 0.22987114
0.74675494 0.20357076 0.22694839
0.77273480 0.20176969 0.22402799
0.79702784 0.19996293 0.22111102
0.81956094 0.19815102 0.21819851
0.84030147 0.19633444 0.21529144
0.85925348 0.19451368 0.21239076
0.87645276 0.19268919 0.20949737
0.89196128 0.19086144 0.20661214
0.89757526 0.19014695 0.20548793
0.15571139 0.25510467 0.28265371
0.15638868 0.25502849 0.28252270
0.16743538 0.25382475 0.28045569
0.18076373 0.25245974 0.27811884
0.19581890 0.25101578 0.27565506
0.21251531 0.24951674 0.27310623
0.23084466 0.24797479 0.27049399
0.25081722 0.24639742 0.26783181
0.27244038 0.24478981 0.26512906
0.29570698 0.24315574 0.26239270
0.32058722 0.24149813 0.25962817
0.34702250 0.23981933 0.25683986
0.37492062 0.23812127 0.25403146
0.40415266 0.23640558 0.25120608
0.43455158 0.23467366 0.24836643
0.46591308 0.23292675 0.24551492
0.49799859 0.23116593 0.24265367
0.53054085 0.22939218 0.23978464
0.56325156 0.22760639 0.23690958
0.59583087 0.22580939 0.23403011
0.62797801 0.22400191 0.23114775
0.65940228 0.22218468 0.22826389
0.68983359 0.22035835 0.22537986
0.71903158 0.21852354 0.22249689
0.74679292 0.21668084 0.21961616
0.77295611 0.21483082 0.21673878
0.79740375 0.21297402 0.21386581
0.82006240 0.21111095 0.21099826
0.84090022 0.20924211 0.20813710
0.85992298 0.20736798 0.20528326
0.87716885 0.20548905 0.20243763
0.89270264 0.20360575 0.19960106
0.89832136 0.20286928 0.19849610
0.15282348 0.26982394 0.27469129
0.15349618 0.26974669 0.27456135
0.16447342 0.26852570 0.27251150
0.17773081 0.26714063 0.27019461
0.19272162 0.26567489 0.26775252
0.20936486 0.26415259 0.26522685
0.22765626 0.26258605 0.26263908
0.24760988 0.26098284 0.26000263
0.26923673 0.25934815 0.25732681
0.29253297 0.25768581 0.25461856
0.31747166 0.25599874 0.25188328
0.34399637 0.25428930 0.24912536
0.37201619 0.25255944 0.24634845
0.40140237 0.25081077 0.24355567
0.43198682 0.24904472 0.24074971
0.46356273 0.24726250 0.23793297
0.49588773 0.24546520 0.23510756
0.52868945 0.24365382 0.23227543
0.56167344 0.24182922 0.22943831
0.59453297 0.23999224 0.22659782
0.62696008 0.23814363 0.22375546
0.65865700 0.23628407 0.22091262
0.68934709 0.23441425 0.21807061
0.71878435 0.23253477 0.21523064
0.74676101 0.23064623 0.21239389
0.77311244 0.22874920 0.20956144
0.79771951 0.22684420 0.20673435
0.82050835 0.22493177 0.20391361
0.84144786 0.22301239 0.20110017
0.86054546 0.22108657 0.19829494
0.87784174 0.21915475 0.19549880
0.89340432 0.21721742 0.19271259
0.89902909 0.21645953 0.19162751
0.14993250 0.28536085 0.26679742
0.15060035 0.28528267 0.26666867
0.16150364 0.28404686 0.26463763
0.17468463 0.28264446 0.26234256
0.18960498 0.28115978 0.25992413
0.20618839 0.27961717 0.25742362
0.22443471 0.27802904 0.25486238
0.24436193 0.27640301 0.25225373
0.26598482 0.27474430 0.24960694
0.28930304 0.27305675 0.24692889
0.31429271 0.27134329 0.24422497
0.34089980 0.26960630 0.24149954
0.36903491 0.26784769 0.23875624
0.39856969 0.26606911 0.23599816
0.42933515 0.26427195 0.23322798
0.46112217 0.26245744 0.23044808
0.49368465 0.26062667 0.22766057
0.52674514 0.25878061 0.22486737
0.56000300 0.25692014 0.22207021
0.59314456 0.25504607 0.21927070
0.62585449 0.25315916 0.21647032
0.65782775 0.25126009 0.21367044
0.68878095 0.24934953 0.21087235
0.71846225 0.24742810 0.20807727
0.74665920 0.24549637 0.20528633
0.77320390 0.24355492 0.20250063
0.79797533 0.24160427 0.19972119
0.82089911 0.23964495 0.19694899
0.84194479 0.23767745 0.19418496
0.86112144 0.23570226 0.19142999
0.87847200 0.23371984 0.18868495
0.89406697 0.23173066 0.18595065
0.89969910 0.23095220 0.18488606
0.14704037 0.30172618 0.25897846
0.14770308 0.30164725 0.25885098
0.15852799 0.30039943 0.25684037
0.17162722 0.29898288 0.25456895
0.18647103 0.29748260 0.25217606
0.20298794 0.29592312 0.24970268
0.22118202 0.29431691 0.24716996
0.24107530 0.29267163 0.24459113
0.26268648 0.29099251 0.24197538
0.28601888 0.28928339 0.23932958
0.31105189 0.28754720 0.23665906
0.33773409 0.28578631 0.23396816
0.36597784 0.28400264 0.23126049
0.39565541 0.28219781 0.22853912
0.42659712 0.28037322 0.22580672
0.45859171 0.27853008 0.22306566
0.49138944 0.27666947 0.22031801
0.52470785 0.27479235 0.21756569
0.55824008 0.27289960 0.21481042
0.59166538 0.27099201 0.21205378
0.62466094 0.26907034 0.20929723
0.65691425 0.26713527 0.20654214
0.68813494 0.26518744 0.20378978
0.71806511 0.26322747 0.20104135
0.74648743 0.26125593 0.19829797
0.77323053 0.25927339 0.19556070
0.79817138 0.25728037 0.19283056
0.82123495 0.25527737 0.19010851
0.84239139 0.25326491 0.18739546
0.86165137 0.25124345 0.18469228
0.87906018 0.24921347 0.18199982
0.89469117 0.24717541 0.17931886
0.90033200 0.24637751 0.17827530
0.14414896 0.31892409 0.25124057
0.14480628 0.31884463 0.25111447
0.15554845 0.31758801 0.24912586
0.16856058 0.31616093 0.24687984
0.18332182 0.31464888 0.24451436
0.19976558 0.31307650 0.24206999
0.21790023 0.31145626 0.23956771
0.23775199 0.30979585 0.23702064
0.25934358 0.30810050 0.23443791
0.28268222 0.30637402 0.23182631
0.30775073 0.30461937 0.22919114
0.33450058 0.30283886 0.22653672
0.36284608 0.30103443 0.22386662
0.39266039 0.29920767 0.22118389
0.42377334 0.29735997 0.21849119
0.45597171 0.29549252 0.21579085
0.48900225 0.29360639 0.21308494
0.52257753 0.29170253 0.21037534
0.55638447 0.28978180 0.20766377
0.59009515 0.28784499 0.20495178
0.62337911 0.28589283 0.20224083
0.65591618 0.28392598 0.19953225
0.68740879 0.28194510 0.19682731
0.71759274 0.27995078 0.19412718
0.74624561 0.27794358 0.19143296
0.77319236 0.27592405 0.18874571
0.79830779 0.27389272 0.18606640
0.82151612 0.27185008 0.18339599
0.84278800 0.26979662 0.18073536
0.86213568 0.26773281 0.17808537
0.87960677 0.26565912 0.17544684
0.89527748 0.26357598 0.17282053
0.90092836 0.26276010 0.17179850
0.14126015 0.33695111 0.24358976
0.14191181 0.33687134 0.24346513
0.15256697 0.33560953 0.24150004
0.16548675 0.33417602 0.23928113
0.18015943 0.33265652 0.23694483
0.19652339 0.33107569 0.23453131
0.21459143 0.32944601 0.23206133
0.23439400 0.32777515 0.22954789
0.25595807 0.32606831 0.22700004
0.27929486 0.32432930 0.22442452
0.30439088 0.32256104 0.22182658
0.33120067 0.32076583 0.21921050
0.35964080 0.31894557 0.21657982
0.38958554 0.31710185 0.21393757
0.42086445 0.31523603 0.21128637
0.45326256 0.31334929 0.20862854
0.48652324 0.31144266 0.20596613
0.52035415 0.30951709 0.20330100
0.55443599 0.30757342 0.20063483
0.58843358 0.30561241 0.19796918
0.62200866 0.30363477 0.19530546
0.65483321 0.30164117 0.19264501
0.68660221 0.29963223 0.18998906
0.71704491 0.29760853 0.18733876
0.74593360 0.29557063 0.18469520
0.77308936 0.29351905 0.18205940
0.79838465 0.29145430 0.17943234
0.82174281 0.28937687 0.17681492
0.84313493 0.28728724 0.17420804
0.86257476 0.28518587 0.17161250
0.88011224 0.28307320 0.16902911
0.89582642 0.28094968 0.16645862
0.90148873 0.28011764 0.16545856
0.13837580 0.35579504 0.23603182
0.13902155 0.35571520 0.23590876
0.14958549 0.35445221 0.23396865
0.16240774 0.35301680 0.23177849
0.17698592 0.35149463 0.22947309
0.19326349 0.34991032 0.22709217
0.21125770 0.34827631 0.22465626
0.23100341 0.34660021 0.22217824
0.25253192 0.34488721 0.21966706
0.27585864 0.34314106 0.21712940
0.30097399 0.34136465 0.21457048
0.32783584 0.33956026 0.21199450
0.35636323 0.33772975 0.20940499
0.38643180 0.33587470 0.20680495
0.41787114 0.33399642 0.20419697
0.45046468 0.33209607 0.20158334
0.48395259 0.33017468 0.19896609
0.51803770 0.32823314 0.19634705
0.55239446 0.32627228 0.19372789
0.58668038 0.32429285 0.19111013
0.62054925 0.32229553 0.18849518
0.65366497 0.32028097 0.18588434
0.68571485 0.31824977 0.18327883
0.71642137 0.31620248 0.18067977
0.74555124 0.31413965 0.17808823
0.77292147 0.31206179 0.17550521
0.79840202 0.30996939 0.17293167
0.82191519 0.30786292 0.17036849
0.84343245 0.30574283 0.16781653
0.86296897 0.30360958 0.16527658
0.88057702 0.30146359 0.16274943
0.89633848 0.29930530 0.16023579
0.90201361 0.29845928 0.15925810
0.13549775 0.37543400 0.22857233
0.13613735 0.37535437 0.22845093
0.14660594 0.37409455 0.22653720
0.15932557 0.37266216 0.22437737
0.17380338 0.37114256 0.22210451
0.18998799 0.36956021 0.21975785
0.20790118 0.36792746 0.21735770
0.22758232 0.36625187 0.21491681
0.24906714 0.36453854 0.21244401
0.27237547 0.36279120 0.20994591
0.29750181 0.36101268 0.20742767
0.32440760 0.35920523 0.20489348
0.35301464 0.35737067 0.20234679
0.38320022 0.35551052 0.19979059
0.41479416 0.35362609 0.19722743
0.44757856 0.35171851 0.19465957
0.48129053 0.34978875 0.19208902
0.51562817 0.34783769 0.18951759
0.55025970 0.34586614 0.18694692
0.58483525 0.34387480 0.18437850
0.61900050 0.34186435 0.18181372
0.65241106 0.33983540 0.17925386
0.68474637 0.33778851 0.17670011
0.71572180 0.33572425 0.17415357
0.74509831 0.33364311 0.17161530
0.77268859 0.33154559 0.16908626
0.79835989 0.32943215 0.16656738
0.82203338 0.32730325 0.16405954
0.84368076 0.32515932 0.16156355
0.86331863 0.32300079 0.15908021
0.88100149 0.32082808 0.15661024
0.89681412 0.31864158 0.15415437
0.90250349 0.31778415 0.15319938
0.13262783 0.39583555 0.22121662
0.13326103 0.39575644 0.22109697
0.14363026 0.39450444 0.21921097
0.15624225 0.39308040 0.21708296
0.17061391 0.39156899 0.21484419
0.18669903 0.38999446 0.21253339
0.20452403 0.38836902 0.21017062
0.22413284 0.38670012 0.20776845
0.24556581 0.38499281 0.20533563
0.26884730 0.38325073 0.20287870
0.29397613 0.38147666 0.20040274
0.32091754 0.37967280 0.19791188
0.34959639 0.37784094 0.19540957
0.37989185 0.37598254 0.19289872
0.41163430 0.37409888 0.19038187
0.44460470 0.37219104 0.18786125
0.47853731 0.37025996 0.18533884
0.51312559 0.36830651 0.18281641
0.54803156 0.36633143 0.18029558
0.58289788 0.36433541 0.17777782
0.61736202 0.36231909 0.17526450
0.65107109 0.36028306 0.17275686
0.68369636 0.35822785 0.17025607
0.71494589 0.35615399 0.16776322
0.74457457 0.35406196 0.16527932
0.77239058 0.35195222 0.16280532
0.79825825 0.34982522 0.16034213
0.82209747 0.34768138 0.15789059
0.84388008 0.34552111 0.15545151
0.86362402 0.34334482 0.15302563
0.88138603 0.34115289 0.15061368
0.89725376 0.33894572 0.14821634
0.90295880 0.33807981 0.14728434
0.12976783 0.41695603 0.21396980
0.13039439 0.41687774 0.21385197
0.14066034 0.41563850 0.21199496
0.15315979 0.41422841 0.20990019
0.16741958 0.41273115 0.20769700
0.18339875 0.41117065 0.20542356
0.20112842 0.40955894 0.20309967
0.22065714 0.40790334 0.20073774
0.24203002 0.40620879 0.19834642
0.26527612 0.40447886 0.19593213
0.29039879 0.40271627 0.19349993
0.31736732 0.40092315 0.19105387
0.34610988 0.39910123 0.18859736
0.37650786 0.39725194 0.18613328
0.40839241 0.39537649 0.18366412
0.44154368 0.39347594 0.18119209
0.47569322 0.39155119 0.17871912
0.51053000 0.38960304 0.17624697
0.54570987 0.38763223 0.17377722
0.58086799 0.38563940 0.17131133
0.61563343 0.38362515 0.16885062
0.64964462 0.38159004 0.16639632
0.68256440 0.37953457 0.16394957
0.71409326 0.37745924 0.16151143
0.74397975 0.37536449 0.15908288
0.77202725 0.37325075 0.15666486
0.79809702 0.37111845 0.15425825
0.82210749 0.36896797 0.15186385
0.84403054 0.36679971 0.14948246
0.86388537 0.36461404 0.14711479
0.88173097 0.36241131 0.14476154
0.89765779 0.36019189 0.14242337
0.90337997 0.35932080 0.14151460
0.12691951 0.43874005 0.20683666
0.12753921 0.43866291 0.20672074
0.13769806 0.43744154 0.20489393
0.15008017 0.43605123 0.20283374
0.16422248 0.43457434 0.20066750
0.18008932 0.43303436 0.19843283
0.19771653 0.43144309 0.19614924
0.21715743 0.42980769 0.19382897
0.23846193 0.42813298 0.19148054
0.26166400 0.42642244 0.18911030
0.28677170 0.42467871 0.18672322
0.31375865 0.42290385 0.18432331
0.34255659 0.42109953 0.18191392
0.37304942 0.41926713 0.17949790
0.40506942 0.41740780 0.17707769
0.43839610 0.41552255 0.17465547
0.47275858 0.41361224 0.17223314
0.50784147 0.41167763 0.16981242
0.54329449 0.40971941 0.16739488
0.57874525 0.40773819 0.16498192
0.61381431 0.40573452 0.16257486
0.64813119 0.40370893 0.16017489
0.68135005 0.40166189 0.15778311
0.71316351 0.39959385 0.15540058
0.74331350 0.39750522 0.15302824
0.77159839 0.39539641 0.15066701
0.79787610 0.39326779 0.14831772
0.82206347 0.39111974 0.14598118
0.84413227 0.38895259 0.14365814
0.86410292 0.38676671 0.14134929
0.88203658 0.38456240 0.13905530
0.89802658 0.38234002 0.13677681
0.90376736 0.38146739 0.13589145
0.12408462 0.46112032 0.19982176
0.12469724 0.46104465 0.19970781
0.13474529 0.45984639 0.19791233
0.14700537 0.45848184 0.19588797
0.16102468 0.45703167 0.19375998
0.17677289 0.45551886 0.19156539
0.19429059 0.45395492 0.18932341
0.21363590 0.45234682 0.18704611
0.23486372 0.45069926 0.18474187
0.25801303 0.44901559 0.18241696
0.28309682 0.44729836 0.18007626
0.31009329 0.44554956 0.17772373
0.33893805 0.44377079 0.17536268
0.36951782 0.44196337 0.17299588
0.40166628 0.44012839 0.17062577
0.43516264 0.43826680 0.16825447
0.46973378 0.43637943 0.16588384
0.50506011 0.43446698 0.16351559
0.54078530 0.43253008 0.16115124
0.57652938 0.43056933 0.15879217
0.61190425 0.42858522 0.15643966
0.64653032 0.42657823 0.15409487
0.68005282 0.42454880 0.15175890
0.71215620 0.42249735 0.14943274
0.74257549 0.42042424 0.14711734
0.77110374 0.41832985 0.14481356
0.79759535 0.41621451 0.14252224
0.82196536 0.41407856 0.14024413
0.84418533 0.41192231 0.13797996
0.86427683 0.40974606 0.13573041
0.88124443 0.40731881 0.13514710
0.89631657 0.40488341 0.13464066
0.90173000 0.40393325 0.13444381
0.12126487 0.48401780 0.19292933
0.12187019 0.48394394 0.19281742
0.13180386 0.48277404 0.19105431
0.14393736 0.48144123 0.18906694
0.15782827 0.48002419 0.18697840
0.17345162 0.47854525 0.18482511
0.19085280 0.47701559 0.18262597
0.21009482 0.47544198 0.18039283
0.23123761 0.47382894 0.17813398
0.25432535 0.47217972 0.17585556
0.27937618 0.47049675 0.17356239
0.30637309 0.46878195 0.17125836
0.33525588 0.46703683 0.16894673
0.36591439 0.46526265 0.16663022
0.39818402 0.46346044 0.16431123
0.43184400 0.46163109 0.16199182
0.46661921 0.45977537 0.15967386
0.50218604 0.45789394 0.15735898
0.53818219 0.45598739 0.15504868
0.57422007 0.45405624 0.15274432
0.60990282 0.45210097 0.15044713
0.64484153 0.45012201 0.14815827
0.67867222 0.44811975 0.14587878
0.71107087 0.44609456 0.14360965
0.74176530 0.44404678 0.14135177
0.77054300 0.44197673 0.13910601
0.79725458 0.43988472 0.13687314
0.82127421 0.43760140 0.13541125
0.84247243 0.43509863 0.13490812
0.86159917 0.43259627 0.13440800
0.87875214 0.43009486 0.13391098
0.89405113 0.42759492 0.13341715
0.89955036 0.42661927 0.13322520
0.11846193 0.50734226 0.18616332
0.11905974 0.50727053 0.18605351
0.12887558 0.50613413 0.18432374
0.14087806 0.50483899 0.18237444
0.15463529 0.50346137 0.18032645
0.17012766 0.50202291 0.17821557
0.18740541 0.50053442 0.17606036
0.20653643 0.49900241 0.17387249
0.22758585 0.49743123 0.17166010
0.25060316 0.49582399 0.16942923
0.27561184 0.49418301 0.16718462
0.30259995 0.49251012 0.16493010
0.33151173 0.49080675 0.16266885
0.36224051 0.48907408 0.16040357
0.39462375 0.48731309 0.15813659
0.42844097 0.48552460 0.15586995
0.46341534 0.48370931 0.15360546
0.49921943 0.48186785 0.15134474
0.53548507 0.48000075 0.14908923
0.57181703 0.47810848 0.14684028
0.60780959 0.47619148 0.14459908
0.64306430 0.47425012 0.14236675
0.67720770 0.47228476 0.14014431
0.70990701 0.47029572 0.13793271
0.74088252 0.46828330 0.13573283
0.76877170 0.46575887 0.13515837
0.79448747 0.46320847 0.13466208
0.81805200 0.46065602 0.13416857
0.83948539 0.45810213 0.13367794
0.85884872 0.45554741 0.13319028
0.87623494 0.45299241 0.13270569
0.89176000 0.45043766 0.13222425
0.89734491 0.44944028 0.13203713
0.11567744 0.53099319 0.17952735
0.11626755 0.53092389 0.17941970
0.12596222 0.52982597 0.17772416
0.13782939 0.52857415 0.17581389
0.15144778 0.52724204 0.17380747
0.16680318 0.52585046 0.17174000
0.18395064 0.52440979 0.16962973
0.20296304 0.52292628 0.16748812
0.22391074 0.52140407 0.16532315
0.24684870 0.51984614 0.16314078
0.27180593 0.51825469 0.16094564
0.29877582 0.51663144 0.15874151
0.32770736 0.51497775 0.15653151
0.35849767 0.51329470 0.15431827
0.39098662 0.51158322 0.15210408
0.42495437 0.50984407 0.14989095
0.46012269 0.50807788 0.14768063
0.49616050 0.50628523 0.14547472
0.53269387 0.50446660 0.14327463
0.56931999 0.50262240 0.14108165
0.60562412 0.50075303 0.13889696
0.64119810 0.49885882 0.13672164
0.67515988 0.49661860 0.13538907
0.70704177 0.49404452 0.13489761
0.73707350 0.49146495 0.13440853
0.76509898 0.48888063 0.13392196
0.79102423 0.48629227 0.13343803
0.81481268 0.48370052 0.13295684
0.83647798 0.48110603 0.13247849
0.85607551 0.47850938 0.13200309
0.87369339 0.47591116 0.13153072
0.88944363 0.47331190 0.13106145
0.89511403 0.47229679 0.13087907
0.11291298 0.55486114 0.17302473
0.11349521 0.55479458 0.17291929
0.12306553 0.55373977 0.17125878
0.13479323 0.55253662 0.16938844
0.14826778 0.55125573 0.16742448
0.16348031 0.54991705 0.16540133
0.18049074 0.54853049 0.16333689
0.19937693 0.54710199 0.16124241
0.22021457 0.54563550 0.15912573
0.24306423 0.54413384 0.15699268
0.26796063 0.54259910 0.15484782
0.29490272 0.54103286 0.15269484
0.32384456 0.53943641 0.15053681
0.35468740 0.53781076 0.14837630
0.38727387 0.53615675 0.14621557
0.42138512 0.53447509 0.14405656
0.45674181 0.53276635 0.14190100
0.49300948 0.53103105 0.13975043
0.52980857 0.52926960 0.13760625
0.56668183 0.52742294 0.13559731
0.60254429 0.52485148 0.13511191
0.63743829 0.52227061 0.13462840
0.67102741 0.51968124 0.13414694
0.70302701 0.51708420 0.13366770
0.73321193 0.51448031 0.13319081
0.76141959 0.51187030 0.13271640
0.78754917 0.50925488 0.13224461
0.81155724 0.50663471 0.13177552
0.83345105 0.50401044 0.13130926
0.85328027 0.50138266 0.13084590
0.87112806 0.49875195 0.13038553
0.88710247 0.49611886 0.12992823
0.89285814 0.49509018 0.12975052
0.11017013 0.57882953 0.16665845
0.11074429 0.57876597 0.16655527
0.12018720 0.57775848 0.16493051
0.13177145 0.57660886 0.16310088
0.14509728 0.57538442 0.16118018
0.16016120 0.57410414 0.15920215
0.17702794 0.57277745 0.15718433
0.19578042 0.57140996 0.15513775
0.21649970 0.57000542 0.15307009
0.23925208 0.56856646 0.15098708
0.26407817 0.56709504 0.14889318
0.29098274 0.56559266 0.14679200
0.31992521 0.56406049 0.14468655
0.35081130 0.56249948 0.14257936
0.38348678 0.56091039 0.14047262
0.41773418 0.55929384 0.13836823
0.45327333 0.55765039 0.13626788
0.48957896 0.55537358 0.13530156
0.52610892 0.55281875 0.13482505
0.56249317 0.55025113 0.13435002
0.59833264 0.54767179 0.13387667
0.63325088 0.54508169 0.13340519
0.66690935 0.54248173 0.13293575
0.69901954 0.53987275 0.13246851
0.72935095 0.53725554 0.13200360
0.75773475 0.53463085 0.13154116
0.78406337 0.53199937 0.13108129
0.80828667 0.52936177 0.13062411
0.83040549 0.52671867 0.13016971
0.85046371 0.52407070 0.12971819
0.86853958 0.52141841 0.12926963
0.88473701 0.51876237 0.12882410
0.89057767 0.51772435 0.12865097
0.10745038 0.60277666 0.16043117
0.10801631 0.60271633 0.16033029
0.11732890 0.60175988 0.15874191
0.12876585 0.60066806 0.15695369
0.14193825 0.59950466 0.15507695
0.15684795 0.59828765 0.15314473
0.17356449 0.59702592 0.15117421
0.19217583 0.59572477 0.14917618
0.21276849 0.59438771 0.14715817
0.23541459 0.59301719 0.14512580
0.26016082 0.59161505 0.14308342
0.28701802 0.59018266 0.14103458
0.31595124 0.58872112 0.13898221
0.34687105 0.58723127 0.13692880
0.37970012 0.58535853 0.13546201
0.41408594 0.58285851 0.13499441
0.44951240 0.58034069 0.13452751
0.48562345 0.57780646 0.13406160
0.52203306 0.57525704 0.13359694
0.55834115 0.57269357 0.13313375
0.59415098 0.57011708 0.13267224
0.62908636 0.56752853 0.13221259
0.66280695 0.56492880 0.13175497
0.69502063 0.56231872 0.13129953
0.72549183 0.55969907 0.13084640
0.75404566 0.55707057 0.13039570
0.78056798 0.55443393 0.12994757
0.80500198 0.55178978 0.12950208
0.82734216 0.54913878 0.12905936
0.84762662 0.54648150 0.12861947
0.86592856 0.54381853 0.12818251
