luts/cubes/documentary.cube
TITLE "documentary"
LUT_3D_SIZE 9
DOMAIN_MIN 0.0 0.0 0.0
DOMAIN_MAX 1.0 1.0 1.0
0.20424030 0.20424030 0.20424030
0.27218954 0.20326309 0.20326309
0.35040768 0.20231561 0.20231561
0.43666847 0.20138105 0.20138105
0.52633848 0.20045590 0.20045590
0.61391929 0.19953849 0.19953849
0.69439985 0.19862783 0.19862783
0.76432757 0.19772327 0.19772327
0.82220203 0.19682434 0.19682434
0.20096676 0.26937781 0.20096676
0.26819397 0.26819397 0.20000128
0.34580946 0.26704527 0.19906520
0.43169054 0.26591138 0.19814193
0.52128425 0.26478807 0.19722798
0.60910556 0.26367333 0.19632172
0.69008300 0.26256598 0.19542216
0.76065805 0.26146525 0.19452865
0.81922050 0.26037058 0.19364074
0.19781945 0.34403985 0.19781945
0.26434213 0.34268180 0.19686536
0.34136288 0.34136288 0.19594036
0.42686022 0.34005984 0.19502806
0.51636229 0.33876785 0.19412500
0.60440130 0.33748462 0.19322956
0.68585066 0.33620883 0.19234078
0.75705019 0.33493959 0.19145801
0.81628221 0.33367629 0.19058080
0.19474099 0.42641267 0.19474099
0.26056471 0.42494010 0.19379816
0.33698901 0.42350857 0.19288411
0.42209291 0.42209291 0.19198264
0.51148747 0.42068793 0.19109034
0.59972598 0.41929116 0.19020559
0.68163088 0.41790119 0.18932745
0.75344298 0.41651706 0.18845528
0.81333761 0.41513813 0.18758864
0.19171907 0.51250248 0.19171907
0.25684716 0.51099747 0.19078740
0.33267165 0.50953290 0.18988422
0.41737160 0.50808313 0.18899348
0.50664285 0.50664285 0.18811183
0.59506365 0.50520958 0.18723769
0.67740941 0.50378187 0.18637010
0.74982423 0.50235878 0.18550844
0.81037669 0.50093965 0.18465226
0.18874773 0.59744503 0.18874773
0.25318261 0.59599553 0.18782714
0.32840333 0.59458356 0.18693473
0.41268861 0.59318447 0.18605465
0.50182094 0.59179317 0.18518359
0.59040728 0.59040728 0.18431996
0.67317988 0.58902543 0.18346283
0.74618841 0.58764671 0.18261160
0.80739484 0.58627048 0.18176581
0.18582334 0.67662008 0.18582334
0.24956702 0.67530073 0.18491377
0.32417984 0.67401433 0.18403207
0.40803973 0.67273848 0.18316258
0.49701769 0.67146857 0.18230202
0.58575309 0.67020244 0.18144883
0.66893884 0.66893884 0.18060211
0.74253242 0.66767695 0.17976122
0.80438937 0.66641621 0.17892575
0.18294347 0.74660897 0.18294347
0.24599773 0.74546775 0.18204484
0.31999848 0.74435410 0.18117378
0.40342240 0.74324868 0.18031481
0.49223073 0.74214750 0.17946469
0.58109886 0.74104872 0.17862188
0.66468421 0.73995124 0.17778548
0.73885436 0.73885436 0.17695488
0.80135857 0.73775758 0.17612964
0.18010629 0.80564745 0.18010629
0.24247288 0.80470258 0.17921855
0.31585747 0.80377988 0.17835805
0.39883501 0.80286336 0.17750954
0.48745863 0.80194974 0.17666979
0.57644328 0.80103747 0.17583730
0.66041472 0.80012566 0.17501116
0.73515296 0.79921372 0.17419077
0.79830124 0.79830124 0.17337571
0.20392769 0.20392769 0.26853491
0.27180845 0.20295159 0.26735343
0.34996973 0.20200519 0.26620702
0.43619510 0.20107171 0.26507540
0.52585865 0.20014762 0.26395435
0.61346303 0.19923127 0.26284187
0.69399129 0.19832167 0.26173677
0.76398072 0.19741816 0.26063828
0.82192051 0.19652028 0.25954585
0.20065789 0.26899919 0.26457349
0.26781642 0.26781642 0.26340316
0.34537421 0.26666874 0.26226762
0.43121844 0.26553587 0.26114679
0.52080397 0.26441358 0.26003648
0.60864723 0.26329985 0.25893469
0.68967125 0.26219351 0.25784028
0.76030749 0.26109378 0.25675246
0.81893530 0.26000012 0.25567068
0.19751422 0.34360565 0.26075512
0.26396804 0.34224842 0.25959571
0.34093030 0.34093030 0.25847083
0.42638944 0.33962806 0.25736057
0.51588165 0.33833687 0.25626077
0.60394105 0.33705445 0.25516947
0.68543585 0.33577945 0.25408551
0.75669604 0.33451102 0.25300813
0.81599341 0.33324852 0.25193679
0.19443936 0.42594202 0.25701104
0.26019407 0.42446987 0.25586253
0.33655914 0.42303875 0.25474825
0.42162352 0.42162352 0.25364851
0.51100657 0.42021897 0.25255918
0.59926389 0.41882263 0.25147831
0.68121309 0.41743309 0.25040476
0.75308529 0.41604941 0.24933777
0.81304524 0.41467093 0.24827681
0.19142101 0.51202163 0.25332682
0.25647998 0.51051655 0.25218918
0.33224453 0.50905193 0.25108551
0.41690367 0.50760211 0.24999628
0.50616179 0.50616179 0.24891740
0.59459982 0.50472848 0.24784695
0.67698870 0.50330075 0.24678379
0.74946303 0.50187765 0.24572717
0.81008078 0.50045851 0.24467656
0.18845321 0.59698207 0.24969562
0.25281888 0.59553204 0.24856886
0.32797900 0.59411955 0.24747579
0.41222222 0.59271995 0.24639706
0.50133980 0.59132816 0.24532863
0.58994179 0.58994179 0.24426860
0.67275632 0.58855946 0.24321583
0.74582374 0.58718027 0.24216957
0.80709537 0.58580359 0.24112931
0.18553235 0.67619883 0.24611342
0.24920675 0.67487859 0.24499754
0.32375833 0.67359133 0.24391508
0.40757495 0.67231462 0.24284686
0.49653657 0.67104387 0.24178889
0.58528602 0.66977691 0.24073927
0.66851249 0.66851249 0.23969688
0.74216432 0.66724978 0.23866099
0.80408637 0.66598823 0.23763108
0.18265597 0.74624470 0.24257756
0.24564093 0.74510240 0.24147258
0.31957984 0.74398770 0.24040073
0.40295930 0.74288124 0.23934303
0.49174971 0.74177904 0.23829552
0.58063031 0.74067923 0.23725632
0.66425513 0.73958074 0.23622433
0.73848284 0.73848284 0.23519880
0.80105203 0.73738506 0.23417923
0.17982227 0.80534593 0.23908617
0.24211955 0.80439994 0.23799210
0.31544173 0.80347616 0.23693087
0.39837366 0.80255858 0.23588370
0.48697780 0.80164389 0.23484666
0.57597332 0.80073056 0.23381788
0.65998297 0.79981769 0.23279627
0.73477807 0.79890470 0.23178111
0.79799118 0.79799118 0.23077189
0.20361543 0.20361543 0.34431194
0.27142769 0.20264045 0.34295337
0.34953204 0.20169513 0.34163395
0.43572185 0.20076272 0.34033041
0.52537877 0.19983970 0.33903792
0.61300657 0.19892441 0.33775419
0.69358242 0.19801586 0.33647789
0.76363352 0.19711340 0.33520815
0.82163864 0.19621657 0.33394435
0.20034938 0.26862092 0.33975187
0.26743919 0.26743919 0.33840202
0.34493921 0.26629255 0.33709112
0.43074647 0.26516070 0.33579607
0.52032364 0.26403942 0.33451207
0.60818871 0.26292670 0.33323684
0.68925920 0.26182138 0.33196906
0.75995658 0.26072266 0.33070785
0.81864975 0.25963000 0.32945260
0.19720935 0.34317172 0.33534325
0.26359429 0.34181531 0.33400205
0.34049799 0.34049799 0.33269963
0.42591879 0.33919656 0.33141302
0.51540098 0.33790616 0.33013744
0.60348061 0.33662454 0.32887065
0.68502074 0.33535035 0.32761132
0.75634154 0.33408272 0.32635858
0.81570427 0.33282103 0.32511182
0.19413809 0.42547150 0.33100775
0.25982378 0.42399978 0.32967528
0.33612955 0.42256908 0.32838141
0.42115428 0.42115428 0.32710332
0.51052565 0.41975015 0.32583625
0.59880162 0.41835425 0.32457796
0.68079500 0.41696515 0.32332715
0.75272725 0.41558191 0.32208294
0.81275253 0.41420388 0.32084474
0.19112331 0.51154076 0.32672925
0.25611314 0.51003562 0.32540564
0.33181769 0.50857094 0.32412042
0.41643590 0.50712107 0.32285094
0.50568071 0.50568071 0.32159247
0.59413582 0.50424738 0.32034278
0.67656770 0.50281963 0.31910058
0.74910149 0.50139651 0.31786499
0.80978451 0.49997737 0.31663543
0.18815905 0.59651895 0.32250034
0.25245550 0.59506838 0.32118568
0.32755495 0.59365538 0.31990923
0.41175599 0.59225528 0.31864846
0.50085866 0.59086299 0.31739869
0.58947614 0.58947614 0.31615771
0.67233248 0.58809334 0.31492421
0.74545873 0.58671368 0.31369735
0.80679556 0.58533654 0.31247653
0.18524170 0.67577730 0.31831678
0.24884683 0.67445617 0.31701119
0.32333711 0.67316804 0.31574361
0.40711033 0.67189049 0.31449167
0.49605545 0.67061889 0.31325071
0.58481880 0.66935110 0.31201853
0.66808586 0.66808586 0.31079385
0.74179587 0.66682234 0.30957581
0.80378301 0.66555998 0.30836381
0.18236882 0.74588009 0.31417589
0.24528448 0.74473671 0.31287949
0.31916149 0.74362096 0.31162090
0.40249637 0.74251346 0.31037789
0.49126871 0.74141023 0.30914584
0.58016161 0.74030940 0.30792257
0.66382578 0.73920989 0.30670679
0.73811099 0.73811099 0.30549767
0.80074514 0.73701220 0.30429460
0.17953860 0.80504405 0.31007587
0.24176657 0.80409695 0.30878877
0.31502629 0.80317209 0.30753926
0.39791248 0.80225343 0.30630529
0.48649700 0.80133768 0.30508226
0.57550322 0.80042330 0.30386799
0.65955095 0.79950937 0.30266122
0.73440284 0.79859533 0.30146112
0.79768076 0.79768076 0.30026707
0.20330353 0.20330353 0.42893303
0.27104727 0.20232966 0.42745824
0.34909460 0.20138543 0.42602451
0.43524872 0.20045409 0.42460664
0.52489884 0.19953213 0.42319942
0.61254990 0.19861790 0.42180039
0.69317325 0.19771040 0.42040811
0.76328597 0.19680900 0.41902166
0.82135643 0.19591321 0.41764038
0.20004123 0.26824298 0.42397692
0.26706231 0.26706231 0.42250657
0.34450447 0.26591670 0.42107723
0.43027462 0.26478587 0.41966379
0.51984327 0.26366560 0.41826104
0.60773000 0.26255390 0.41686653
0.68884684 0.26144959 0.41547884
0.75960532 0.26035188 0.41409703
0.81836385 0.25926023 0.41272045
0.19690484 0.34273804 0.41916924
0.26322088 0.34138245 0.41770347
0.34006595 0.34006595 0.41627867
0.42544828 0.33876531 0.41486979
0.51492028 0.33747572 0.41347165
0.60301998 0.33619490 0.41208180
0.68460533 0.33492152 0.41069882
0.75598669 0.33365470 0.40932178
0.81541477 0.33239382 0.40795002
0.19383717 0.42500112 0.41442573
0.25945383 0.42352982 0.41296475
0.33570022 0.42209955 0.41154469
0.42068517 0.42068517 0.41014057
0.51004471 0.41928147 0.40874724
0.59833918 0.41788601 0.40736224
0.68037662 0.41649735 0.40598416
0.75236886 0.41511456 0.40461207
0.81245946 0.41373698 0.40324532
0.19082596 0.51105986 0.40972937
0.25574665 0.50955466 0.40827341
0.33139112 0.50808993 0.40685830
0.41596827 0.50664002 0.40545916
0.50519963 0.50519963 0.40407083
0.59367165 0.50376627 0.40269088
0.67614642 0.50233850 0.40131791
0.74873960 0.50091538 0.39995097
0.80948788 0.49949623 0.39858942
0.18786523 0.59605565 0.40507251
0.25209247 0.59460455 0.40362178
0.32713118 0.59319103 0.40221183
0.41128991 0.59179043 0.40081788
0.50037752 0.59039766 0.39943476
0.58901032 0.58901032 0.39806007
0.67190835 0.58762705 0.39669240
0.74509337 0.58624693 0.39533081
0.80649539 0.58486934 0.39397467
0.18495141 0.67535548 0.40045093
0.24848726 0.67403346 0.39900565
0.32291618 0.67274447 0.39760107
0.40664588 0.67146607 0.39621250
0.49557435 0.67019364 0.39483481
0.58435143 0.66892502 0.39346558
0.66765895 0.66765895 0.39210341
0.74142707 0.66639462 0.39074737
0.80347930 0.66513145 0.38939682
0.18208203 0.74551513 0.39586205
0.24492838 0.74437067 0.39442243
0.31874344 0.74325387 0.39302344
0.40203361 0.74214534 0.39164047
0.49078773 0.74104108 0.39026839
0.57969276 0.73993923 0.38890482
0.66339615 0.73883871 0.38754835
0.73773880 0.73773880 0.38619806
0.80043790 0.73663901 0.38485330
0.17925528 0.80474181 0.39130424
0.24141394 0.80379361 0.38987050
0.31461115 0.80286767 0.38847730
0.39745149 0.80194794 0.38710012
0.48601622 0.80103112 0.38573387
0.57503298 0.80011568 0.38437615
0.65911867 0.79920070 0.38302558
0.73402728 0.79828561 0.38168122
0.79736998 0.79736998 0.38034245
0.20299198 0.20299198 0.51792375
0.27066718 0.20201923 0.51641969
0.34865741 0.20107608 0.51495594
0.43477571 0.20014581 0.51350689
0.52441887 0.19922492 0.51206724
0.61209304 0.19831175 0.51063451
0.69276377 0.19740531 0.50920725
0.76293806 0.19650495 0.50778452
0.82107386 0.19561021 0.50636565
0.19973343 0.26786538 0.51286284
0.26668577 0.26668577 0.51135789
0.34407000 0.26554118 0.50989336
0.42980290 0.26441138 0.50844362
0.51936287 0.26329213 0.50700338
0.60727110 0.26218144 0.50557013
0.68843419 0.26107813 0.50414244
0.75925371 0.25998144 0.50271937
0.81807760 0.25889080 0.50130024
0.19660068 0.34230463 0.50793603
0.26284781 0.34094987 0.50643050
0.33963417 0.33963417 0.50496550
0.42497790 0.33833434 0.50351538
0.51443956 0.33704555 0.50207483
0.60255918 0.33576554 0.50064137
0.68418963 0.33449296 0.49921355
0.75563149 0.33322695 0.49779042
0.81512492 0.33196688 0.49637132
0.19353661 0.42453087 0.50305801
0.25908422 0.42306000 0.50155220
0.33527117 0.42163016 0.50008701
0.42021621 0.42021621 0.49863679
0.50956376 0.41881294 0.49719622
0.59787657 0.41741792 0.49576282
0.67995795 0.41602970 0.49433514
0.75201012 0.41464736 0.49291223
0.81216604 0.41327024 0.49149343
0.19052896 0.51057895 0.49821181
0.25538050 0.50907369 0.49670600
0.33096483 0.50760891 0.49524091
0.41550080 0.50615896 0.49379086
0.50471854 0.50471854 0.49235054
0.59320731 0.50328516 0.49091747
0.67572485 0.50185737 0.48949020
0.74837736 0.50043424 0.48806777
0.80919090 0.49901509 0.48664953
0.18757178 0.59559218 0.49338989
0.25172978 0.59414055 0.49188437
0.32670770 0.59272652 0.49041964
0.41082400 0.59132543 0.48897004
0.49989638 0.58993216 0.48753024
0.58854435 0.58854435 0.48609776
0.67148395 0.58716061 0.48467116
0.74472767 0.58578003 0.48324948
0.80619486 0.58440198 0.48183207
0.18466147 0.67493338 0.48858819
0.24812804 0.67361047 0.48708324
0.32249553 0.67232062 0.48561915
0.40618159 0.67104137 0.48417025
0.49509325 0.66976811 0.48273123
0.58388391 0.66849866 0.48129962
0.66723177 0.66723177 0.47987394
0.74105794 0.66596663 0.47845327
0.80317523 0.66470265 0.47703694
0.18179558 0.74514982 0.48380433
0.24457263 0.74400428 0.48230022
0.31832567 0.74288644 0.48083702
0.40157103 0.74177687 0.47938909
0.49030676 0.74067159 0.47795112
0.57922377 0.73956872 0.47652062
0.66296626 0.73846718 0.47509614
0.73736626 0.73736626 0.47367673
0.80013029 0.73626547 0.47226173
0.17897230 0.80443923 0.47903685
0.24106167 0.80348991 0.47753385
0.31419630 0.80256289 0.47607182
0.39699068 0.80164209 0.47462512
0.48553547 0.80072421 0.47318845
0.57456261 0.79980770 0.47175932
0.65868612 0.79889167 0.47033629
0.73365137 0.79797552 0.46891839
0.79705885 0.79705885 0.46750498
0.20268079 0.20268079 0.60579180
0.27028743 0.20170915 0.60435246
0.34822048 0.20076709 0.60295024
0.43430282 0.19983789 0.60156067
0.52393886 0.19891807 0.60017871
0.61163599 0.19800595 0.59880199
0.69235399 0.19710056 0.59742915
0.76258980 0.19620125 0.59605929
0.82079095 0.19530756 0.59469178
0.19942598 0.26748811 0.60094260
0.26630956 0.26630956 0.59949726
0.34363578 0.26516600 0.59808927
0.42933131 0.26403722 0.59669407
0.51888244 0.26291899 0.59530659
0.60681201 0.26180932 0.59392445
0.68802123 0.26070703 0.59254627
0.75890175 0.25961134 0.59117116
0.81779100 0.25852171 0.58979849
0.19629687 0.34187148 0.59620524
0.26247508 0.34051754 0.59475430
0.33920265 0.33920265 0.59334096
0.42450766 0.33790363 0.59194052
0.51395881 0.33661565 0.59054790
0.60209819 0.33533644 0.58916072
0.68377364 0.33406468 0.58777760
0.75527594 0.33279947 0.58639763
0.81483472 0.33154022 0.58502018
0.19323640 0.42406076 0.59149851
0.25871495 0.42259033 0.59004230
0.33484239 0.42116091 0.58862388
0.41974739 0.41974739 0.58721850
0.50908278 0.41834456 0.58582104
0.59741377 0.41694998 0.58442912
0.67953899 0.41556221 0.58304134
0.75165103 0.41418032 0.58165681
0.81187227 0.41280365 0.58027487
0.19023231 0.51009801 0.58680638
0.25501469 0.50859270 0.58534517
0.33053882 0.50712787 0.58392196
0.41503347 0.50567788 0.58251191
0.50423743 0.50423743 0.58110988
0.59274281 0.50280403 0.57971349
0.67530300 0.50137623 0.57832132
0.74801477 0.49995309 0.57693248
0.80889357 0.49853395 0.57554633
0.18727867 0.59512854 0.58212174
0.25136744 0.59367638 0.58065580
0.32628449 0.59226185 0.57922806
0.41035824 0.59086025 0.57781360
0.49941524 0.58946651 0.57640728
0.58807822 0.58807822 0.57500667
0.67105926 0.58669401 0.57361038
0.74436162 0.58531297 0.57221750
0.80589398 0.58393448 0.57082739
0.18437188 0.67451099 0.57744078
0.24776917 0.67318719 0.57597038
0.32207518 0.67189649 0.57453838
0.40571747 0.67061639 0.57311977
0.49461216 0.66934230 0.57170940
0.58341623 0.66807202 0.57030484
0.66680432 0.66680432 0.56890469
0.74068846 0.66553836 0.56750803
0.80287081 0.66427359 0.56611422
0.18150948 0.74478417 0.57276128
0.24421723 0.74363756 0.57128668
0.31790820 0.74251866 0.56985068
0.40110862 0.74140806 0.56842819
0.48982581 0.74030175 0.56701402
0.57875464 0.73919786 0.56560576
0.66253610 0.73809531 0.56420200
0.73699339 0.73699339 0.56280181
0.79982234 0.73589159 0.56140456
0.17868968 0.80413628 0.56808191
0.24070974 0.80318586 0.56660339
0.31378175 0.80225775 0.56516364
0.39653005 0.80133588 0.56373751
0.48505475 0.80041694 0.56231981
0.57409210 0.79949937 0.56090811
0.65825331 0.79858228 0.55950098
0.73327513 0.79766509 0.55809752
0.79674736 0.79674736 0.55669708
0.20236996 0.20236996 0.68731333
0.26990801 0.20139943 0.68601736
0.34778380 0.20045845 0.68475360
0.43383004 0.19953033 0.68350004
0.52345880 0.19861157 0.68225216
0.61117873 0.19770051 0.68100785
0.69194391 0.19679617 0.67976587
0.76224119 0.19589792 0.67852542
0.82050768 0.19500527 0.67728594
0.19911890 0.26711119 0.68294208
0.26593369 0.26593369 0.68163640
0.34320183 0.26479117 0.68036321
0.42885984 0.26366341 0.67910038
0.51840196 0.26254620 0.67784333
0.60635274 0.26143754 0.67658994
0.68760798 0.26033626 0.67533895
0.75854944 0.25924159 0.67408958
0.81750405 0.25815297 0.67284124
0.19599342 0.34143860 0.67865763
0.26210269 0.34008549 0.67734264
0.33877141 0.33877141 0.67606044
0.42403756 0.33747319 0.67478873
0.51347803 0.33618602 0.67352292
0.60163702 0.33490762 0.67226084
0.68335734 0.33363666 0.67100126
0.75492004 0.33237227 0.66974335
0.81454417 0.33111383 0.66848655
0.19293654 0.42359078 0.67438711
0.25834603 0.42212079 0.67306305
0.33441388 0.42069180 0.67177209
0.41927872 0.41927872 0.67049175
0.50860179 0.41787633 0.66921741
0.59695081 0.41648219 0.66794690
0.67911975 0.41509487 0.66667895
0.75129159 0.41371343 0.66541276
0.81157814 0.41233722 0.66414775
0.18993602 0.50961706 0.67011607
0.25464923 0.50811169 0.66878318
0.33011309 0.50664682 0.66748367
0.41456630 0.50519680 0.66619491
0.50375632 0.50375632 0.66491226
0.59227814 0.50232290 0.66363352
0.67488086 0.50089510 0.66235743
0.74765184 0.49947195 0.66108317
0.80859589 0.49805281 0.65981015
0.18698592 0.59466473 0.66583809
0.25100544 0.59321204 0.66449656
0.32586157 0.59179701 0.66318871
0.40989264 0.59039492 0.66189174
0.49893410 0.58900069 0.66060097
0.58761193 0.58761193 0.65931421
0.67063430 0.58622726 0.65803018
0.74399523 0.58484576 0.65674805
0.80559275 0.58346682 0.65546724
0.18408264 0.67408832 0.66154967
0.24741064 0.67276364 0.66019972
0.32165511 0.67147207 0.65888371
0.40525353 0.67019114 0.65757872
0.49413108 0.66891621 0.65628004
0.58294841 0.66764511 0.65498545
0.66637659 0.66637659 0.65369367
0.74031864 0.66510983 0.65240387
0.80256603 0.66384425 0.65111546
0.18122374 0.74441818 0.65724874
0.24386218 0.74327048 0.65589055
0.31749102 0.74215055 0.65456658
0.40064639 0.74103891 0.65325377
0.48934487 0.73993157 0.65194737
0.57828536 0.73882667 0.65064515
0.66210566 0.73772310 0.64934582
0.73662017 0.73662017 0.64804855
0.79951402 0.73551737 0.64675274
0.17840741 0.80383298 0.65293400
0.24035817 0.80288145 0.65156778
0.31336750 0.80195226 0.65023605
0.39606961 0.80102932 0.64891561
0.48457405 0.80010931 0.64760168
0.57362146 0.79919069 0.64629202
0.65782024 0.79827254 0.64498534
0.73289855 0.79735429 0.64368079
0.79643552 0.79643552 0.64237777
0.20205948 0.20205948 0.75869169
0.26952893 0.20109007 0.75758722
0.34734738 0.20015017 0.75650927
0.43335739 0.19922312 0.75543914
0.52297869 0.19830542 0.75437297
0.61072128 0.19739542 0.75330896
0.69153352 0.19649214 0.75224607
0.76189222 0.19559493 0.75118361
0.82022407 0.19470333 0.75012111
0.19881216 0.26673460 0.75496254
0.26555816 0.26555816 0.75384654
0.34276813 0.26441667 0.75275739
0.42838851 0.26328993 0.75167618
0.51792146 0.26217374 0.75059902
0.60589327 0.26106610 0.74952410
0.68719443 0.25996583 0.74845034
0.75819678 0.25887217 0.74737707
0.81721674 0.25778457 0.74630380
0.19569033 0.34100597 0.75129690
0.26173064 0.33965369 0.75016973
0.33834043 0.33834043 0.74906973
0.42356759 0.33704302 0.74797779
0.51299722 0.33575666 0.74688999
0.60117567 0.33447907 0.74580449
0.68294076 0.33320893 0.74472022
0.75456379 0.33194535 0.74363649
0.81425326 0.33068772 0.74255280
0.19263704 0.42312095 0.74763275
0.25797744 0.42165139 0.74649457
0.33398565 0.42022284 0.74538388
0.41881019 0.41881019 0.74428138
0.50812079 0.41740824 0.74318310
0.59648767 0.41601455 0.74208720
0.67870021 0.41462768 0.74099258
0.75093181 0.41324670 0.73989855
0.81128366 0.41187095 0.73880461
0.18964009 0.50913609 0.74395770
0.25428411 0.50763067 0.74280865
0.32968763 0.50616576 0.74168740
0.41409929 0.50471571 0.74057446
0.50327521 0.50327521 0.73946584
0.59181330 0.50184177 0.73835965
0.67445843 0.50041396 0.73725482
0.74728856 0.49899081 0.73615062
0.80829785 0.49757168 0.73504656
0.18669352 0.59420075 0.74026615
0.25064380 0.59274754 0.73910635
0.32543893 0.59133200 0.73797465
0.40942721 0.58992942 0.73685139
0.49845296 0.58853471 0.73573253
0.58714549 0.58714549 0.73461619
0.67020905 0.58576035 0.73350125
0.74362849 0.58437840 0.73238700
0.80529116 0.58299901 0.73127294
0.18379375 0.67366536 0.73655497
0.24705247 0.67233980 0.73538452
0.32123532 0.67104738 0.73424248
0.40478975 0.66976560 0.73310901
0.49365001 0.66848984 0.73198003
0.58248044 0.66721792 0.73085363
0.66594859 0.66594859 0.72972870
0.73994848 0.66468102 0.72860452
0.80226090 0.66341463 0.72748057
0.18093834 0.74405184 0.73282224
0.24350748 0.74290307 0.73164125
0.31707413 0.74178208 0.73048898
0.40018433 0.74066941 0.72934540
0.48886396 0.73956105 0.72820640
0.57781594 0.73845513 0.72707005
0.66167496 0.73735055 0.72593524
0.73624661 0.73624661 0.72480123
0.79920536 0.73514281 0.72366751
0.17812548 0.80352933 0.72906670
0.24000694 0.80257668 0.72787527
0.31295354 0.80164641 0.72671286
0.39560935 0.80072240 0.72555928
0.48409338 0.79980133 0.72441037
0.57315068 0.79888165 0.72326419
0.65738690 0.79796245 0.72211960
0.73252163 0.79704314 0.72097586
0.79612332 0.79612332 0.71983247
0.20174936 0.20174936 0.81808869
0.26915018 0.20078106 0.81719058
0.34691121 0.19984224 0.81631341
0.43288486 0.19891626 0.81544199
0.52249855 0.19799963 0.81457320
0.61026364 0.19709069 0.81370557
0.69112283 0.19618846 0.81283825
0.76154291 0.19529230 0.81197068
0.81994010 0.19440175 0.81110248
0.19850578 0.26635835 0.81505370
0.26518297 0.26518297 0.81414400
0.34233470 0.26404251 0.81325556
0.42791730 0.26291680 0.81237297
0.51744092 0.26180163 0.81149307
0.60543362 0.26069500 0.81061438
0.68678058 0.25959575 0.80973603
0.75784376 0.25850310 0.80885747
0.81692909 0.25741651 0.80797829
0.19538759 0.34057362 0.81206322
0.26135893 0.33922217 0.81114222
0.33790972 0.33790972 0.81024277
0.42309776 0.33661313 0.80934928
0.51251640 0.33532757 0.80845854
0.60071414 0.33405080 0.80756906
0.68252388 0.33278146 0.80667996
0.75420719 0.33151870 0.80579067
0.81396201 0.33026189 0.80490078
0.19233790 0.42265125 0.80906681
0.25760921 0.42118213 0.80813460
0.33355768 0.41975402 0.80722423
0.41834181 0.41834181 0.80631993
0.50763977 0.41694030 0.80541844
0.59602436 0.41554706 0.80451825
0.67828038 0.41416064 0.80361848
0.75057168 0.41278012 0.80271855
0.81098883 0.41140484 0.80181805
0.18934450 0.50865510 0.80605431
0.25391934 0.50714963 0.80511093
0.32926245 0.50568469 0.80418969
0.41363242 0.50423460 0.80327462
0.50279408 0.50279408 0.80236243
0.59134830 0.50136064 0.80145159
0.67403573 0.49993282 0.80054121
0.74692494 0.49850968 0.79963069
0.80799946 0.49709056 0.79871963
0.18640147 0.59373661 0.80302100
0.25028250 0.59228287 0.80206650
0.32501658 0.59086683 0.80113442
0.40896194 0.58946377 0.80020862
0.49797183 0.58806858 0.79928577
0.58667888 0.58667888 0.79836431
0.66978353 0.58529329 0.79744335
0.74326141 0.58391089 0.79652228
0.80498921 0.58253105 0.79560070
0.18350522 0.67324212 0.79996419
0.24669464 0.67191568 0.79899858
0.32081583 0.67062241 0.79805570
0.40432614 0.66933979 0.79711919
0.49316895 0.66806320 0.79618570
0.58201232 0.66679046 0.79525366
0.66552031 0.66552031 0.79432215
0.73957797 0.66425193 0.79339057
0.80195542 0.66298475 0.79245850
0.18065330 0.74368515 0.79688214
0.24315312 0.74253531 0.79590545
0.31665753 0.74141328 0.79495178
0.39972246 0.74029957 0.79400459
0.48838307 0.73919019 0.79306050
0.57734639 0.73808325 0.79211789
0.66124399 0.73697766 0.79117586
0.73587272 0.73587272 0.79023380
0.79889633 0.73476791 0.78929127
0.17784391 0.80322532 0.79377365
0.23965607 0.80227156 0.79278589
0.31253988 0.80134021 0.79182146
0.39514927 0.80041513 0.79086362
0.48361274 0.79949299 0.78990893
0.57267977 0.79857225 0.78895580
0.65695331 0.79765199 0.78800327
0.73214438 0.79673164 0.78705074
0.79581076 0.79581076 0.78609778
