luts/cubes/documentary.cube
TITLE "documentary"
LUT_3D_SIZE 33
DOMAIN_MIN 0.0 0.0 0.0
DOMAIN_MAX 1.0 1.0 1.0
0.20424030 0.20424030 0.20424030
0.22040769 0.20398893 0.20398893
0.23700047 0.20374457 0.20374457
0.25425248 0.20350292 0.20350292
0.27218954 0.20326309 0.20326309
0.29080411 0.20302465 0.20302465
0.31007160 0.20278736 0.20278736
0.32995516 0.20255105 0.20255105
0.35040768 0.20231561 0.20231561
0.37137298 0.20208095 0.20208095
0.39278680 0.20184700 0.20184700
0.41457776 0.20161372 0.20161372
0.43666847 0.20138105 0.20138105
0.45897666 0.20114897 0.20114897
0.48141651 0.20091743 0.20091743
0.50390004 0.20068642 0.20068642
0.52633848 0.20045590 0.20045590
0.54864377 0.20022587 0.20022587
0.57072993 0.19999630 0.19999630
0.59251442 0.19976718 0.19976718
0.61391929 0.19953849 0.19953849
0.63487231 0.19931022 0.19931022
0.65530776 0.19908236 0.19908236
0.67516719 0.19885490 0.19885490
0.69439985 0.19862783 0.19862783
0.71296297 0.19840114 0.19840114
0.73082185 0.19817482 0.19817482
0.74794974 0.19794887 0.19794887
0.76432757 0.19772327 0.19772327
0.77994361 0.19749803 0.19749803
0.79479292 0.19727313 0.19727313
0.80887676 0.19704857 0.19704857
0.82220203 0.19682434 0.19682434
0.20339560 0.21977978 0.20339560
0.21951456 0.21951456 0.20314501
0.23606047 0.21925673 0.20290140
0.25326676 0.21900174 0.20266050
0.27115958 0.21874866 0.20242140
0.28973175 0.21849703 0.20218370
0.30895914 0.21824661 0.20194714
0.32880536 0.21799721 0.20171156
0.34922375 0.21774872 0.20147685
0.37015858 0.21750104 0.20124292
0.39154599 0.21725410 0.20100970
0.41331497 0.21700785 0.20077714
0.43538843 0.21676224 0.20054520
0.45768436 0.21651724 0.20031383
0.48011710 0.21627280 0.20008301
0.50259876 0.21602890 0.19985272
0.52504058 0.21578553 0.19962293
0.54735442 0.21554264 0.19939361
0.56945417 0.21530024 0.19916476
0.59125703 0.21505830 0.19893635
0.61268478 0.21481681 0.19870838
0.63366481 0.21457574 0.19848083
0.65413103 0.21433511 0.19825368
0.67402453 0.21409488 0.19802693
0.69329411 0.21385505 0.19780057
0.71189654 0.21361561 0.19757459
0.72979662 0.21337656 0.19734898
0.74696715 0.21313788 0.19712374
0.76338864 0.21289956 0.19689885
0.77904891 0.21266161 0.19667432
0.79394264 0.21242402 0.19645013
0.80807075 0.21218677 0.19622628
0.82143981 0.21194987 0.19600276
0.20257620 0.23569785 0.20257620
0.21864805 0.23541922 0.20232636
0.23514833 0.23514833 0.20208349
0.25231009 0.23488042 0.20184331
0.27015977 0.23461450 0.20160494
0.28869059 0.23435010 0.20136795
0.30787883 0.23408695 0.20113211
0.32768856 0.23382486 0.20089724
0.34807357 0.23356372 0.20066324
0.36897855 0.23330341 0.20043001
0.39034003 0.23304388 0.20019750
0.41208737 0.23278506 0.19996564
0.43414379 0.23252689 0.19973440
0.45642750 0.23226935 0.19950374
0.47885303 0.23201240 0.19927362
0.50133258 0.23175600 0.19904403
0.52377739 0.23150014 0.19881493
0.54609928 0.23124478 0.19858632
0.56821197 0.23098992 0.19835816
0.59003245 0.23073553 0.19813045
0.61148221 0.23048160 0.19790317
0.63248831 0.23022812 0.19767632
0.65298426 0.22997506 0.19744986
0.67291074 0.22972243 0.19722381
0.69221609 0.22947021 0.19699814
0.71085663 0.22921838 0.19677285
0.72879671 0.22896695 0.19654794
0.74600867 0.22871591 0.19632338
0.76247258 0.22846523 0.19609919
0.77817587 0.22821493 0.19587534
0.79311281 0.22796499 0.19565184
0.80728401 0.22771540 0.19542868
0.82069571 0.22746617 0.19520585
0.20176760 0.25222144 0.20176760
0.21779282 0.25192971 0.20151851
0.23424790 0.25164608 0.20127636
0.25136555 0.25136555 0.20103690
0.26917246 0.25108709 0.20079924
0.28766225 0.25081021 0.20056296
0.30681163 0.25053462 0.20032782
0.32658509 0.25026014 0.20009366
0.34693688 0.24998663 0.19986036
0.36781210 0.24971399 0.19962783
0.38914770 0.24944214 0.19939602
0.41087338 0.24917102 0.19916486
0.43291267 0.24890058 0.19893431
0.45518402 0.24863078 0.19870435
0.47760214 0.24836158 0.19847492
0.50007931 0.24809295 0.19824602
0.52252681 0.24782487 0.19801762
0.54485638 0.24755731 0.19778969
0.56698160 0.24729025 0.19756223
0.58881927 0.24702368 0.19733521
0.61029058 0.24675757 0.19710862
0.63132226 0.24649192 0.19688244
0.65184744 0.24622671 0.19665668
0.67180639 0.24596192 0.19643131
0.69114701 0.24569756 0.19620633
0.70982516 0.24543360 0.19598172
0.72780473 0.24517004 0.19575749
0.74505762 0.24490687 0.19553362
0.76156348 0.24464408 0.19531011
0.77730931 0.24438167 0.19508694
0.79228903 0.24411962 0.19486412
0.80650289 0.24385793 0.19464164
0.81995683 0.24359660 0.19441949
0.20096676 0.26937781 0.20096676
0.21694566 0.26907338 0.20071841
0.23335583 0.26877738 0.20047698
0.25042961 0.26848460 0.20023823
0.26819397 0.26819397 0.20000128
0.28664291 0.26790498 0.19976570
0.30575355 0.26761732 0.19953127
0.32549085 0.26733079 0.19929780
0.34580946 0.26704527 0.19906520
0.36665493 0.26676064 0.19883337
0.38796460 0.26647682 0.19860225
0.40966853 0.26619376 0.19837178
0.43169054 0.26591138 0.19814193
0.45394935 0.26562966 0.19791265
0.47635983 0.26534856 0.19768392
0.49883436 0.26506804 0.19745570
0.52128425 0.26478807 0.19722798
0.54362118 0.26450864 0.19700074
0.56575859 0.26422972 0.19677396
0.58761307 0.26395129 0.19654763
0.60910556 0.26367333 0.19632172
0.63016244 0.26339584 0.19609623
0.65071647 0.26311879 0.19587115
0.67070750 0.26284217 0.19564646
0.69008300 0.26256598 0.19542216
0.70879838 0.26229020 0.19519823
0.72681709 0.26201483 0.19497468
0.74411058 0.26173984 0.19475149
0.76065805 0.26146525 0.19452865
0.77644612 0.26119103 0.19430616
0.79146833 0.26091718 0.19408402
0.80572458 0.26064370 0.19386222
0.81922050 0.26037058 0.19364074
0.20017224 0.28716280 0.20017224
0.21610506 0.28684617 0.19992462
0.23247052 0.28653828 0.19968391
0.24950060 0.28623373 0.19944587
0.26722256 0.28593140 0.19920962
0.28563075 0.28563075 0.19897475
0.30470274 0.28533148 0.19874101
0.32440390 0.28503337 0.19850824
0.34468934 0.28473629 0.19827633
0.36550501 0.28444012 0.19804520
0.38678866 0.28414478 0.19781476
0.40847071 0.28385021 0.19758499
0.43047528 0.28355634 0.19735582
0.45272135 0.28326314 0.19712723
0.47512396 0.28297057 0.19689918
0.49759559 0.28267858 0.19667165
0.52004758 0.28238717 0.19644461
0.54239155 0.28209629 0.19621805
0.56454083 0.28180592 0.19599195
0.58641180 0.28151606 0.19576630
0.60792512 0.28122667 0.19554107
0.62900685 0.28093775 0.19531626
0.64958939 0.28064929 0.19509185
0.66961218 0.28036125 0.19486784
0.68902225 0.28007365 0.19464422
0.70777456 0.27978646 0.19442097
0.72583212 0.27949967 0.19419809
0.74316592 0.27921328 0.19397557
0.75975476 0.27892728 0.19375341
0.77558484 0.27864166 0.19353160
0.79064932 0.27835641 0.19331013
0.80494776 0.27807152 0.19308900
0.81848549 0.27778700 0.19286820
0.19938320 0.30555675 0.19938320
0.21527011 0.30522852 0.19913631
0.23159103 0.30490934 0.19889631
0.24857755 0.30459360 0.19865898
0.26625720 0.30428014 0.19842343
0.28462472 0.30396841 0.19818926
0.30365809 0.30365809 0.19795621
0.32332311 0.30334896 0.19772414
0.34357533 0.30304088 0.19749292
0.36436114 0.30273373 0.19726247
0.38561866 0.30242743 0.19703272
0.40727869 0.30212190 0.19680363
0.42926565 0.30181709 0.19657515
0.45149876 0.30151296 0.19634724
0.47389325 0.30120945 0.19611987
0.49636172 0.30090655 0.19589302
0.51881553 0.30060421 0.19566667
0.54116626 0.30030242 0.19544079
0.56332710 0.30000115 0.19521537
0.58521423 0.29970038 0.19499039
0.60674807 0.29940009 0.19476584
0.62785435 0.29910027 0.19454170
0.64846510 0.29880090 0.19431797
0.66851935 0.29850197 0.19409463
0.68796370 0.29820347 0.19387168
0.70675268 0.29790538 0.19364911
0.72484883 0.29760769 0.19342690
0.74222272 0.29731041 0.19320506
0.75885271 0.29701350 0.19298357
0.77472460 0.29671698 0.19276242
0.78983118 0.29642083 0.19254162
0.80417166 0.29612505 0.19232116
0.81775106 0.29582962 0.19210103
0.19859907 0.32452900 0.19859907
0.21444023 0.32418990 0.19835291
0.23071673 0.32386014 0.19811362
0.24765979 0.32353391 0.19787699
0.26529722 0.32321002 0.19764214
0.28362411 0.32288790 0.19740866
0.30261887 0.32256721 0.19717631
0.32224774 0.32224774 0.19694493
0.34246670 0.32192934 0.19671439
0.36322254 0.32161188 0.19648463
0.38445382 0.32129527 0.19625557
0.40609166 0.32097946 0.19602716
0.42806082 0.32066436 0.19579936
0.45028076 0.32034995 0.19557213
0.47266690 0.32003617 0.19534544
0.49513194 0.31972300 0.19511927
0.51758729 0.31941040 0.19489360
0.53994448 0.31909834 0.19466839
0.56211658 0.31878680 0.19444365
0.58401959 0.31847577 0.19421934
0.60557365 0.31816521 0.19399546
0.62670418 0.31785513 0.19377200
0.64734285 0.31754549 0.19354894
0.66742828 0.31723629 0.19332628
0.68690667 0.31692752 0.19310400
0.70573207 0.31661915 0.19288209
0.72386659 0.31631119 0.19266056
0.74128037 0.31600363 0.19243938
0.75795133 0.31569645 0.19221856
0.77386487 0.31538964 0.19199809
0.78901340 0.31508320 0.19177795
0.80339579 0.31477713 0.19155816
0.81701674 0.31447140 0.19133869
0.19781945 0.34403985 0.19781945
0.21361501 0.34369074 0.19757402
0.22984719 0.34335121 0.19733544
0.24674688 0.34301531 0.19709951
0.26434213 0.34268180 0.19686536
0.28262843 0.34235009 0.19663257
0.30158458 0.34201984 0.19640091
0.32117726 0.34169082 0.19617021
0.34136288 0.34136288 0.19594036
0.36208867 0.34103589 0.19571129
0.38329356 0.34070977 0.19548291
0.40490905 0.34038444 0.19525518
0.42686022 0.34005984 0.19502806
0.44906677 0.33973592 0.19480151
0.47144432 0.33941264 0.19457550
0.49390568 0.33908996 0.19435000
0.51636229 0.33876785 0.19412500
0.53872566 0.33844628 0.19390047
0.56090873 0.33812524 0.19367640
0.58282732 0.33780469 0.19345277
0.60440130 0.33748462 0.19322956
0.62555581 0.33716502 0.19300677
0.64622213 0.33684586 0.19278438
0.66633849 0.33652713 0.19256239
0.68585066 0.33620883 0.19234078
0.70471226 0.33589093 0.19211954
0.72288496 0.33557343 0.19189867
0.74033843 0.33525632 0.19167816
0.75705019 0.33493959 0.19145801
0.77300523 0.33462323 0.19123820
0.78819559 0.33430723 0.19101873
0.80261978 0.33399158 0.19079960
0.81628221 0.33367629 0.19058080
0.19704404 0.36404160 0.19704404
0.21279411 0.36368344 0.19679934
0.22898208 0.36333510 0.19656147
0.24583846 0.36299046 0.19632624
0.26339159 0.36264824 0.19609278
0.28163731 0.36230786 0.19586068
0.30055484 0.36196895 0.19562971
0.32011128 0.36163129 0.19539970
0.34026348 0.36129472 0.19517053
0.36095910 0.36095910 0.19494214
0.38213747 0.36062435 0.19471444
0.40373045 0.36029040 0.19448739
0.42566342 0.35995717 0.19426094
0.44785636 0.35962463 0.19403507
0.47022507 0.35929272 0.19380974
0.49268249 0.35896141 0.19358491
0.51514010 0.35863067 0.19336059
0.53750936 0.35830046 0.19313673
0.55970313 0.35797078 0.19291333
0.58163700 0.35764158 0.19269037
0.60323064 0.35731286 0.19246783
0.62440885 0.35698459 0.19224571
0.64510255 0.35665677 0.19202399
0.66524960 0.35632937 0.19180266
0.68479533 0.35600239 0.19158172
0.70369291 0.35567580 0.19136115
0.72190359 0.35534961 0.19114094
0.73939659 0.35502380 0.19092110
0.75614900 0.35469835 0.19070161
0.77214541 0.35437327 0.19048246
0.78737748 0.35404855 0.19026366
0.80184338 0.35372417 0.19004519
0.81554720 0.35340013 0.18982705
0.19627262 0.38447939 0.19627262
0.21197730 0.38411327 0.19602864
0.22812114 0.38375716 0.19579147
0.24493428 0.38340481 0.19555694
0.26244531 0.38305493 0.19532417
0.28065046 0.38270689 0.19509276
0.29952934 0.38236034 0.19486248
0.31904949 0.38201505 0.19463315
0.33916819 0.38167084 0.19440467
0.35983353 0.38132760 0.19417695
0.38098523 0.38098523 0.19394993
0.40255552 0.38064364 0.19372356
0.42447010 0.38030278 0.19349779
0.44664921 0.37996260 0.19327259
0.46900885 0.37962305 0.19304793
0.49146206 0.37928409 0.19282378
0.51392040 0.37894569 0.19260012
0.53629528 0.37860782 0.19237694
0.55849945 0.37827047 0.19215420
0.58044834 0.37793359 0.19193191
0.60206135 0.37759718 0.19171004
0.62326299 0.37726122 0.19148859
0.64398383 0.37692569 0.19126753
0.66416133 0.37659058 0.19104687
0.68374039 0.37625587 0.19082659
0.70267376 0.37592155 0.19060669
0.72092223 0.37558761 0.19038715
0.73845460 0.37525405 0.19016797
0.75524752 0.37492084 0.18994914
0.77128518 0.37458798 0.18973066
0.78655886 0.37425547 0.18951251
0.80106638 0.37392329 0.18929471
0.81481152 0.37359145 0.18907723
0.19550499 0.40529200 0.19550499
0.21116438 0.40491910 0.19526173
0.22726417 0.40455637 0.19502526
0.24403411 0.40419745 0.19479142
0.26150308 0.40384101 0.19455935
0.27966765 0.40348644 0.19432863
0.29850785 0.40313337 0.19409903
0.31799165 0.40278155 0.19387038
0.33807677 0.40243082 0.19364258
0.35871170 0.40208104 0.19341554
0.37983658 0.40173214 0.19318920
0.40138401 0.40138401 0.19296350
0.42328000 0.40103661 0.19273840
0.44544506 0.40068987 0.19251388
0.46779537 0.40034375 0.19228989
0.49024413 0.39999822 0.19206641
0.51270292 0.39965324 0.19184342
0.53508314 0.39930878 0.19162091
0.55729744 0.39896482 0.19139884
0.57926107 0.39862133 0.19117721
0.60089320 0.39827830 0.19095601
0.62211801 0.39793570 0.19073522
0.64286574 0.39759353 0.19051484
0.66307345 0.39725175 0.19029484
0.68268563 0.39691037 0.19007522
0.70165460 0.39656937 0.18985598
0.71994069 0.39622873 0.18963710
0.73751226 0.39588846 0.18941858
0.75434556 0.39554853 0.18920041
0.77042436 0.39520894 0.18898259
0.78573956 0.39486968 0.18876511
0.80028863 0.39453074 0.18854796
0.81407503 0.39419212 0.18833114
0.19474099 0.42641267 0.19474099
0.21035519 0.42603426 0.19449845
0.22641099 0.42566614 0.19426269
0.24313779 0.42530187 0.19402954
0.26056471 0.42494010 0.19379816
0.27868869 0.42458020 0.19356812
0.29749018 0.42422179 0.19333920
0.31693757 0.42386464 0.19311124
0.33698901 0.42350857 0.19288411
0.35759342 0.42315345 0.19265775
0.37869133 0.42279918 0.19243209
0.40021572 0.42244569 0.19220706
0.42209291 0.42209291 0.19198264
0.44424369 0.42174079 0.19175878
0.46658444 0.42138927 0.19153546
0.48902849 0.42103833 0.19131266
0.51148747 0.42068793 0.19109034
0.53387276 0.42033803 0.19086849
0.55609691 0.41998862 0.19064709
0.57807501 0.41963967 0.19042613
0.59972598 0.41929116 0.19020559
0.62097371 0.41894308 0.18998547
0.64174809 0.41859539 0.18976574
0.66198579 0.41824810 0.18954640
0.68163088 0.41790119 0.18932745
0.70063525 0.41755464 0.18910887
0.71895879 0.41720844 0.18889065
0.73656944 0.41686258 0.18867279
0.75344298 0.41651706 0.18845528
0.76956281 0.41617187 0.18823812
0.78491944 0.41582698 0.18802130
0.79950999 0.41548241 0.18780480
0.81333761 0.41513813 0.18758864
0.19398050 0.44777007 0.19398050
0.20954960 0.44738749 0.19373869
0.22556147 0.44701530 0.19350362
0.24224516 0.44664696 0.19327117
0.25963005 0.44628113 0.19304047
0.27771344 0.44591717 0.19281112
0.29647618 0.44555470 0.19258288
0.31588708 0.44519347 0.19235559
0.33590474 0.44483332 0.19212915
0.35647850 0.44447410 0.19190346
0.37754929 0.44411573 0.19167847
0.39905046 0.44375812 0.19145412
0.42090866 0.44340121 0.19123037
0.44304493 0.44304493 0.19100718
0.46537588 0.44268926 0.19078453
0.48781496 0.44233414 0.19056239
0.51027386 0.44197954 0.19034074
0.53266395 0.44162544 0.19011955
0.55489769 0.44127180 0.18989882
0.57688999 0.44091861 0.18967852
0.59855954 0.44056584 0.18945865
0.61982994 0.44021348 0.18923918
0.64063073 0.43986151 0.18902012
0.66089819 0.43950991 0.18880145
0.68057600 0.43915868 0.18858315
0.69961558 0.43880779 0.18836523
0.71797642 0.43845723 0.18814767
0.73562598 0.43810701 0.18793047
0.75253966 0.43775709 0.18771362
0.76870041 0.43740749 0.18749711
0.78409838 0.43705818 0.18728095
0.79873035 0.43670917 0.18706511
0.81259914 0.43636043 0.18684960
0.19322341 0.46928930 0.19322341
0.20874748 0.46890394 0.19298232
0.22471549 0.46852903 0.19274795
0.24135611 0.46815797 0.19251619
0.25869897 0.46778942 0.19228618
0.27674175 0.46742272 0.19205751
0.29546570 0.46705751 0.19182995
0.31484006 0.46669352 0.19160334
0.33482384 0.46633059 0.19137757
0.35536682 0.46596859 0.19115256
0.37641034 0.46560741 0.19092824
0.39788810 0.46524698 0.19070456
0.41972710 0.46488723 0.19048148
0.44184865 0.46452810 0.19025896
0.46416955 0.46416955 0.19003697
0.48660340 0.46381154 0.18981550
0.50906197 0.46345403 0.18959451
0.53145659 0.46309700 0.18937399
0.55369964 0.46274042 0.18915392
0.57570587 0.46238427 0.18893429
0.59739374 0.46202852 0.18871508
0.61868656 0.46167316 0.18849627
0.63951352 0.46131817 0.18827787
0.65981054 0.46096354 0.18805986
0.67952085 0.46060924 0.18784222
0.69859548 0.46025528 0.18762496
0.71699344 0.45990163 0.18740806
0.73468179 0.45954830 0.18719151
0.75163548 0.45919525 0.18697532
0.76783707 0.45884250 0.18675947
0.78327631 0.45849003 0.18654395
0.79794963 0.45813782 0.18632877
0.81185954 0.45778589 0.18611392
0.19246963 0.49089299 0.19246963
0.20794875 0.49050629 0.19222925
0.22387294 0.49013004 0.19199558
0.24047052 0.48975765 0.19176451
0.25777138 0.48938774 0.19153518
0.27577353 0.48901967 0.19130720
0.29445863 0.48865306 0.19108031
0.31379637 0.48828766 0.19085438
0.33374617 0.48792330 0.19062929
0.35425825 0.48755985 0.19040495
0.37527434 0.48719721 0.19018130
0.39672852 0.48683529 0.18995829
0.41854812 0.48647403 0.18973587
0.44065471 0.48611338 0.18951402
0.46296533 0.48575328 0.18929271
0.48539370 0.48539370 0.18907190
0.50785166 0.48503461 0.18885157
0.53025055 0.48467597 0.18863171
0.55250264 0.48431776 0.18841231
0.57452254 0.48395996 0.18819333
0.59622848 0.48360255 0.18797478
0.61754347 0.48324550 0.18775664
0.63839638 0.48288880 0.18753890
0.65872273 0.48253244 0.18732154
0.67846535 0.48217640 0.18710456
0.69757484 0.48182066 0.18688796
0.71600978 0.48146523 0.18667171
0.73373678 0.48111008 0.18645582
0.75073036 0.48075521 0.18624028
0.76697269 0.48040060 0.18602509
0.78245313 0.48004626 0.18581023
0.79716775 0.47969217 0.18559570
0.81111875 0.47933832 0.18538150
0.19171907 0.51250248 0.19171907
0.20715331 0.51211588 0.19147941
0.22303375 0.51173971 0.19124643
0.23958831 0.51136736 0.19101605
0.25684716 0.51099747 0.19078740
0.27480866 0.51062940 0.19056010
0.29345488 0.51026277 0.19033390
0.31275592 0.50989733 0.19010864
0.33267165 0.50953290 0.18988422
0.35315269 0.50916936 0.18966055
0.37414119 0.50880660 0.18943757
0.39557161 0.50844455 0.18921522
0.41737160 0.50808313 0.18899348
0.43946302 0.50772229 0.18877229
0.46176311 0.50736199 0.18855164
0.48418575 0.50700219 0.18833150
0.50664285 0.50664285 0.18811183
0.52904573 0.50628394 0.18789264
0.55130661 0.50592544 0.18767389
0.57333991 0.50556733 0.18745558
0.59506365 0.50520958 0.18723769
0.61640057 0.50485217 0.18702020
0.63727920 0.50449510 0.18680312
0.65763467 0.50413833 0.18658642
0.67740941 0.50378187 0.18637010
0.69655359 0.50342569 0.18615414
0.71502535 0.50306979 0.18593855
0.73279086 0.50271416 0.18572332
0.74982423 0.50235878 0.18550844
0.76610721 0.50200365 0.18529389
0.78162877 0.50164875 0.18507969
0.79638464 0.50129409 0.18486581
0.81037669 0.50093965 0.18465226
0.19097166 0.53403897 0.19097166
0.20636109 0.53365391 0.19073271
0.22219782 0.53327920 0.19050043
0.23870940 0.53290829 0.19027073
0.25592624 0.53253980 0.19004277
0.27384708 0.53217310 0.18981615
0.29245436 0.53180781 0.18959062
0.31171863 0.53144369 0.18936604
0.33160017 0.53108055 0.18914229
0.35205005 0.53071827 0.18891929
0.37301081 0.53035675 0.18869698
0.39441729 0.52999590 0.18847530
0.41619746 0.52963567 0.18825422
0.43827349 0.52927599 0.18803370
0.46056281 0.52891683 0.18781371
0.48297947 0.52855814 0.18759423
0.50543544 0.52819990 0.18737523
0.52784206 0.52784206 0.18715669
0.55011144 0.52748460 0.18693860
0.57215789 0.52712751 0.18672095
0.59389919 0.52677076 0.18650372
0.61525779 0.52641432 0.18628689
0.63616190 0.52605820 0.18607046
0.65654628 0.52570237 0.18585442
0.67635295 0.52534681 0.18563875
0.69553165 0.52499152 0.18542345
0.71404007 0.52463648 0.18520852
0.73184398 0.52428169 0.18499394
0.74891703 0.52392712 0.18477970
0.76524056 0.52357278 0.18456581
0.78080318 0.52321866 0.18435226
0.79560025 0.52286475 0.18413903
0.80963332 0.52251104 0.18392613
0.19022734 0.55542472 0.19022734
0.20557203 0.55504260 0.18998910
0.22136509 0.55467074 0.18975751
0.23783371 0.55430262 0.18952850
0.25500855 0.55393689 0.18930122
0.27288869 0.55357290 0.18907527
0.29145700 0.55321029 0.18885042
0.31068441 0.55284881 0.18862651
0.33053167 0.55248829 0.18840343
0.35095025 0.55212861 0.18818110
0.37188311 0.55176965 0.18795946
0.39326547 0.55141134 0.18773845
0.41502563 0.55105362 0.18751803
0.43708603 0.55069643 0.18729818
0.45936435 0.55033972 0.18707885
0.48177477 0.54998347 0.18686003
0.50422936 0.54962763 0.18664169
0.52663944 0.54927217 0.18642381
0.54891708 0.54891708 0.18620638
0.57097641 0.54856232 0.18598939
0.59273501 0.54820788 0.18577281
0.61411506 0.54785373 0.18555664
0.63504443 0.54749987 0.18534086
0.65545751 0.54714628 0.18512547
0.67529591 0.54679294 0.18491046
0.69450896 0.54643984 0.18469582
0.71305390 0.54608697 0.18448153
0.73089606 0.54573433 0.18426760
0.74800868 0.54538189 0.18405402
0.76437269 0.54502965 0.18384078
0.77997630 0.54467761 0.18362788
0.79481453 0.54432575 0.18341530
0.80888858 0.54397407 0.18320305
0.18948604 0.57658417 0.18948604
0.20478606 0.57620637 0.18924852
0.22053550 0.57583868 0.18901762
0.23696119 0.57547466 0.18878930
0.25409403 0.57511298 0.18856270
0.27193345 0.57475301 0.18833743
0.29046272 0.57439438 0.18811325
0.30965321 0.57403684 0.18789001
0.32946608 0.57368023 0.18766760
0.34985323 0.57332442 0.18744594
0.37075804 0.57296931 0.18722496
0.39211609 0.57261483 0.18700461
0.41385603 0.57226090 0.18678486
0.43590059 0.57190747 0.18656567
0.45816767 0.57155451 0.18634700
0.48057160 0.57120196 0.18612884
0.50302454 0.57084981 0.18591116
0.52543783 0.57049801 0.18569394
0.54772345 0.57014655 0.18547717
0.56979541 0.56979541 0.18526083
0.59157106 0.56944455 0.18504491
0.61297232 0.56909397 0.18482939
0.63392672 0.56874365 0.18461427
0.65436829 0.56839357 0.18439953
0.67423824 0.56804372 0.18418517
0.69348546 0.56769409 0.18397118
0.71206678 0.56734466 0.18375755
0.72994707 0.56699543 0.18354427
0.74709916 0.56664639 0.18333134
0.76350356 0.56629753 0.18311875
0.77914810 0.56594884 0.18290649
0.79402742 0.56560031 0.18269456
0.80814243 0.56525194 0.18248296
0.18874773 0.59744503 0.18874773
0.20400313 0.59707283 0.18851091
0.21970899 0.59671057 0.18828070
0.23609177 0.59635191 0.18805306
0.25318261 0.59599553 0.18782714
0.27098129 0.59564081 0.18760255
0.28947148 0.59528739 0.18737904
0.30862496 0.59493503 0.18715647
0.32840333 0.59458356 0.18693473
0.34875893 0.59423286 0.18671374
0.36963552 0.59388282 0.18649342
0.39096908 0.59353338 0.18627374
0.41268861 0.59318447 0.18605465
0.43471711 0.59283603 0.18583612
0.45697270 0.59248802 0.18561811
0.47936990 0.59214041 0.18540061
0.50182094 0.59179317 0.18518359
0.52423717 0.59144625 0.18496703
0.54653051 0.59109965 0.18475091
0.56861483 0.59075333 0.18453523
0.59040728 0.59040728 0.18431996
0.61182951 0.59006148 0.18410509
0.63280872 0.58971592 0.18389063
0.65327857 0.58937057 0.18367654
0.67317988 0.58902543 0.18346283
0.69246111 0.58868048 0.18324949
0.71107866 0.58833572 0.18303651
0.72899696 0.58799113 0.18282388
0.74618841 0.58764671 0.18261160
0.76263311 0.58730244 0.18239966
0.77831851 0.58695832 0.18218805
0.79323890 0.58661433 0.18197677
0.80739484 0.58627048 0.18176581
0.18801234 0.61793918 0.18801234
0.20322320 0.61757381 0.18777623
0.21888552 0.61721816 0.18754671
0.23522541 0.61686603 0.18731976
0.25227424 0.61651612 0.18709451
0.27003215 0.61616781 0.18687059
0.28848321 0.61582076 0.18664776
0.30759961 0.61547473 0.18642586
0.32734338 0.61512955 0.18620479
0.34766729 0.61478511 0.18598446
0.36851551 0.61444130 0.18576481
0.38982441 0.61409805 0.18554579
0.41152331 0.61375530 0.18532736
0.43353552 0.61341300 0.18510949
0.45577940 0.61307110 0.18489214
0.47816961 0.61272958 0.18467529
0.50061849 0.61238838 0.18445893
0.52303740 0.61204750 0.18424302
0.54533820 0.61170690 0.18402756
0.56743463 0.61136656 0.18381253
0.58924363 0.61102646 0.18359792
0.61068659 0.61068659 0.18338371
0.63169039 0.61034693 0.18316989
0.65218832 0.61000746 0.18295646
0.67212080 0.60966818 0.18274340
0.69143587 0.60932907 0.18253071
0.71008950 0.60899012 0.18231837
0.72804568 0.60865132 0.18210639
0.74527639 0.60831266 0.18189476
0.76176132 0.60797414 0.18168346
0.77748752 0.60763573 0.18147250
