luts/cubes/documentary.cube
TITLE "documentary"
LUT_3D_SIZE 5
DOMAIN_MIN 0.0 0.0 0.0
DOMAIN_MAX 1.0 1.0 1.0
0.20424030 0.20424030 0.20424030
0.35040768 0.20231561 0.20231561
0.52633848 0.20045590 0.20045590
0.69439985 0.19862783 0.19862783
0.82220203 0.19682434 0.19682434
0.19781945 0.34403985 0.19781945
0.34136288 0.34136288 0.19594036
0.51636229 0.33876785 0.19412500
0.68585066 0.33620883 0.19234078
0.81628221 0.33367629 0.19058080
0.19171907 0.51250248 0.19171907
0.33267165 0.50953290 0.18988422
0.50664285 0.50664285 0.18811183
0.67740941 0.50378187 0.18637010
0.81037669 0.50093965 0.18465226
0.18582334 0.67662008 0.18582334
0.32417984 0.67401433 0.18403207
0.49701769 0.67146857 0.18230202
0.66893884 0.66893884 0.18060211
0.80438937 0.66641621 0.17892575
0.18010629 0.80564745 0.18010629
0.31585747 0.80377988 0.17835805
0.48745863 0.80194974 0.17666979
0.66041472 0.80012566 0.17501116
0.79830124 0.79830124 0.17337571
0.20361543 0.20361543 0.34431194
0.34953204 0.20169513 0.34163395
0.52537877 0.19983970 0.33903792
0.69358242 0.19801586 0.33647789
0.82163864 0.19621657 0.33394435
0.19720935 0.34317172 0.33534325
0.34049799 0.34049799 0.33269963
0.51540098 0.33790616 0.33013744
0.68502074 0.33535035 0.32761132
0.81570427 0.33282103 0.32511182
0.19112331 0.51154076 0.32672925
0.33181769 0.50857094 0.32412042
0.50568071 0.50568071 0.32159247
0.67656770 0.50281963 0.31910058
0.80978451 0.49997737 0.31663543
0.18524170 0.67577730 0.31831678
0.32333711 0.67316804 0.31574361
0.49605545 0.67061889 0.31325071
0.66808586 0.66808586 0.31079385
0.80378301 0.66555998 0.30836381
0.17953860 0.80504405 0.31007587
0.31502629 0.80317209 0.30753926
0.48649700 0.80133768 0.30508226
0.65955095 0.79950937 0.30266122
0.79768076 0.79768076 0.30026707
0.20299198 0.20299198 0.51792375
0.34865741 0.20107608 0.51495594
0.52441887 0.19922492 0.51206724
0.69276377 0.19740531 0.50920725
0.82107386 0.19561021 0.50636565
0.19660068 0.34230463 0.50793603
0.33963417 0.33963417 0.50496550
0.51443956 0.33704555 0.50207483
0.68418963 0.33449296 0.49921355
0.81512492 0.33196688 0.49637132
0.19052896 0.51057895 0.49821181
0.33096483 0.50760891 0.49524091
0.50471854 0.50471854 0.49235054
0.67572485 0.50185737 0.48949020
0.80919090 0.49901509 0.48664953
0.18466147 0.67493338 0.48858819
0.32249553 0.67232062 0.48561915
0.49509325 0.66976811 0.48273123
0.66723177 0.66723177 0.47987394
0.80317523 0.66470265 0.47703694
0.17897230 0.80443923 0.47903685
0.31419630 0.80256289 0.47607182
0.48553547 0.80072421 0.47318845
0.65868612 0.79889167 0.47033629
0.79705885 0.79705885 0.46750498
0.20236996 0.20236996 0.68731333
0.34778380 0.20045845 0.68475360
0.52345880 0.19861157 0.68225216
0.69194391 0.19679617 0.67976587
0.82050768 0.19500527 0.67728594
0.19599342 0.34143860 0.67865763
0.33877141 0.33877141 0.67606044
0.51347803 0.33618602 0.67352292
0.68335734 0.33363666 0.67100126
0.81454417 0.33111383 0.66848655
0.18993602 0.50961706 0.67011607
0.33011309 0.50664682 0.66748367
0.50375632 0.50375632 0.66491226
0.67488086 0.50089510 0.66235743
0.80859589 0.49805281 0.65981015
0.18408264 0.67408832 0.66154967
0.32165511 0.67147207 0.65888371
0.49413108 0.66891621 0.65628004
0.66637659 0.66637659 0.65369367
0.80256603 0.66384425 0.65111546
0.17840741 0.80383298 0.65293400
0.31336750 0.80195226 0.65023605
0.48457405 0.80010931 0.64760168
0.65782024 0.79827254 0.64498534
0.79643552 0.79643552 0.64237777
0.20174936 0.20174936 0.81808869
0.34691121 0.19984224 0.81631341
0.52249855 0.19799963 0.81457320
0.69112283 0.19618846 0.81283825
0.81994010 0.19440175 0.81110248
0.19538759 0.34057362 0.81206322
0.33790972 0.33790972 0.81024277
0.51251640 0.33532757 0.80845854
0.68252388 0.33278146 0.80667996
0.81396201 0.33026189 0.80490078
0.18934450 0.50865510 0.80605431
0.32926245 0.50568469 0.80418969
0.50279408 0.50279408 0.80236243
0.67403573 0.49993282 0.80054121
0.80799946 0.49709056 0.79871963
0.18350522 0.67324212 0.79996419
0.32081583 0.67062241 0.79805570
0.49316895 0.66806320 0.79618570
0.66552031 0.66552031 0.79432215
0.80195542 0.66298475 0.79245850
0.17784391 0.80322532 0.79377365
0.31253988 0.80134021 0.79182146
0.48361274 0.79949299 0.78990893
0.65695331 0.79765199 0.78800327
0.79581076 0.79581076 0.78609778
