luts/cubes/film_noir.cube
TITLE "film_noir"
LUT_3D_SIZE 5
DOMAIN_MIN 0.0 0.0 0.0
DOMAIN_MAX 1.0 1.0 1.0
0.10909682 0.10909682 0.10909682
0.13431873 0.12514927 0.12514927
0.17369375 0.14866188 0.14866188
0.22326424 0.17659095 0.17659095
0.28336349 0.20913076 0.20913076
0.17121467 0.18305305 0.17121467
0.20745345 0.20745345 0.19441258
0.26178436 0.24214909 0.22755340
0.32655954 0.28182737 0.26567848
0.40014012 0.32607946 0.30848407
0.28777580 0.32722830 0.28777580
0.33860606 0.36232341 0.32065635
0.40953624 0.40953624 0.36555219
0.48676427 0.45999444 0.41439445
0.56609853 0.51226732 0.46595676
0.44649664 0.51949934 0.44649664
0.50546549 0.55810895 0.48515885
0.58066217 0.60656643 0.53495020
0.65439617 0.65439617 0.58553732
0.72258606 0.70011888 0.63529280
0.62004699 0.70931970 0.62004699
0.67402499 0.74030151 0.65592834
0.73693060 0.77677100 0.69943583
0.79298342 0.81037754 0.74079997
0.84049415 0.84049415 0.77895289
0.11588861 0.11588861 0.12705699
0.14242968 0.13279145 0.14532103
0.18367789 0.15748139 0.17187887
0.23528641 0.18670400 0.20312898
0.29738283 0.22060804 0.23913867
0.18108754 0.19344922 0.19713819
0.21886415 0.21886415 0.22290382
0.27514599 0.25485451 0.25933793
0.34169701 0.29580208 0.30071514
0.41657852 0.34120595 0.34650207
0.30192147 0.34238101 0.32443906
0.35400840 0.37818771 0.35939483
0.42608647 0.42608647 0.40646930
0.50377271 0.47693672 0.45684198
0.58273161 0.52924796 0.50909436
0.46336837 0.53645602 0.48948392
0.52246218 0.57481827 0.52831552
0.59713427 0.62268219 0.57756724
0.66961986 0.66961986 0.62675306
0.73601772 0.71420809 0.67431277
0.63594198 0.72314758 0.65982469
0.68879522 0.75316842 0.69380462
0.74990811 0.78834760 0.73446159
0.80393148 0.82061381 0.77257279
0.84940677 0.84940677 0.80726568
0.12343256 0.12343256 0.14863361
0.15140548 0.14125991 0.16939735
0.19466307 0.16722078 0.19932903
0.24841885 0.19782630 0.23415879
0.31256453 0.23317102 0.27377938
0.19195422 0.20487213 0.22751413
0.23135729 0.23135729 0.25598403
0.28966048 0.26869537 0.29576721
0.35798835 0.31093880 0.34028634
0.43408585 0.35748659 0.38874888
0.31723026 0.35868719 0.36550038
0.37055631 0.39517445 0.40224600
0.44368951 0.44368951 0.45098188
0.52166792 0.49482925 0.50220337
0.60004004 0.54705048 0.55434885
0.48122017 0.55421556 0.53489462
0.54029843 0.59222525 0.57328329
0.61424076 0.63935904 0.62120614
0.68527072 0.68527072 0.66822960
0.74969890 0.72860280 0.71292502
0.65235996 0.73725766 0.69938886
0.70393932 0.76624305 0.73102776
0.76310112 0.80005349 0.76839213
0.81497775 0.83091789 0.80294008
0.85834246 0.85834246 0.83399596
0.13130750 0.13130750 0.17287022
0.16073782 0.15007749 0.19623933
0.20601442 0.17732424 0.22960280
0.26188550 0.20931416 0.26795214
0.32799099 0.24608173 0.31096893
0.20318747 0.21665864 0.26067494
0.24419956 0.24419956 0.29172733
0.30445717 0.28284754 0.33456753
0.37443556 0.32632310 0.38176094
0.45157015 0.37392418 0.43225997
0.33277552 0.37514775 0.40814685
0.38723266 0.41223313 0.44616509
0.46124535 0.46124535 0.49580850
0.53931800 0.51254428 0.54704825
0.61692185 0.56454578 0.59825405
0.49892918 0.57165081 0.57926177
0.55784373 0.60922209 0.61661320
0.63089189 0.65553398 0.66253436
0.70035156 0.70035156 0.70684844
0.76276132 0.74238785 0.74830087
0.66825436 0.75075349 0.73581463
0.71849309 0.77869695 0.76490845
0.77567340 0.81115002 0.79886125
0.82542675 0.84064270 0.82987055
0.86674290 0.86674290 0.85743585
0.13858602 0.13858602 0.19669439
0.16932971 0.15820697 0.22241809
0.21640243 0.18660559 0.25879924
0.27411811 0.21982250 0.30012534
0.34188117 0.25783401 0.34586688
0.21347126 0.22742964 0.29232328
0.25589246 0.25589246 0.32548597
0.31782206 0.29566707 0.37068904
0.38915363 0.34017841 0.41976354
0.46705646 0.38863463 0.47145608
0.34676377 0.38987636 0.44687748
0.40213040 0.42742179 0.48554375
0.47677501 0.47677501 0.53533352
0.55476953 0.52810808 0.58591122
0.63154874 0.57981041 0.63564974
0.51451593 0.58684864 0.61729441
0.57316567 0.62396378 0.65329035
0.64529206 0.66947644 0.69697731
0.71327344 0.71327344 0.73855333
0.77386089 0.75413337 0.77693737
0.68193176 0.76223975 0.76542640
0.73093321 0.78925694 0.79218021
0.78633808 0.82051837 0.82310519
0.83423160 0.84882067 0.85107362
0.87378256 0.87378256 0.87571798
