luts/cubes/film_noir.cube
TITLE "film_noir"
LUT_3D_SIZE 9
DOMAIN_MIN 0.0 0.0 0.0
DOMAIN_MAX 1.0 1.0 1.0
0.10909682 0.10909682 0.10909682
0.11829801 0.11506640 0.11506640
0.13431873 0.12514927 0.12514927
0.15277335 0.13636172 0.13636172
0.17369375 0.14866188 0.14866188
0.19716719 0.16206295 0.16206295
0.22326424 0.17659095 0.17659095
0.25200984 0.19227282 0.19227282
0.28336349 0.20913076 0.20913076
0.13031606 0.13391114 0.13031606
0.14102358 0.14102358 0.13726782
0.15956499 0.15298777 0.14896863
0.18076399 0.16622047 0.16192015
0.20459176 0.18065058 0.17605577
0.23107314 0.19627046 0.19137115
0.26020345 0.21308516 0.20787468
0.29191761 0.23109827 0.22557359
0.32607192 0.25030543 0.24446757
0.17121467 0.18305305 0.17121467
0.18456948 0.19219636 0.17989688
0.20745345 0.20745345 0.19441258
0.23324894 0.22415046 0.21033854
0.26178436 0.24214909 0.22755340
0.29294212 0.26139003 0.24601106
0.32655954 0.28182737 0.26567848
0.36239949 0.30341100 0.28651876
0.40014012 0.32607946 0.30848407
0.22356699 0.24746670 0.22356699
0.23982367 0.25880814 0.23415392
0.26731258 0.27753633 0.25170390
0.29775484 0.29775484 0.27074576
0.33077740 0.31923186 0.29108214
0.36607470 0.34183503 0.31260741
0.40329766 0.36545008 0.33523176
0.44203159 0.38996050 0.35886164
0.48179866 0.41524066 0.38339278
0.28777580 0.32722830 0.28777580
0.30685620 0.34057088 0.30022759
0.33860606 0.36232341 0.32065635
0.37303373 0.38542346 0.34252683
0.40953624 0.40953624 0.36555219
0.44761656 0.43445288 0.38955831
0.48676427 0.45999444 0.41439445
0.52644212 0.48598942 0.43991178
0.56609853 0.51226732 0.46595676
0.36297338 0.41979421 0.36297338
0.38434903 0.43447367 0.37695681
0.41926699 0.45805772 0.39962496
0.45623856 0.48264169 0.42352367
0.49446179 0.50781108 0.44828143
0.53330651 0.53330651 0.47366437
0.57218557 0.55891620 0.49947524
0.61054325 0.58445107 0.52553002
0.64786775 0.60973748 0.55165136
0.44649664 0.51949934 0.44649664
0.46916839 0.53445373 0.46136735
0.50546549 0.55810895 0.48515885
0.54293183 0.58229311 0.50982902
0.58066217 0.60656643 0.53495020
0.61800042 0.63066687 0.56025719
0.65439617 0.65439617 0.58553732
0.68938428 0.67759207 0.61060476
0.72258606 0.70011888 0.63529280
0.53396335 0.61856228 0.53396335
0.55661017 0.63261391 0.54885851
0.59212614 0.65450571 0.57236744
0.62786070 0.67647243 0.59633566
0.66293276 0.69811030 0.62032503
0.69677100 0.71919905 0.64407720
0.72895333 0.73958895 0.66739930
0.75917124 0.75917124 0.69013572
0.78721592 0.77786667 0.71215840
0.62004699 0.70931970 0.62004699
0.64132059 0.72153310 0.63407629
0.67402499 0.74030151 0.65592834
0.70614514 0.75882336 0.67784913
0.73693060 0.77677100 0.69943583
0.76596275 0.79398640 0.72046906
0.79298342 0.81037754 0.74079997
0.81784665 0.82588985 0.76032071
0.84049415 0.84049415 0.77895289
0.11221607 0.11221607 0.11716849
0.12164441 0.11833365 0.12351850
0.13804737 0.12866120 0.13422966
0.15692141 0.14013790 0.14611977
0.17829031 0.15271844 0.15913794
0.20223291 0.16641370 0.17329114
0.22880936 0.18124736 0.18859913
0.25803173 0.19724368 0.20508178
0.28984427 0.21442176 0.22275306
0.13395078 0.13763026 0.13971146
0.14490719 0.14490719 0.14707966
0.16386179 0.15714058 0.15946226
0.18550564 0.17066011 0.17314049
0.20979838 0.18538994 0.18803587
0.23675309 0.20131892 0.20413522
0.26635142 0.21844857 0.22143807
0.29851254 0.23677865 0.23994199
0.33307551 0.25630055 0.25963598
0.17575957 0.18784098 0.18293849
0.18938789 0.19716573 0.19207743
0.21271343 0.21271343 0.20732750
0.23896576 0.22971108 0.22401723
0.26795615 0.24801348 0.24200850
0.29955041 0.26755589 0.26124212
0.33356842 0.28828715 0.28167231
0.36975524 0.31015185 0.30324908
0.40777199 0.33308313 0.32591110
0.22911741 0.25341682 0.23784683
0.24565000 0.26493495 0.24889321
0.27356640 0.28393665 0.26716253
0.30442495 0.30442495 0.28692544
0.33783139 0.32615963 0.30796390
0.37346135 0.34900185 0.33015617
0.41094850 0.37283154 0.35339762
0.44986326 0.39752688 0.37758069
0.48971651 0.42295747 0.40258793
0.29431606 0.33424441 0.30454818
0.31363914 0.34772520 0.31740228
0.34574075 0.36967851 0.33843448
0.38047653 0.39295852 0.36087340
0.41722269 0.41722269 0.38441098
0.45546640 0.44225671 0.40885746
0.49468583 0.46787749 0.43404914
0.53433712 0.49391050 0.45982642
0.57386756 0.52018326 0.48602731
0.37033401 0.42753378 0.38177918
0.39187648 0.44227758 0.39603669
0.42700399 0.46593622 0.41908044
0.46411257 0.49056028 0.44328359
0.50238599 0.51573097 0.46825819
0.54118681 0.54118681 0.49375995
0.57992649 0.56671541 0.51958487
0.61805342 0.59212826 0.54554530
0.65506479 0.61725344 0.57146327
0.45434300 0.52740618 0.46646111
0.47706976 0.54233128 0.48141842
0.51338696 0.56591134 0.50527396
0.55078651 0.58998220 0.52991417
0.58836006 0.61410481 0.55490466
0.62545500 0.63801905 0.57997835
0.66152950 0.66152950 0.60492422
0.69613078 0.68447747 0.62956092
0.72889502 0.70673141 0.65372868
0.54184209 0.62601252 0.55392484
0.56441837 0.63994946 0.56869734
0.59975863 0.66163794 0.59194107
0.63523643 0.68337056 0.61554910
0.66997874 0.70474844 0.63908769
0.70342608 0.72555578 0.66230508
0.73517055 0.74564733 0.68501689
0.76491886 0.76491886 0.70707756
0.79247719 0.78329547 0.72837007
0.62748570 0.71581170 0.63881539
0.64857886 0.72785698 0.65254003
0.68095069 0.74634900 0.67385661
0.71267932 0.76457670 0.69516602
0.74302935 0.78221907 0.71607838
0.77159704 0.79912297 0.73638592
0.79813865 0.81520056 0.75595131
0.82252129 0.83040088 0.77467805
0.84469795 0.84469795 0.79249872
0.11588861 0.11588861 0.12705699
0.12558187 0.12217886 0.13386165
0.14242968 0.13279145 0.14532103
0.16179041 0.14457543 0.15801430
0.18367789 0.15748139 0.17187887
0.20816071 0.17151731 0.18691332
0.23528641 0.18670400 0.20312898
0.26505169 0.20306247 0.22053633
0.29738283 0.22060804 0.23913867
0.13822389 0.14200151 0.15117669
0.14946950 0.14946950 0.15903777
0.16890300 0.16201507 0.17222383
0.19106057 0.17586647 0.18675351
0.21588793 0.19094221 0.20253316
0.24338404 0.20722689 0.21953814
0.27351429 0.22471779 0.23775654
0.30617935 0.24341010 0.25717364
0.34119824 0.26329013 0.27776510
0.18108754 0.19344922 0.19713819
0.19503122 0.20298279 0.20680695
0.21886415 0.21886415 0.22290382
0.24563874 0.23620584 0.24046706
0.27514599 0.25485451 0.25933793
0.30723220 0.27473902 0.27944106
0.34169701 0.29580208 0.30071514
0.37826514 0.31798209 0.32309453
0.41657852 0.34120595 0.34650207
0.23560052 0.26035528 0.25497850
0.25244772 0.27207385 0.26654227
0.28084902 0.29138460 0.28561445
0.31217603 0.31217603 0.30617206
0.34600993 0.33419822 0.32797266
0.38200485 0.35730490 0.35087574
0.41977500 0.38136940 0.37475972
0.45887447 0.40626393 0.39950142
0.49880221 0.43185281 0.42496923
0.30192147 0.34238101 0.32443906
0.32151638 0.35601449 0.33772500
0.35400840 0.37818771 0.35939483
0.38908085 0.40166210 0.38242014
0.42608647 0.42608647 0.40646930
0.46449509 0.45124053 0.43133565
0.50377271 0.47693672 0.45684198
0.54336915 0.50299731 0.48281809
0.58273161 0.52924796 0.50909436
0.37884922 0.43645256 0.40378554
0.40057191 0.45126148 0.41830880
0.43592014 0.47499141 0.44170072
0.47316372 0.49964631 0.46616194
0.51147115 0.52480295 0.49128802
0.55019782 0.55019782 0.51682497
0.58875482 0.57561821 0.54256333
0.62659640 0.60087664 0.56831370
0.66323102 0.62580348 0.59389976
0.46336837 0.53645602 0.48948392
0.48614437 0.55133845 0.50448143
0.52246218 0.57481827 0.52831552
0.55976235 0.59874542 0.55282378
0.59713427 0.62268219 0.57756724
0.63393048 0.64637097 0.60227930
0.66961986 0.66961986 0.62675306
0.70376444 0.69227447 0.65081428
0.73601772 0.71420809 0.67431277
0.55085092 0.63448276 0.57659925
0.57333283 0.64828140 0.59117504
0.60845157 0.66972701 0.61402955
0.64361669 0.69118258 0.63714303
0.67796546 0.71225510 0.66008958
0.71095256 0.73273404 0.68262685
0.74218669 0.75247936 0.70458155
0.77139195 0.77139195 0.72582041
0.79839145 0.78940186 0.74623945
0.63594198 0.72314758 0.65982469
0.65681819 0.73499703 0.67315946
0.68879522 0.75316842 0.69380462
0.72006443 0.77105639 0.71436314
0.74990811 0.78834760 0.73446159
0.77793963 0.80489447 0.75390615
0.80393148 0.82061381 0.77257279
0.82776541 0.83545875 0.79037777
0.84940677 0.84940677 0.80726568
0.11962247 0.11962247 0.13752784
0.12958226 0.12608648 0.14480026
0.14687661 0.13698552 0.15702628
0.16672430 0.14907771 0.17053796
0.18912865 0.16230932 0.18525960
0.21414742 0.17668530 0.20118015
0.24181501 0.19222341 0.21830122
0.27211231 0.20894124 0.23662269
0.30494736 0.22685018 0.25613604
0.14256134 0.14643736 0.16326351
0.15409673 0.15409673 0.17162602
0.17400876 0.16695445 0.18562541
0.19667763 0.18113685 0.20101115
0.22203456 0.19655663 0.21767305
0.25006386 0.21319397 0.23557370
0.28071424 0.23104174 0.25468855
0.31386768 0.25009039 0.27498960
0.34932318 0.27032109 0.29643828
0.18647899 0.19911922 0.21198200
0.20073605 0.20885986 0.22217731
0.22507119 0.22507119 0.23910990
0.25235979 0.24275185 0.25752689
0.28237220 0.26174023 0.27724785
0.31493496 0.28195870 0.29818040
0.34982753 0.30334376 0.32024706
0.38675457 0.32582761 0.34336627
0.42533957 0.34933098 0.36744524
0.24213508 0.26733631 0.27269820
0.25929104 0.27925046 0.28475844
0.28816546 0.29886145 0.30459277
0.31994550 0.31994550 0.32589322
0.35418785 0.34224307 0.34839294
0.39052549 0.36560054 0.37193280
0.42855390 0.38988481 0.39637488
0.46781179 0.41496235 0.42158142
0.50778744 0.44069245 0.44740807
0.30955058 0.35051913 0.34475220
0.32940699 0.36429715 0.35842864
0.36227064 0.38667648 0.38066334
0.39765776 0.41033008 0.40419151
0.43489843 0.43489843 0.42865950
0.47344610 0.46015560 0.45384534
0.51275588 0.48590994 0.47956023
0.55227257 0.51198092 0.50562560
0.59144461 0.53819271 0.53186663
0.38734360 0.44531256 0.42593437
0.40923245 0.46017662 0.44066547
0.44477786 0.48396189 0.46430966
0.48213138 0.50863132 0.48892646
0.52044762 0.53375775 0.51409792
0.55907614 0.55907614 0.53956296
0.59742893 0.58437380 0.56510930
0.63496721 0.60946467 0.59054830
0.67121150 0.63418169 0.61570764
0.47231682 0.54538146 0.51229441
0.49512684 0.56021225 0.52726898
0.53142171 0.58357842 0.55098257
0.56859990 0.60734934 0.57525993
0.60575000 0.63108909 0.59966096
0.64223076 0.65454289 0.62392214
0.67752256 0.67752256 0.64784281
0.71120265 0.69987815 0.67125759
0.74294188 0.72148785 0.69402713
0.55972666 0.64277758 0.59870842
0.58210134 0.65643263 0.61303390
0.61698051 0.67762838 0.63542003
0.65181798 0.69880150 0.65796608
0.68576222 0.71956507 0.68025665
0.71828254 0.73971388 0.70206031
0.74900423 0.75911306 0.72321576
0.77766854 0.77766854 0.74360244
0.80411499 0.79531519 0.76312938
0.64422225 0.73028562 0.67999986
0.66487386 0.74193859 0.69291183
0.69644717 0.75978955 0.71284156
0.72725199 0.77733954 0.73261450
0.75658843 0.79428282 0.75187478
0.78408677 0.81047722 0.77044277
0.80953527 0.82584409 0.78820745
0.83282965 0.84034041 0.80509721
0.85394696 0.85394696 0.82106773
0.12343256 0.12343256 0.14863361
0.13366142 0.13007204 0.15638681
0.15140548 0.14125991 0.16939735
0.17174197 0.15366223 0.18374150
0.19466307 0.16722078 0.19932903
0.22021513 0.18193730 0.21613790
0.24841885 0.19782630 0.23415879
0.27923882 0.21490177 0.25337974
0.31256453 0.23317102 0.27377938
0.14698008 0.15095508 0.17602336
0.15880679 0.15880679 0.18489502
0.17919851 0.17197762 0.19971580
0.20237782 0.18649120 0.21595974
0.22826083 0.20225420 0.23349862
0.25681666 0.21924220 0.25228101
0.28797690 0.23744351 0.27226868
0.32160457 0.25684366 0.29341935
0.35747871 0.27741856 0.31567962
0.19195422 0.20487213 0.22751413
0.20652362 0.21481871 0.23823063
0.23135729 0.23135729 0.25598403
0.25915317 0.24937286 0.27523059
0.28966048 0.26869537 0.29576721
0.32268579 0.28924061 0.31748379
0.35798835 0.31093880 0.34028634
0.39525315 0.33371593 0.36407739
0.43408585 0.35748659 0.38874888
0.24874479 0.27438488 0.29103604
0.26620457 0.28649033 0.30356877
0.29554169 0.30639362 0.32411957
0.32776065 0.32776065 0.34610592
0.36239370 0.35032229 0.36923676
0.39905301 0.37391771 0.39333484
0.43731598 0.39840749 0.41824678
0.47670694 0.42365256 0.44382154
0.51670471 0.44950749 0.46990380
0.31723026 0.35868719 0.36550038
0.33733860 0.37260208 0.37952317
0.37055631 0.39517445 0.40224600
0.40623722 0.41899276 0.42619019
0.44368951 0.44368951 0.45098188
0.48235128 0.46903348 0.47638570
0.52166792 0.49482925 0.50220337
0.56108054 0.52089389 0.52825027
0.60004004 0.54705048 0.55434885
0.39584677 0.45414497 0.44822617
0.41788838 0.46905455 0.46310629
0.45360834 0.49287972 0.48690641
0.49104758 0.51754782 0.51157713
0.52934811 0.54262830 0.53669014
0.56785499 0.56785499 0.56197997
0.60598234 0.59301563 0.58723403
0.64319938 0.61792590 0.61226680
0.67903946 0.64242160 0.63691213
0.48122017 0.55421556 0.53489462
0.50404945 0.56898592 0.54978511
0.54029843 0.59222525 0.57328329
0.57733249 0.61582751 0.59723630
0.61424076 0.63935904 0.62120614
0.65038931 0.66256819 0.64493475
0.68527072 0.68527072 0.66822960
0.71847782 0.70732120 0.69093554
0.74969890 0.72860280 0.71292502
0.56850255 0.65093044 0.62027241
0.59075733 0.66443654 0.63429829
0.62537899 0.68537517 0.65614427
0.65987368 0.70626004 0.67805806
0.69340199 0.72671053 0.69963696
0.72544821 0.74652679 0.72066175
0.75565430 0.76557913 0.74098368
0.78377839 0.78377839 0.76049506
0.80967594 0.80106415 0.77911762
0.65235996 0.73725766 0.69938886
0.67277914 0.74871306 0.71185001
0.70393932 0.76624305 0.73102776
0.73427391 0.78345592 0.74998765
0.76310112 0.80005349 0.76839213
0.79006786 0.81589891 0.78607575
0.81497775 0.83091789 0.80294008
0.83773992 0.84507111 0.81892487
0.85834246 0.85834246 0.83399596
0.12732605 0.12732605 0.16040657
0.13782684 0.13414291 0.16865224
0.15602428 0.14562232 0.18246249
0.17685187 0.15833703 0.19764970
0.20029003 0.17222413 0.21410763
0.22637309 0.18728195 0.23180194
0.25510747 0.20352159 0.25071113
0.28644100 0.22095325 0.27081033
0.32024435 0.23957996 0.29206436
0.15148798 0.15556266 0.18948296
0.16360785 0.16360785 0.19886926
0.18448086 0.17709303 0.21451540
0.20817014 0.19193824 0.23161469
0.23457609 0.20804391 0.25001953
0.26365207 0.22538081 0.26966332
0.29531211 0.24393252 0.29049311
0.32940007 0.26367953 0.31245167
0.36567505 0.28459233 0.33547030
0.19752209 0.21071698 0.24374627
0.21240301 0.22086851 0.25497497
0.23773184 0.23773184 0.27352814
0.26602850 0.25607841 0.29357330
0.29702068 0.27572964 0.31488396
0.33049473 0.29659460 0.33733182
0.36618972 0.31859718 0.36080631
0.40377132 0.34165715 0.38519434
0.44282810 0.36568301 0.41037338
0.25543919 0.28151076 0.30998159
0.27319799 0.29380330 0.32295852
0.30298759 0.31399106 0.34417325
0.33563154 0.33563154 0.36678172
0.37063773 0.35844609 0.39046922
0.40759788 0.38226672 0.41504122
0.44607200 0.40694789 0.44033010
0.48557105 0.43234521 0.46617314
0.52556558 0.45830879 0.49240601
0.32497052 0.36689542 0.38664969
0.34532135 0.38093959 0.40097112
0.37887568 0.40369206 0.42410037
0.41482973 0.42766074 0.44836967
0.45247052 0.45247052 0.47338716
0.49122182 0.47788520 0.49890617
0.53052048 0.50370596 0.52472127
0.56980519 0.52974786 0.55064418
0.60853060 0.55583325 0.57649710
0.40436917 0.46296071 0.47061190
0.42655029 0.47790631 0.48558117
0.46242249 0.50175620 0.50944034
0.49992359 0.52640741 0.53406440
0.53818436 0.55142651 0.55901786
0.57654662 0.57654662 0.58403354
0.61442780 0.60155628 0.60890097
0.65130615 0.62627325 0.63343996
0.68672853 0.65053644 0.65749233
0.49008960 0.56297039 0.55723748
0.51292363 0.57767172 0.57198504
0.54910421 0.60077132 0.59517771
0.58597248 0.62419283 0.61871911
0.62261945 0.64750525 0.64217643
0.65841947 0.67046036 0.66529918
0.69287803 0.69287803 0.68790452
0.72560388 0.71461749 0.70984861
0.75630272 0.73556689 0.73101631
0.57719085 0.65895469 0.64126454
0.59931335 0.67230662 0.65494638
0.63366005 0.69298109 0.67618859
0.66779728 0.71357208 0.69741405
0.70089854 0.73370543 0.71823470
0.73246353 0.75318676 0.73844435
0.76215085 0.77189146 0.75790718
0.78973526 0.78973526 0.77652821
0.81508766 0.80666227 0.79424142
0.66036850 0.74407768 0.71799576
0.68054763 0.75533440 0.72998339
0.71128550 0.77254281 0.74838087
0.74114419 0.78941928 0.76650824
0.76946008 0.80567314 0.78404674
0.79589657 0.82117276 0.80084490
0.82027218 0.83584806 0.81681626
0.84250888 0.84966326 0.83191109
0.86260520 0.86260520 0.84610444
0.13130750 0.13130750 0.17287022
0.14208318 0.13830374 0.18161799
0.16073782 0.15007749 0.19623933
0.18205889 0.16310694 0.21227551
0.20601442 0.17732424 0.22960280
0.23262609 0.19272416 0.24817329
0.26188550 0.20931416 0.26795214
0.29372327 0.22710050 0.28890060
0.32799099 0.24608173 0.31096893
0.15608982 0.16026490 0.20365784
0.16850475 0.16850475 0.21356130
0.18986068 0.18230557 0.23003144
0.21405946 0.19748288 0.24797707
0.24098511 0.21393062 0.26722993
0.27057467 0.23161462 0.28770720
0.30272424 0.25051350 0.30934042
0.33725831 0.27060259 0.33205690
0.37391615 0.29184683 0.35577248
0.20318747 0.21665864 0.26067494
0.21837905 0.22701408 0.27240260
0.24419956 0.24419956 0.29172733
0.27299037 0.26287314 0.31253243
0.30445717 0.28284754 0.33456753
0.33836590 0.30402503 0.35768602
0.37443556 0.32632310 0.38176094
0.41231291 0.34965533 0.40666424
0.45157015 0.37392418 0.43225997
0.26222294 0.28871841 0.32950610
0.28027583 0.30119374 0.34289422
0.31050748 0.32165802 0.36471307
0.34356227 0.34356227 0.38787280
0.37892386 0.36661843 0.41203609
0.41616391 0.39065145 0.43699226
0.45482581 0.41550985 0.46256100
0.49440815 0.44104413 0.48856979
0.53437447 0.46710024 0.51484747
0.33277552 0.37514775 0.40814685
0.35335927 0.38931356 0.42271576
0.38723266 0.41223313 0.44616509
0.42343911 0.43633786 0.47066512
0.46124535 0.46124535 0.49580850
0.50006179 0.48671477 0.52133961
0.53931800 0.51254428 0.54704825
0.57845151 0.53854727 0.57274497
0.61692185 0.56454578 0.59825405
0.41291465 0.47176368 0.49302485
0.43522200 0.48673591 0.50802289
0.47122421 0.51059550 0.53184471
0.50876357 0.53521448 0.55632360
0.54696091 0.56015707 0.58102017
0.58515608 0.58515608 0.60566815
0.62277101 0.61000122 0.63006147
0.65929386 0.63451261 0.65402714
0.69428568 0.65853253 0.67741659
0.49892918 0.57165081 0.57926177
0.52175364 0.58627472 0.59381047
0.55784373 0.60922209 0.61661320
0.59452508 0.63245113 0.63966275
0.63089189 0.65553398 0.66253436
0.66632772 0.67822606 0.68498689
0.70035156 0.70035156 0.70684844
0.73258841 0.72177444 0.72798724
0.76276132 0.74238785 0.74830087
0.58579663 0.66685681 0.66164700
0.60777484 0.68004958 0.67494553
0.64182969 0.70045319 0.69552890
0.67559537 0.72074499 0.71601904
0.70825908 0.74055747 0.73604402
0.73933617 0.75970170 0.75541129
0.76850190 0.77805815 0.77399799
0.79554734 0.79554734 0.79172147
0.82035836 0.81211777 0.80852735
0.66825436 0.75075349 0.73581463
0.68818618 0.76181058 0.74731138
0.71849309 0.77869695 0.76490845
0.74787060 0.79523783 0.78219166
0.77567340 0.81115002 0.79886125
0.80158113 0.82630697 0.81477928
0.82542675 0.84064270 0.82987055
0.84714455 0.85412481 0.84409499
0.86674290 0.86674290 0.85743585
0.13538020 0.13538020 0.18604192
0.14643376 0.14255782 0.19529883
0.16554939 0.15462874 0.21073796
0.18736619 0.16797523 0.22762339
0.21183921 0.18252433 0.24581254
0.23897683 0.19826701 0.26524269
0.26875527 0.21520696 0.28586467
0.30108753 0.23334625 0.30762506
0.33580591 0.25267885 0.33045901
0.16078890 0.16506510 0.21855552
0.17350075 0.17350075 0.22897512
0.19534111 0.18761842 0.24626177
0.22004867 0.20312816 0.26503774
0.24749044 0.21991723 0.28511300
0.27758664 0.23794630 0.30638764
0.31021504 0.25718890 0.32877714
0.34518061 0.27761501 0.35219310
0.38220296 0.29918396 0.37653610
0.20895336 0.22269997 0.27828593
0.22445461 0.23325818 0.29049459
0.25076300 0.25076300 0.31055498
0.28004091 0.26975934 0.33207327
0.31197167 0.29005110 0.35477511
0.34630063 0.31153364 0.37849571
0.38272685 0.33411804 0.40309228
0.42087863 0.35771167 0.42842281
0.46031263 0.38221106 0.45433936
0.26909833 0.29600977 0.34956857
0.28744015 0.30866344 0.36333013
0.31810302 0.32939601 0.38568610
0.35155411 0.35155411 0.40931954
0.38725301 0.37484034 0.43387190
0.42475182 0.39907275 0.45911789
0.46357805 0.42409406 0.48486632
0.50321901 0.44974995 0.51093695
0.54313244 0.47588250 0.53715412
0.34064665 0.38344514 0.42992727
0.36145352 0.39772484 0.44468949
0.39562811 0.42079838 0.46836880
0.43206604 0.44502474 0.49300275
0.47001462 0.47001462 0.51817129
0.50887200 0.49552289 0.54361237
0.54806163 0.52134506 0.56911346
0.58702114 0.54729325 0.59448630
0.62521613 0.57318952 0.61955955
0.42148391 0.48055456 0.51539043
0.44390417 0.49554405 0.53035710
0.48001416 0.51939848 0.55404679
0.51756837 0.54397014 0.57828529
0.55567899 0.56882139 0.60263257
0.59368516 0.59368516 0.62682573
0.63101439 0.61835265 0.65066512
0.66716567 0.64264664 0.67398668
0.70171480 0.66641304 0.69665262
0.50773970 0.58025837 0.60090256
0.53054045 0.59479673 0.61520006
0.56651836 0.61757974 0.63753497
0.60299222 0.64060505 0.66002021
0.63906066 0.66344832 0.68224156
0.67411734 0.68586887 0.70396877
0.70769533 0.70769533 0.72504178
0.73943606 0.72879650 0.74534132
0.76907988 0.74907052 0.76477772
0.59432167 0.67464012 0.68138110
0.61614394 0.68766903 0.69426241
0.64989073 0.70779552 0.71414064
0.68327149 0.72778323 0.73385753
0.71548779 0.74727146 0.75305845
0.74607093 0.76607676 0.77156477
0.77471272 0.78408462 0.78926638
0.80122025 0.80122025 0.80609246
0.82549385 0.81743641 0.82199946
0.67602087 0.75729010 0.75283888
0.69569856 0.76814676 0.76383256
0.72556648 0.78471087 0.78061686
0.75445808 0.80091717 0.79705164
0.78174646 0.81648987 0.81285605
0.80712721 0.83130738 0.82790513
0.83044730 0.84530766 0.84213415
0.85165276 0.85846155 0.85551176
0.87076128 0.87076128 0.86802842
0.13858602 0.13858602 0.19669439
0.14985597 0.14590493 0.20634698
0.16932971 0.15820697 0.22241809
0.19153035 0.17179954 0.23995488
0.21640243 0.18660559 0.25879924
0.24394369 0.20261303 0.27887634
0.27411811 0.21982250 0.30012534
0.30682484 0.23823273 0.32248107
0.34188117 0.25783401 0.34586688
0.16448195 0.16883660 0.23054238
0.17742403 0.17742403 0.24135695
0.19963896 0.19178686 0.25926404
0.22473831 0.20755315 0.27866485
0.25257553 0.22460488 0.29935188
0.28305750 0.24289858 0.32121161
0.31604763 0.26240377 0.34414690
0.35133577 0.28308621 0.36805727
0.38862648 0.30490082 0.39283186
0.21347126 0.22742964 0.29232328
0.22921055 0.23814338 0.30488761
0.25589246 0.25589246 0.32548597
0.28554102 0.27513469 0.34751735
0.31782206 0.29566707 0.37068904
0.35246501 0.31737961 0.39482257
0.38915363 0.34017841 0.41976354
0.42750237 0.36396607 0.44536005
0.46705646 0.38863463 0.47145608
0.27446545 0.30169209 0.36538121
0.29302643 0.31448016 0.37940215
0.32401425 0.33541387 0.40212244
0.35776082 0.35776082 0.42606452
0.39370731 0.38121648 0.45085464
0.43139111 0.40559365 0.47625751
0.47032803 0.43073076 0.50207489
0.50999742 0.45646991 0.52812220
0.54985341 0.48265044 0.55422188
0.34676377 0.38987636 0.44687748
0.36773589 0.40423854 0.46175030
0.40213040 0.42742179 0.48554375
0.43873246 0.45173207 0.51021409
0.47677501 0.47677501 0.53533352
0.51564752 0.50230246 0.56063678
0.55476953 0.52810808 0.58591122
0.59357960 0.55400328 0.61097107
0.63154874 0.57981041 0.63564974
0.42811013 0.48732716 0.53256236
0.45060832 0.50232361 0.54746434
0.48678628 0.52616400 0.57098914
0.52433606 0.55068898 0.59497995
0.56236411 0.57545985 0.61899841
0.60020986 0.60020986 0.64278579
0.63730586 0.62473162 0.66614864
0.67316001 0.64885014 0.68893070
0.70735984 0.67241427 0.71100316
0.51451593 0.58684864 0.61729441
0.53728886 0.60131557 0.63136492
0.57316567 0.62396378 0.65329035
0.60946578 0.64682452 0.67529600
0.64529206 0.66947644 0.69697731
0.68004652 0.69168203 0.71811325
0.71327344 0.71327344 0.73855333
0.74462703 0.73412321 0.75818803
0.77386089 0.75413337 0.77693737
0.60084302 0.68056429 0.69613899
0.62253729 0.69346376 0.70867874
0.65603578 0.71337249 0.72798690
0.68911093 0.73312256 0.74708698
0.72097582 0.75235861 0.76563827
0.75117419 0.77090142 0.78347290
0.77941056 0.78864035 0.80049035
0.80550410 0.80550410 0.81662846
0.82936600 0.82144867 0.83185144
0.68193176 0.76223975 0.76542640
0.70140901 0.77294139 0.77602676
0.73093321 0.78925694 0.79218021
0.75944713 0.80520597 0.80796184
0.78633808 0.82051837 0.82310519
0.81131374 0.83507630 0.83749486
0.83423160 0.84882067 0.85107362
0.85504639 0.86172470 0.86381620
0.87378256 0.87378256 0.87571798
