luts/cubes/film_noir.cube
TITLE "film_noir"
LUT_3D_SIZE 33
DOMAIN_MIN 0.0 0.0 0.0
DOMAIN_MAX 1.0 1.0 1.0
0.10909682 0.10909682 0.10909682
0.10909682 0.10909682 0.10909682
0.11130774 0.11054448 0.11054448
0.11469970 0.11274887 0.11274887
0.11829801 0.11506640 0.11506640
0.12206855 0.11747285 0.11747285
0.12599873 0.11995846 0.11995846
0.13008295 0.12251822 0.12251822
0.13431873 0.12514927 0.12514927
0.13870526 0.12784993 0.12784993
0.14324267 0.13061921 0.13061921
0.14793168 0.13345655 0.13345655
0.15277335 0.13636172 0.13636172
0.15776896 0.13933468 0.13933468
0.16291994 0.14237554 0.14237554
0.16822771 0.14548451 0.14548451
0.17369375 0.14866188 0.14866188
0.17931944 0.15190801 0.15190801
0.18510613 0.15522328 0.15522328
0.19105502 0.15860812 0.15860812
0.19716719 0.16206295 0.16206295
0.20344356 0.16558821 0.16558821
0.20988488 0.16918434 0.16918434
0.21649167 0.17285178 0.17285178
0.22326424 0.17659095 0.17659095
0.23020267 0.18040226 0.18040226
0.23730677 0.18428610 0.18428610
0.24457607 0.18824284 0.18824284
0.25200984 0.19227282 0.19227282
0.25960700 0.19637634 0.19637634
0.26736619 0.20055369 0.20055369
0.27528570 0.20480509 0.20480509
0.28336349 0.20913076 0.20913076
0.10909682 0.10909682 0.10909682
0.10909682 0.10909682 0.10909682
0.11130774 0.11054448 0.11054448
0.11469970 0.11274887 0.11274887
0.11829801 0.11506640 0.11506640
0.12206855 0.11747285 0.11747285
0.12599873 0.11995846 0.11995846
0.13008295 0.12251822 0.12251822
0.13431873 0.12514927 0.12514927
0.13870526 0.12784993 0.12784993
0.14324267 0.13061921 0.13061921
0.14793168 0.13345655 0.13345655
0.15277335 0.13636172 0.13636172
0.15776896 0.13933468 0.13933468
0.16291994 0.14237554 0.14237554
0.16822771 0.14548451 0.14548451
0.17369375 0.14866188 0.14866188
0.17931944 0.15190801 0.15190801
0.18510613 0.15522328 0.15522328
0.19105502 0.15860812 0.15860812
0.19716719 0.16206295 0.16206295
0.20344356 0.16558821 0.16558821
0.20988488 0.16918434 0.16918434
0.21649167 0.17285178 0.17285178
0.22326424 0.17659095 0.17659095
0.23020267 0.18040226 0.18040226
0.23730677 0.18428610 0.18428610
0.24457607 0.18824284 0.18824284
0.25200984 0.19227282 0.19227282
0.25960700 0.19637634 0.19637634
0.26736619 0.20055369 0.20055369
0.27528570 0.20480509 0.20480509
0.28336349 0.20913076 0.20913076
0.11403386 0.11481810 0.11403386
0.11403386 0.11481810 0.11403386
0.11633177 0.11633177 0.11553853
0.11985617 0.11863617 0.11782932
0.12359367 0.12105820 0.12023712
0.12750859 0.12357246 0.12273671
0.13158767 0.12616869 0.12531789
0.13582490 0.12884156 0.12797538
0.14021751 0.13158804 0.13070616
0.14476447 0.13440630 0.13350844
0.14946569 0.13729523 0.13638111
0.15432171 0.14025420 0.13932356
0.15933341 0.14328288 0.14233547
0.16450189 0.14638116 0.14541674
0.16982836 0.14954908 0.14856742
0.17531407 0.15278678 0.15178767
0.18096026 0.15609450 0.15507772
0.18676812 0.15947253 0.15843787
0.19273872 0.16292118 0.16186845
0.19887304 0.16644080 0.16536983
0.20517189 0.17003177 0.16894237
0.21163590 0.17369443 0.17258645
0.21826552 0.17742918 0.17630245
0.22506097 0.18123635 0.18009074
0.23202224 0.18511631 0.18395168
0.23914904 0.18906937 0.18788561
0.24644084 0.19309584 0.19189284
0.25389680 0.19719601 0.19597367
0.26151579 0.20137011 0.20012834
0.26929635 0.20561837 0.20435710
0.27723670 0.20994095 0.20866014
0.28533471 0.21433800 0.21303760
0.29358792 0.21880961 0.21748959
0.12180875 0.12389445 0.12180875
0.12180875 0.12389445 0.12180875
0.12424137 0.12551080 0.12340173
0.12797070 0.12797070 0.12582624
0.13192330 0.13055507 0.12837368
0.13606111 0.13323667 0.13101723
0.14036977 0.13600443 0.13374599
0.14484262 0.13885256 0.13655431
0.14947643 0.14177771 0.13943888
0.15426976 0.14477782 0.14239771
0.15922220 0.14785160 0.14542955
0.16433396 0.15099826 0.14853365
0.16960560 0.15421734 0.15170957
0.17503791 0.15750859 0.15495710
0.18063178 0.16087193 0.15827621
0.18638810 0.16430742 0.16166693
0.19230778 0.16781515 0.16512944
0.19839161 0.17139530 0.16866391
0.20464029 0.17504809 0.17227058
0.21105437 0.17877375 0.17594973
0.21763422 0.18257251 0.17970162
0.22438003 0.18644464 0.18352653
0.23129174 0.19039036 0.18742473
0.23836908 0.19440992 0.19139648
0.24561151 0.19850353 0.19544202
0.25301821 0.20267136 0.19956158
0.26058805 0.20691360 0.20375536
0.26831963 0.21123036 0.20802352
0.27621119 0.21562174 0.21236618
0.28426067 0.22008780 0.21678344
0.29246565 0.22462855 0.22127536
0.30082335 0.22924397 0.22584195
0.30933065 0.23393396 0.23048315
0.13031606 0.13391114 0.13031606
0.13031606 0.13391114 0.13031606
0.13289286 0.13563794 0.13200357
0.13684130 0.13826494 0.13457114
0.14102358 0.14102358 0.13726782
0.14539902 0.14388463 0.14006509
0.14995206 0.14683611 0.14295130
0.15467531 0.14987172 0.14592034
0.15956499 0.15298777 0.14896863
0.16461921 0.15618192 0.15209394
0.16983718 0.15945268 0.15529484
0.17521870 0.16279907 0.15857044
0.18076399 0.16622047 0.16192015
0.18647343 0.16971648 0.16534365
0.19234754 0.17328689 0.16884078
0.19838683 0.17693160 0.17241147
0.20459176 0.18065058 0.17605577
0.21096270 0.18444387 0.17977375
0.21749989 0.18831155 0.18356554
0.22420341 0.19225371 0.18743129
0.23107314 0.19627046 0.19137115
0.23810872 0.20036189 0.19538528
0.24530958 0.20452810 0.19947382
0.25267487 0.20876917 0.20363692
0.26020345 0.21308516 0.20787468
0.26789392 0.21747608 0.21218719
0.27574453 0.22194195 0.21657450
0.28375322 0.22648270 0.22103664
0.29191761 0.23109827 0.22557359
0.30023494 0.23578853 0.23018528
0.30870214 0.24055330 0.23487162
0.31731574 0.24539236 0.23963245
0.32607192 0.25030543 0.24446757
0.13950858 0.14482488 0.13950858
0.13950858 0.14482488 0.13950858
0.14223742 0.14666858 0.14129579
0.14641662 0.14947228 0.14401411
0.15084041 0.15241498 0.14686791
0.15546530 0.15546530 0.14982684
0.16027444 0.15861032 0.15287844
0.16525962 0.16184318 0.15601613
0.17041644 0.16515977 0.15923600
0.17574251 0.16855748 0.16253557
0.18123656 0.17203457 0.16591323
0.18689797 0.17558986 0.16936788
0.19272651 0.17922252 0.17289882
0.19872214 0.18293200 0.17650556
0.20488492 0.18671791 0.18018780
0.21121491 0.19057998 0.18394536
0.21771209 0.19451805 0.18777813
0.22437635 0.19853197 0.19168607
0.23120740 0.20262167 0.19566918
0.23820479 0.20678709 0.19972747
0.24536784 0.21102815 0.20386095
0.25269562 0.21534479 0.20806965
0.26018697 0.21973694 0.21235357
0.26784041 0.22420449 0.21671270
0.27565419 0.22874732 0.22114701
0.28362624 0.23336528 0.22565642
0.29175415 0.23805816 0.23024084
0.30003520 0.24282574 0.23490013
0.30846631 0.24766773 0.23963410
0.31704403 0.25258380 0.24444252
0.32576459 0.25757358 0.24932511
0.33462382 0.26263662 0.25428155
0.34361722 0.26777243 0.25931143
0.14938260 0.15664075 0.14938260
0.14938260 0.15664075 0.14938260
0.15227040 0.15860698 0.15127406
0.15669055 0.16159567 0.15414989
0.16136607 0.16473082 0.15716766
0.16625049 0.16797877 0.16029511
0.17132558 0.17132558 0.16351892
0.17658221 0.17476378 0.16683199
0.18201531 0.17828883 0.17023005
0.18762189 0.18189779 0.17371037
0.19340018 0.18558864 0.17727109
0.19934904 0.18935997 0.18091095
0.20546775 0.19321075 0.18462904
0.21175579 0.19714021 0.18842473
0.21821270 0.20114778 0.19229756
0.22483801 0.20523300 0.19624720
0.23163119 0.20939552 0.20027339
0.23859157 0.21363502 0.20437595
0.24571829 0.21795124 0.20855471
0.25301032 0.22234391 0.21280954
0.26046636 0.22681280 0.21714030
0.26808487 0.23135764 0.22154686
0.27586403 0.23597816 0.22602907
0.28380171 0.24067407 0.23058674
0.29189549 0.24544503 0.23521969
0.30014262 0.25029069 0.23992766
0.30853999 0.25521063 0.24471039
0.31708418 0.26020441 0.24956755
0.32577139 0.26527152 0.25449879
0.33459750 0.27041143 0.25950368
0.34355800 0.27562351 0.26458177
0.35264803 0.28090711 0.26973251
0.36186240 0.28626150 0.27495534
0.15994696 0.16937659 0.15994696
0.15994696 0.16937659 0.15994696
0.16299985 0.17147018 0.16194671
0.16766985 0.17465095 0.16498600
0.17260592 0.17798561 0.16817373
0.17775846 0.18143814 0.17147563
0.18310770 0.18499349 0.17487746
0.18864353 0.18864353 0.17837159
0.19436013 0.19238328 0.18195337
0.20025389 0.19620941 0.18561975
0.20632240 0.20011963 0.18936865
0.21256400 0.20411223 0.19319857
0.21897739 0.20818596 0.19710842
0.22556149 0.21233983 0.20109740
0.23231529 0.21657303 0.20516485
0.23923776 0.22088492 0.20931029
0.24632776 0.22527490 0.21353328
0.25358401 0.22974248 0.21783347
0.26100505 0.23428717 0.22221055
0.26858918 0.23890851 0.22666419
0.27633449 0.24360603 0.23119409
0.28423874 0.24837928 0.23579995
0.29229945 0.25322775 0.24048143
0.30051379 0.25815093 0.24523819
0.30887863 0.26314828 0.25006983
0.31739052 0.26821920 0.25497594
0.32604564 0.27336306 0.25995604
0.33483985 0.27857918 0.26500964
0.34376864 0.28386682 0.27013616
0.35282718 0.28922519 0.27533500
0.36201027 0.29465345 0.28060548
0.37131237 0.30015069 0.28594688
0.38072760 0.30571594 0.29135841
0.17121467 0.18305305 0.17121467
0.17121467 0.18305305 0.17121467
0.17443797 0.18527798 0.17332623
0.17936544 0.18865655 0.17653409
0.18456948 0.19219636 0.17989688
0.18999714 0.19585886 0.18337820
0.19562704 0.19962788 0.18696289
0.20144803 0.20349457 0.19064270
0.20745345 0.20745345 0.19441258
0.21363895 0.21150081 0.19826916
0.22000151 0.21563401 0.20221010
0.22653880 0.21985107 0.20623366
0.23324894 0.22415046 0.21033854
0.24013022 0.22853092 0.21452372
0.24718101 0.23299143 0.21878837
0.25439965 0.23753109 0.22313180
0.26178436 0.24214909 0.22755340
0.26933322 0.24684468 0.23205263
0.27704408 0.25161716 0.23662897
0.28491459 0.25646584 0.24128195
0.29294212 0.26139003 0.24601106
0.30112375 0.26638901 0.25081580
0.30945627 0.27146207 0.25569566
0.31793615 0.27660845 0.26065007
0.32655954 0.28182737 0.26567848
0.33532227 0.28711798 0.27078024
0.34421980 0.29247942 0.27595469
0.35324727 0.29791075 0.28120112
0.36239949 0.30341100 0.28651876
0.37167091 0.30897912 0.29190679
0.38105567 0.31461402 0.29736432
0.39054758 0.32031454 0.30289042
0.40014012 0.32607946 0.30848407
0.18319945 0.19768909 0.18319945
0.18319945 0.19768909 0.18319945
0.18659757 0.20004835 0.18542575
0.19178874 0.20362895 0.18880640
0.19726657 0.20737788 0.19234835
0.20297467 0.21125403 0.19601305
0.20888996 0.21524000 0.19978429
0.21500011 0.21932623 0.20365324
0.22129757 0.22350668 0.20761440
0.22777722 0.22777722 0.21166407
0.23443531 0.23213486 0.21579959
0.24126883 0.23657729 0.22001898
0.24827523 0.24110268 0.22432070
0.25545212 0.24570951 0.22870351
0.26279721 0.25039649 0.23316637
0.27030815 0.25516245 0.23770838
0.27798248 0.26000634 0.24232873
0.28581758 0.26492717 0.24702667
0.29381061 0.26992396 0.25180150
0.30195850 0.27499579 0.25665251
0.31025788 0.28014170 0.26157902
0.31870514 0.28536075 0.26658031
0.32729632 0.29065196 0.27165567
0.33602718 0.29601433 0.27680432
0.34489314 0.30144681 0.28202549
0.35388930 0.30694831 0.28731834
0.36301042 0.31251771 0.29268198
0.37225096 0.31815383 0.29811549
0.38160503 0.32385542 0.30361788
0.39106644 0.32962120 0.30918812
0.40062868 0.33544981 0.31482509
0.41028494 0.34133983 0.32052765
0.42002816 0.34728981 0.32629456
0.19591376 0.21329930 0.19591376
0.19591376 0.21329930 0.19591376
0.19949012 0.21579475 0.19825707
0.20494959 0.21957983 0.20181370
0.21070532 0.22354000 0.20553784
0.21669731 0.22763147 0.20938867
0.22290067 0.23183563 0.21334897
0.22930186 0.23614211 0.21740925
0.23589234 0.24054432 0.22156353
0.24266616 0.24503768 0.22580774
0.24961878 0.24961878 0.23013893
0.25674646 0.25428500 0.23455483
0.26404590 0.25903419 0.23905365
0.27151402 0.26386452 0.24363390
0.27914779 0.26877441 0.24829432
0.28694415 0.27376242 0.25303377
0.29489991 0.27882723 0.25785124
0.30301173 0.28396756 0.26274576
0.31127603 0.28918219 0.26771640
0.31968899 0.29446992 0.27276224
0.32824655 0.29982955 0.27788238
0.33694431 0.30525984 0.28307589
0.34577763 0.31075958 0.28834183
0.35474151 0.31632749 0.29367922
0.36383067 0.32196226 0.29908705
0.37303952 0.32766256 0.30456426
0.38236213 0.33342699 0.31010976
0.39179228 0.33925411 0.31572240
0.40132347 0.34514243 0.32140095
0.41094888 0.35109040 0.32714417
0.42066143 0.35709642 0.33295074
0.43045378 0.36315883 0.33881926
0.44031833 0.36927591 0.34474829
0.20936751 0.22989184 0.20936751
0.20936751 0.22989184 0.20936751
0.21312437 0.23252403 0.21182935
0.21885495 0.23651405 0.21556399
0.22489074 0.24068543 0.21947210
0.23116798 0.24499171 0.22351055
0.23765991 0.24941296 0.22766103
0.24435167 0.25393801 0.23191338
0.25123370 0.25855968 0.23626114
0.25829914 0.26327290 0.24069984
0.26554261 0.26807387 0.24522619
0.27295959 0.27295959 0.24983764
0.28054599 0.27792756 0.25453211
0.28829797 0.28297566 0.25930787
0.29621175 0.28810198 0.26416340
0.30428352 0.29330481 0.26909733
0.31250933 0.29858251 0.27410840
0.32088509 0.30393355 0.27919542
0.32940648 0.30935643 0.28435722
0.33806894 0.31484965 0.28959267
0.34686763 0.32041175 0.29490063
0.35579748 0.32604123 0.30027994
0.36485308 0.33173660 0.30572944
0.37402875 0.33749632 0.31124792
0.38331852 0.34331882 0.31683415
0.39271613 0.34920249 0.32248684
0.40221501 0.35514570 0.32820466
0.41180834 0.36114674 0.33398624
0.42148901 0.36720387 0.33983016
0.43124968 0.37331529 0.34573491
0.44108275 0.37947917 0.35169897
0.45098042 0.38569361 0.35772073
0.46093468 0.39195664 0.36379854
0.22356699 0.24746670 0.22356699
0.22356699 0.24746670 0.22356699
0.22750533 0.25023474 0.22614803
0.23350784 0.25442791 0.23006143
0.23982367 0.25880814 0.23415392
0.24638523 0.26332622 0.23838002
0.25316378 0.26796092 0.24272031
0.26014312 0.27270022 0.24716392
0.26731258 0.27753633 0.25170390
0.27466433 0.28246369 0.25633535
0.28219213 0.28747806 0.26105464
0.28989059 0.29257605 0.26585889
0.29775484 0.29775484 0.27074576
0.30578023 0.30301194 0.27571322
0.31396220 0.30834515 0.28075949
0.32229616 0.31375243 0.28588297
0.33077740 0.31923186 0.29108214
0.33940107 0.32478161 0.29635555
0.34816208 0.33039990 0.30170182
0.35705514 0.33608496 0.30711957
0.36607470 0.34183503 0.31260741
0.37521494 0.34764836 0.31816397
0.38446980 0.35352318 0.32378785
0.39383291 0.35945770 0.32947760
0.40329766 0.36545008 0.33523176
0.41285715 0.37149846 0.34104882
0.42250427 0.37760096 0.34692723
0.43223161 0.38375564 0.35286539
0.44203159 0.38996050 0.35886164
0.45189637 0.39621352 0.36491430
0.46181796 0.40251265 0.37102159
0.47178816 0.40885574 0.37718170
0.48179866 0.41524066 0.38339278
0.23851401 0.26601430 0.23851401
0.23851401 0.26601430 0.23851401
0.24263338 0.26891566 0.24121401
0.24890642 0.27330776 0.24530547
0.25549991 0.27789188 0.24958123
0.26234236 0.28261608 0.25399343
0.26940299 0.28745780 0.25852150
0.27666417 0.29240420 0.26315387
0.28411409 0.29744684 0.26788304
0.29174393 0.30257963 0.27270371
0.29954652 0.30779792 0.27761185
0.30751560 0.31309792 0.28260428
0.31564545 0.31847642 0.28767833
0.32393062 0.32393062 0.29283171
0.33236573 0.32945797 0.29806237
0.34094543 0.33505614 0.30336841
0.34966422 0.34072290 0.30874809
0.35851649 0.34645613 0.31419971
0.36749643 0.35225375 0.31972162
0.37659802 0.35811373 0.32531220
0.38581501 0.36403404 0.33096984
0.39514092 0.37001266 0.33669292
0.40456901 0.37604755 0.34247981
0.41409230 0.38213667 0.34832882
0.42370361 0.38827795 0.35423828
0.43339548 0.39446928 0.36020644
0.44316028 0.40070854 0.36623154
0.45299016 0.40699356 0.37231175
0.46287708 0.41332215 0.37844521
0.47281287 0.41969206 0.38463001
0.48278918 0.42610103 0.39086418
0.49279756 0.43254675 0.39714573
0.50282947 0.43902687 0.40347259
0.25420516 0.28551414 0.25420516
0.25420516 0.28551414 0.25420516
0.25850352 0.28854458 0.25702282
0.26504329 0.29312873 0.26129010
0.27190949 0.29790901 0.26574637
0.27902670 0.30283079 0.27034139
0.28636204 0.30787021 0.27505345
0.29389644 0.31301355 0.27987024
0.30161690 0.31825175 0.28478372
0.30951356 0.32357821 0.28978813
0.31757829 0.32898781 0.29487909
0.32580395 0.33447637 0.30005306
0.33418397 0.34004032 0.30530708
0.34271206 0.34567650 0.31063854
0.35138206 0.35138206 0.31604511
0.36018780 0.35715433 0.32152465
0.36912307 0.36299082 0.32707513
0.37818150 0.36888908 0.33269460
0.38735657 0.37484679 0.33838117
0.39664158 0.38086163 0.34413297
0.40602962 0.38693131 0.34994816
0.41551358 0.39305356 0.35582488
0.42508614 0.39922610 0.36176125
0.43473978 0.40544666 0.36775538
0.44446677 0.41171293 0.37380536
0.45425922 0.41802258 0.37990925
0.46410905 0.42437330 0.38606504
0.47400805 0.43076270 0.39227072
0.48394786 0.43718840 0.39852422
0.49392003 0.44364799 0.40482345
0.50391599 0.45013901 0.41116624
0.51392716 0.45665901 0.41755040
0.52394487 0.46320549 0.42397372
0.27063105 0.30593384 0.27063105
0.27063105 0.30593384 0.27063105
0.27510471 0.30908725 0.27356400
0.28190479 0.31385379 0.27800315
0.28903602 0.31881961 0.28263539
0.29641901 0.32392747 0.28740813
0.30401878 0.32915221 0.29229851
0.31181475 0.33447927 0.29729345
0.31979274 0.33989896 0.30238437
0.32794181 0.34540416 0.30756507
0.33625287 0.35098932 0.31283077
0.34471790 0.35664984 0.31817759
0.35332944 0.36238179 0.32360225
0.36208041 0.36818170 0.32910184
0.37096386 0.37404637 0.33467375
0.37997285 0.37997285 0.34031556
0.38910044 0.38595834 0.34602499
0.39833957 0.39200015 0.35179983
0.40768306 0.39809567 0.35763794
0.41712357 0.40424233 0.36353722
0.42665359 0.41043762 0.36949557
0.43626545 0.41667901 0.37551092
0.44595133 0.42296402 0.38158118
0.45570322 0.42929015 0.38770422
0.46551298 0.43565490 0.39387794
0.47537233 0.44205577 0.40010016
0.48527289 0.44849023 0.40636871
0.49520616 0.45495575 0.41268138
0.50516358 0.46144979 0.41903591
0.51513651 0.46796978 0.42543003
0.52511633 0.47451315 0.43186141
0.53509438 0.48107731 0.43832771
0.54506202 0.48765967 0.44482655
0.28777580 0.32722830 0.28777580
0.28777580 0.32722830 0.28777580
0.29241924 0.33049669 0.29082047
0.29947049 0.33543310 0.29542576
0.30685620 0.34057088 0.30022759
0.31449302 0.34585029 0.30517103
0.32234388 0.35124492 0.31023206
0.33038670 0.35673940 0.31539688
0.33860606 0.36232341 0.32065635
0.34698998 0.36798934 0.32600381
0.35552841 0.37373119 0.33143409
0.36421242 0.37954399 0.33694297
0.37303373 0.38542346 0.34252683
0.38198445 0.39136579 0.34818248
0.39105687 0.39736749 0.35390703
0.40024335 0.40342533 0.35969778
0.40953624 0.40953624 0.36555219
0.41892786 0.41569728 0.37146781
0.42841041 0.42190558 0.37744226
0.43797598 0.42815836 0.38347320
0.44761656 0.43445288 0.38955831
0.45732399 0.44078643 0.39569530
0.46709002 0.44715633 0.40188186
0.47690627 0.45355988 0.40811569
0.48676427 0.45999444 0.41439445
0.49665549 0.46645733 0.42071582
0.50657130 0.47294590 0.42707742
0.51650307 0.47945749 0.43347688
0.52644212 0.48598942 0.43991178
0.53637979 0.49253903 0.44637969
0.54630745 0.49910366 0.45287814
0.55621653 0.50568065 0.45940467
0.56609853 0.51226732 0.46595676
0.30561649 0.34933932 0.30561649
0.30561649 0.34933932 0.30561649
0.31042234 0.35271277 0.30876809
0.31771278 0.35780367 0.31353193
0.32533945 0.36309689 0.31849503
0.33321513 0.36853034 0.32360016
0.34130067 0.37407643 0.32882218
0.34957248 0.37971902 0.33414657
0.35801395 0.38544720 0.33956362
0.36661205 0.39125286 0.34506623
0.37535578 0.39712961 0.35064884
0.38423534 0.40307211 0.35630689
0.39324166 0.40907575 0.36203643
0.40236608 0.41513642 0.36783400
0.41160018 0.42125036 0.37369641
0.42093566 0.42741406 0.37962071
0.43036425 0.43362422 0.38560410
0.43987767 0.43987767 0.39164391
0.44946762 0.44617135 0.39773751
0.45912570 0.45250226 0.40388235
0.46884346 0.45886749 0.41007591
0.47861237 0.46526415 0.41631569
0.48842385 0.47168941 0.42259919
0.49826924 0.47814044 0.42892392
0.50813987 0.48461445 0.43528739
0.51802703 0.49110866 0.44168708
0.52792201 0.49762032 0.44812048
0.53781612 0.50414667 0.45458506
0.54770071 0.51068497 0.46107829
0.55756719 0.51723250 0.46759759
0.56740707 0.52378654 0.47414039
0.57721195 0.53034440 0.48070412
0.58697360 0.53690340 0.48728616
0.32412284 0.37219549 0.32412284
0.32412284 0.37219549 0.32412284
0.32908178 0.37566223 0.32737530
0.33659655 0.38088945 0.33228823
0.34444767 0.38631875 0.33740230
0.35254421 0.39188588 0.34265811
0.36084494 0.39756217 0.34802944
0.36932485 0.40333074 0.35350103
0.37796612 0.40918014 0.35906265
0.38675472 0.41510182 0.36470674
0.39567875 0.42108900 0.37042739
0.40472758 0.42713600 0.37621968
0.41389137 0.43323793 0.38207936
0.42316077 0.43939040 0.38800268
0.43252671 0.44558939 0.39398620
0.44198029 0.45183120 0.40002671
0.45151272 0.45811229 0.40612119
0.46111521 0.46442930 0.41226672
0.47077901 0.47077901 0.41846048
0.48049534 0.47715826 0.42469971
0.49025543 0.48356399 0.43098171
0.50005047 0.48999318 0.43730379
0.50987166 0.49644289 0.44366328
0.51971018 0.50291020 0.45005753
0.52955725 0.50939223 0.45648391
0.53940413 0.51588612 0.46293977
0.54924212 0.52238906 0.46942246
0.55906260 0.52889826 0.47592933
0.56885706 0.53541095 0.48245775
0.57861711 0.54192440 0.48900505
0.58833448 0.54843588 0.49556857
0.59800109 0.55494273 0.50214568
0.60760904 0.56144227 0.50873369
0.34325697 0.39571256 0.34325697
0.34325697 0.39571256 0.34325697
0.34835778 0.39925903 0.34660298
0.35607910 0.40460182 0.35165360
0.36413522 0.41014520 0.35690640
0.37243162 0.41582303 0.36229991
0.38092512 0.42160566 0.36780685
0.38958928 0.42747555 0.37341129
0.39840517 0.43342076 0.37910247
0.40735779 0.43943233 0.38487242
0.41643439 0.44550314 0.39071484
0.42562358 0.45162723 0.39662450
0.43491482 0.45779943 0.40259688
0.44429814 0.46401513 0.40862794
0.45376390 0.47027011 0.41471399
0.46330269 0.47656046 0.42085160
0.47290526 0.48288249 0.42703752
0.48256243 0.48923270 0.43326865
0.49226512 0.49560771 0.43954197
0.50200426 0.50200426 0.44585454
0.51177085 0.50841919 0.45220349
0.52155593 0.51484940 0.45858598
0.53135059 0.52129187 0.46499921
0.54114597 0.52774363 0.47144039
0.55093330 0.53420176 0.47790676
0.56070392 0.54066338 0.48439557
0.57044925 0.54712567 0.49090408
0.58016088 0.55358584 0.49742956
0.58983053 0.56004114 0.50396929
0.59945010 0.56648887 0.51052055
0.60901168 0.57292635 0.51708064
0.61850759 0.57935097 0.52364686
0.62793037 0.58576013 0.53021654
0.36297338 0.41979421 0.36297338
0.36297338 0.41979421 0.36297338
0.36820291 0.42340529 0.36640435
0.37611022 0.42884053 0.37157942
0.38434903 0.43447367 0.37695681
0.39282146 0.44023693 0.38247311
0.40148247 0.44609981 0.38810007
0.41030432 0.45204420 0.39382110
0.41926699 0.45805772 0.39962496
0.42835461 0.46413108 0.40550326
0.43755364 0.47025686 0.41144938
0.44685200 0.47642886 0.41745779
0.45623856 0.48264169 0.42352367
0.46570279 0.48889055 0.42964276
0.47523458 0.49517107 0.43581114
0.48482412 0.50147918 0.44202518
0.49446179 0.50781108 0.44828143
0.50413814 0.51416316 0.45457660
0.51384383 0.52053196 0.46090753
0.52356966 0.52691415 0.46727112
0.53330651 0.53330651 0.47366437
0.54304536 0.53970591 0.48008430
0.55277731 0.54610929 0.48652800
0.56249359 0.55251370 0.49299260
0.57218557 0.55891620 0.49947524
0.58184474 0.56531396 0.50597309
0.59146280 0.57170417 0.51248336
0.60103161 0.57808411 0.51900325
0.61054325 0.58445107 0.52553002
0.61999002 0.59080244 0.53206093
0.62936445 0.59713564 0.53859324
0.63865933 0.60344814 0.54512428
0.64786775 0.60973748 0.55165136
0.38321902 0.44433332 0.38321902
0.38321902 0.44433332 0.38321902
0.38856232 0.44799250 0.38672519
0.39663238 0.45349513 0.39200969
0.40502889 0.45919176 0.39749573
0.41365089 0.46501329 0.40311812
0.42245163 0.47092853 0.40884773
0.43140212 0.47691890 0.41466734
0.44048141 0.48297167 0.42056526
0.44967280 0.48907725 0.42653276
0.45896207 0.49522800 0.43256288
0.46833656 0.50141753 0.43864980
0.47778461 0.50764027 0.44478851
0.48729525 0.51389130 0.45097448
0.49685801 0.52016613 0.45720362
0.50646276 0.52646060 0.46347211
0.51609966 0.53277083 0.46977634
0.52575907 0.53909315 0.47611288
0.53543155 0.54542408 0.48247842
0.54510783 0.55176025 0.48886976
0.55477881 0.55809844 0.49528378
0.56443554 0.56443554 0.50171742
0.57406924 0.57076851 0.50816768
0.58367134 0.57709441 0.51463163
0.59323343 0.58341040 0.52110636
0.60274732 0.58971368 0.52758899
0.61220503 0.59600153 0.53407671
0.62159884 0.60227133 0.54056671
0.63092125 0.60852047 0.54705624
0.64016504 0.61474646 0.55354256
0.64932328 0.62094683 0.56002298
