luts/cubes/fuji_velvia.cube
TITLE "fuji_velvia"
LUT_3D_SIZE 9
DOMAIN_MIN 0.0 0.0 0.0
DOMAIN_MAX 1.0 1.0 1.0
0.18242552 0.18242552 0.18242552
0.26447072 0.17831091 0.17831091
0.38128569 0.17375263 0.17375263
0.50650651 0.16952197 0.16952197
0.62698394 0.16550941 0.16550941
0.73119164 0.16166738 0.16166738
0.81349768 0.15796867 0.15796867
0.87409960 0.15439550 0.15439550
0.91106999 0.15145559 0.15145559
0.16637652 0.26697106 0.16637652
0.24335219 0.26155958 0.16255192
0.35534570 0.25553499 0.15831888
0.47863779 0.24991534 0.15439379
0.60055329 0.24456026 0.15067435
0.70871442 0.23940964 0.14711597
0.79598243 0.23442968 0.14369312
0.86130540 0.22959859 0.14038902
0.90160989 0.22560875 0.13767239
0.15192576 0.36926282 0.15192576
0.22401226 0.36280412 0.14837423
0.33099885 0.35557042 0.14444670
0.45176332 0.34878150 0.14080800
0.57437487 0.34227464 0.13736269
0.68591729 0.33598135 0.13406906
0.77787460 0.32986381 0.13090317
0.84788742 0.32389809 0.12784925
0.89160042 0.31894799 0.12533989
0.13903359 0.48012634 0.13903359
0.20649237 0.47318327 0.13573520
0.30843744 0.46535606 0.13209035
0.42621462 0.45796061 0.12871608
0.54883372 0.45082698 0.12552341
0.66314408 0.44388478 0.12247335
0.75943045 0.43709581 0.11954348
0.83401629 0.43043642 0.11671899
0.88115675 0.42488132 0.11439943
0.12736543 0.59017256 0.12736543
0.19041493 0.58342402 0.12430388
0.28729639 0.57576625 0.12092304
0.40168984 0.56848185 0.11779532
0.52369296 0.56140974 0.11483783
0.64019724 0.55448400 0.11201416
0.74047577 0.54766935 0.10930333
0.81954185 0.54094424 0.10669147
0.87015314 0.53530335 0.10454760
0.11674083 0.69008129 0.11674083
0.17558915 0.68409731 0.11390133
0.26741903 0.67726646 0.11076764
0.37809665 0.67072819 0.10787036
0.49890927 0.66434238 0.10513236
0.61704265 0.65805203 0.10251969
0.72096172 0.65182681 0.10001276
0.80440250 0.64564832 0.09759857
0.85852681 0.64043885 0.09561786
0.10703636 0.77377837 0.10703636
0.16188936 0.76886917 0.10440501
0.24871603 0.76323696 0.10150265
0.35540832 0.75781756 0.09882078
0.47450269 0.75249749 0.09628769
0.59370418 0.74723062 0.09387176
0.70088635 0.74199238 0.09155473
0.78856979 0.73676776 0.08932445
0.84623775 0.73234254 0.08749537
0.09815697 0.83938828 0.09815697
0.14921994 0.83560037 0.09572050
0.23112544 0.83123734 0.09303449
0.33362276 0.82702168 0.09055381
0.45051920 0.82286649 0.08821188
0.57023361 0.81873637 0.08597931
0.68027304 0.81461232 0.08383906
0.77203374 0.81048265 0.08177981
0.83325826 0.80697199 0.08009164
0.09526669 0.85803203 0.09526669
0.14506794 0.85460766 0.09289458
0.22529796 0.85065891 0.09027994
0.32630774 0.84683901 0.08786560
0.44234248 0.84306953 0.08558665
0.56210681 0.83931849 0.08341444
0.67303394 0.83556867 0.08133236
0.76615807 0.83180944 0.07932935
0.82861029 0.82861029 0.07768748
0.18118215 0.18118215 0.25696419
0.26284793 0.17708950 0.25168590
0.37931576 0.17255589 0.24581302
0.50441707 0.16834843 0.24033815
0.62502696 0.16435816 0.23512396
0.72954555 0.16053770 0.23011154
0.81222617 0.15686001 0.22526771
0.87317684 0.15330735 0.22057103
0.91039041 0.15038447 0.21669395
0.16522043 0.26533846 0.23625253
0.24181637 0.25994834 0.23126726
0.35343323 0.25394809 0.22572712
0.47655229 0.24835170 0.22056878
0.59854644 0.24301927 0.21566172
0.70698584 0.23789088 0.21094978
0.79462165 0.23293284 0.20640116
0.86030386 0.22812341 0.20199528
0.90086589 0.22415175 0.19836161
0.15085191 0.36731813 0.21731478
0.22256260 0.36087399 0.21261788
0.32915052 0.35365741 0.20740396
0.44969392 0.34688535 0.20255480
0.57233015 0.34039538 0.19794673
0.68411373 0.33411909 0.19352633
0.77642697 0.32801870 0.18926330
0.84680622 0.32207032 0.18513790
0.89078990 0.31713505 0.18173842
0.13803604 0.47804031 0.20018357
0.20512612 0.47110007 0.19576433
0.30665734 0.46327702 0.19086351
0.42417171 0.45588643 0.18631017
0.54676312 0.44875836 0.18198732
0.66127432 0.44182238 0.17784430
0.75790003 0.43504028 0.17385224
0.83285592 0.42838838 0.16999232
0.88027863 0.42284009 0.16681401
0.12643929 0.58814932 0.18448313
0.18912970 0.58139109 0.18033234
0.28558792 0.57372326 0.17573344
0.39968259 0.56643019 0.17146455
0.52160756 0.55935052 0.16741529
0.63826959 0.55241819 0.16353768
0.73886623 0.54559783 0.15980434
0.81830235 0.53886786 0.15619735
0.86920578 0.53322347 0.15322935
0.11588169 0.68829077 0.17002221
0.17438243 0.68228814 0.16613050
0.26578468 0.67543673 0.16182228
0.37613319 0.66887951 0.15782662
0.49681962 0.66247588 0.15403955
0.61506554 0.65616866 0.15041577
0.71927703 0.64992740 0.14692937
0.80308400 0.64373363 0.14356333
0.85750852 0.63851176 0.14079533
0.10624006 0.77231186 0.15667422
0.16075843 0.76738040 0.15303170
0.24715742 0.76172315 0.14900247
0.35349571 0.75628017 0.14526849
0.47241888 0.75093742 0.14173204
0.59168631 0.74564858 0.13835045
0.69913104 0.74038894 0.13509923
0.78717279 0.73514345 0.13196228
0.84514696 0.73070090 0.12938417
0.09741951 0.83825819 0.14434264
0.14816187 0.83444888 0.14093891
0.22964337 0.83006151 0.13717651
0.33176704 0.82582263 0.13369233
0.44845084 0.82164485 0.13039470
0.56818395 0.81749256 0.12724350
0.67845225 0.81334667 0.12421567
0.77055927 0.80919540 0.12129599
0.83209366 0.80566661 0.11889772
0.09454867 0.85701078 0.14030398
0.14403433 0.85356597 0.13698024
0.22384238 0.84959391 0.13330711
0.32447290 0.84575171 0.12990641
0.44028158 0.84196046 0.12668851
0.56004830 0.83818800 0.12361414
0.67119186 0.83441700 0.12066074
0.76465719 0.83063678 0.11781338
0.82741996 0.82741996 0.11547492
0.17979587 0.17979587 0.36112544
0.26103600 0.17572782 0.35472902
0.37711170 0.17122181 0.34756850
0.50207409 0.16704032 0.34085155
0.62282783 0.16307497 0.33441666
0.72769233 0.15927866 0.32819576
0.81079257 0.15562446 0.32215120
0.87213532 0.15209473 0.31625915
0.90962288 0.14919090 0.31137202
0.16393183 0.26351550 0.33581258
0.24010220 0.25814940 0.32963319
0.35129444 0.25217653 0.32272588
0.47421490 0.24660627 0.31625631
0.59629232 0.24129928 0.31006733
0.70504054 0.23619587 0.30409243
0.79308789 0.23126244 0.29829469
0.85917367 0.22647731 0.29265058
0.90002573 0.22252605 0.28797463
0.14965529 0.36514277 0.31215601
0.22094514 0.35871515 0.30621124
0.32708434 0.35151800 0.29957541
0.44737568 0.34476506 0.29336890
0.57003457 0.33829420 0.28743952
0.68208487 0.33203716 0.28172261
0.77479583 0.32595617 0.27618210
0.84558644 0.32002738 0.27079493
0.88987479 0.31510887 0.26633670
0.13692468 0.47570225 0.29032159
0.20360219 0.46876547 0.28462058
0.30466823 0.46094740 0.27826497
0.42188416 0.45356257 0.27232831
0.54443954 0.44644102 0.26666371
0.65917185 0.43951230 0.26120854
0.75617617 0.43273817 0.25592771
0.83154716 0.42609492 0.25079873
0.87928737 0.42055448 0.24655840
0.12540772 0.58587720 0.26993757
0.18769655 0.57910838 0.26448766
0.28367956 0.57142955 0.25841922
0.39743596 0.56412706 0.25275768
0.51926840 0.55703919 0.24736178
0.63610291 0.55009975 0.24217107
0.73705386 0.54327327 0.23715158
0.81690468 0.53653811 0.23228142
0.86813658 0.53089003 0.22825878
0.11492492 0.68627643 0.25083853
0.17303719 0.68025303 0.24564448
0.26395976 0.67337874 0.23986738
0.37393647 0.66680046 0.23448376
0.49447673 0.66037704 0.22935824
0.61284418 0.65405108 0.22443267
0.71738071 0.64779201 0.21967427
0.80159765 0.64158129 0.21506183
0.85635950 0.63634570 0.21125534
0.10535340 0.77065957 0.23292644
0.15949798 0.76570318 0.22799041
0.24541764 0.76001790 0.22250604
0.35135675 0.75454851 0.21740064
0.47008356 0.74918040 0.21254485
0.58942009 0.74386697 0.20788296
0.69715594 0.73858340 0.20338343
0.78559840 0.73331457 0.19902580
0.84391640 0.72885266 0.19543247
0.09659852 0.83698344 0.21613132
0.14698289 0.83315009 0.21145309
0.22798954 0.82873536 0.20626025
0.32969251 0.82447040 0.20143103
0.44613381 0.82026724 0.19684222
0.56588299 0.81609007 0.19244057
0.67640423 0.81191964 0.18819587
0.76889807 0.80774414 0.18408846
0.83078014 0.80419500 0.18070397
0.09374936 0.85585841 0.21057835
0.14288269 0.85239063 0.20598873
0.22221828 0.84839235 0.20089590
0.32242197 0.84452507 0.19616124
0.43797324 0.84070936 0.19166366
0.55773774 0.83691281 0.18735080
0.66912015 0.83311802 0.18319290
0.76296640 0.82931420 0.17917058
0.82607752 0.82607752 0.17585702
0.17845518 0.17845518 0.47689342
0.25928102 0.17441101 0.46995484
0.37497232 0.16993181 0.46213419
0.49979462 0.16577551 0.45474639
0.62068351 0.16183436 0.44762148
0.72588181 0.15806147 0.44068902
0.80938984 0.15443007 0.43391080
0.87111507 0.15092259 0.42726310
0.90887049 0.14803723 0.42171863
0.16268597 0.26174975 0.44917104
0.23844255 0.25640709 0.44229477
0.34921941 0.25046092 0.43455704
0.47194202 0.24491615 0.42725989
0.59409546 0.23963396 0.42023373
0.70314085 0.23455488 0.41340799
0.79158764 0.22964542 0.40674422
0.85806684 0.22488396 0.40021848
0.89920231 0.22095256 0.39478305
0.14849865 0.36303172 0.42260995
0.21937968 0.35662039 0.41583334
0.32508065 0.34944236 0.40821969
0.44512254 0.34270822 0.40105112
0.56779839 0.33625616 0.39415934
0.68010441 0.33001801 0.38747407
0.77320088 0.32395607 0.38095685
0.84439215 0.31804649 0.37458361
0.88897807 0.31314440 0.36928198
0.13585072 0.47342866 0.39751452
0.20212773 0.46649554 0.39086790
0.30274008 0.45868264 0.38341134
0.41966191 0.45130371 0.37640133
0.54217716 0.44418880 0.36967170
0.65712041 0.43726743 0.36315280
0.75449113 0.43050132 0.35680637
0.83026609 0.42386675 0.35060832
0.87831623 0.41833416 0.34545859
0.12441107 0.58366324 0.37356599
0.18631032 0.57688437 0.36707583
0.28183040 0.56919515 0.35980505
0.39525444 0.56188377 0.35297956
0.51699191 0.55478821 0.34643605
0.63398971 0.54784213 0.34010581
0.73528294 0.54100998 0.33395094
0.81553695 0.53427005 0.32794748
0.86708929 0.52861862 0.32296506
0.11400072 0.68431000 0.35065654
0.17173634 0.67826655 0.34434562
0.26219210 0.67137018 0.33728514
0.37180435 0.66477158 0.33066619
0.49219765 0.65832909 0.32432898
0.61067858 0.65198509 0.31820602
0.71552843 0.64570889 0.31225993
0.80014355 0.63948188 0.30646699
0.85523427 0.63423311 0.30166442
0.10449709 0.76904406 0.32874440
0.15827943 0.76406344 0.32263189
0.24373303 0.75835093 0.31580219
0.34928154 0.75285591 0.30940800
0.46781287 0.74746316 0.30329359
0.58721172 0.74212588 0.29739296
0.69522742 0.73681910 0.29166941
0.78405864 0.73152764 0.28609955
0.84271160 0.72704696 0.28148662
0.09580574 0.83573555 0.30781277
0.14584337 0.83187874 0.30191441
0.22638867 0.82743734 0.29533205
0.32768062 0.82314695 0.28917716
0.44388190 0.81891907 0.28329854
0.56364175 0.81471763 0.27763190
0.67440528 0.81052331 0.27214136
0.76727389 0.80632421 0.26680395
0.82949443 0.80275526 0.26238778
0.09297756 0.85472993 0.30080821
0.14176967 0.85123971 0.29498686
0.22064635 0.84721585 0.28849313
0.32043324 0.84332410 0.28242364
0.43573012 0.83948451 0.27662888
0.55548748 0.83566448 0.27104519
0.66709834 0.83184647 0.26563701
0.76131348 0.82801966 0.26038154
0.82476361 0.82476361 0.25603455
0.17714498 0.17714498 0.59323374
0.25756345 0.17312424 0.58650030
0.37287416 0.16867134 0.57885825
0.49755401 0.16453976 0.57158744
0.61857115 0.16062233 0.56452724
0.72409487 0.15687241 0.55761194
0.80800328 0.15326335 0.55080637
0.87010547 0.14977768 0.54408907
0.90812545 0.14691042 0.53845386
0.16146879 0.26002157 0.56606677
0.23681888 0.25470201 0.55921776
0.34718531 0.24878215 0.55145711
0.46970903 0.24326248 0.54408582
0.59193237 0.23800472 0.53693957
0.70126667 0.23294960 0.52995095
0.79010517 0.22806372 0.52308380
0.85697180 0.22332555 0.51631598
0.89838705 0.21941368 0.51064623
0.14736894 0.36096178 0.53936178
0.21784869 0.35456666 0.53243942
0.32311734 0.34740765 0.52460810
0.44291000 0.34069218 0.51718189
0.56559763 0.33425878 0.50999372
0.67815137 0.32803937 0.50297488
0.77162536 0.32199631 0.49608836
0.84321089 0.31610577 0.48931147
0.88809042 0.31121994 0.48364174
0.13480199 0.47119491 0.51349919
0.20068618 0.46426566 0.50654375
0.30085155 0.45645815 0.49868707
0.41748072 0.44908532 0.49124862
0.53995165 0.44197721 0.48405953
0.65509821 0.43506333 0.47705012
0.75282719 0.42830537 0.47018277
0.82899931 0.42167958 0.46343430
0.87735509 0.41615492 0.45779563
0.12343803 0.58148373 0.48822548
0.18495544 0.57469522 0.48127372
0.28001992 0.56699608 0.47343295
0.39311417 0.55967625 0.46602101
0.51475355 0.55257341 0.45886812
0.63190750 0.54562108 0.45190399
0.73353478 0.53878362 0.44509053
0.81418485 0.53203928 0.43840420
0.86605300 0.52638477 0.43282442
0.11309859 0.68237064 0.46348697
0.17046523 0.67630762 0.45657320
0.26046202 0.66938973 0.44878669
0.36971343 0.66277134 0.44143714
0.48995774 0.65631029 0.43435464
0.60854564 0.64994873 0.42746865
0.71370062 0.64365588 0.42074081
0.79870646 0.63741305 0.41414727
0.85412109 0.63215148 0.40865156
0.10366137 0.76744834 0.43929409
0.15708904 0.76244394 0.43245031
0.24208479 0.75670470 0.42475364
0.34724727 0.75118453 0.41749957
0.46558218 0.74576763 0.41051886
0.58503757 0.74040696 0.40374103
0.69332507 0.73507744 0.39712760
0.78253732 0.72976380 0.39065454
0.84151998 0.72526473 0.38526557
0.09503216 0.83450145 0.41568249
0.14473042 0.83062154 0.40893829
0.22482286 0.82615387 0.40136414
0.32570918 0.82183845 0.39423576
0.44167062 0.81758621 0.38738535
0.56143618 0.81336090 0.38074277
0.67243420 0.80914306 0.37426959
0.76566967 0.80492073 0.36794172
0.82822308 0.80133229 0.36267959
0.09222448 0.85361354 0.40766895
0.14068269 0.85010121 0.40096554
0.21910900 0.84605212 0.39344077
0.31848475 0.84213625 0.38636229
0.43352779 0.83827313 0.37956297
0.55327336 0.83442996 0.37297286
0.66510499 0.83058908 0.36655358
0.75968104 0.82673961 0.36028106
0.82346450 0.82346450 0.35506693
0.17585857 0.17585857 0.69874309
0.25587465 0.17186094 0.69285192
0.37080691 0.16743394 0.68612351
0.49534150 0.16332672 0.67967981
0.61648078 0.15943266 0.67338306
0.72232320 0.15570536 0.66717726
0.80662653 0.15211831 0.66103260
0.86910189 0.14865411 0.65493099
0.90738435 0.14580467 0.64978396
0.16027405 0.25832226 0.67475947
0.23522301 0.25302558 0.66862172
0.34518209 0.24713177 0.66162176
0.46750513 0.24163693 0.65492803
0.58979282 0.23640333 0.64839642
0.69940927 0.23137189 0.64196829
0.78863364 0.22650934 0.63561240
0.85588356 0.22179418 0.62930981
0.89757626 0.21790160 0.62400002
0.14626033 0.35892278 0.65061498
0.21634441 0.35254385 0.64426181
0.32118466 0.34540383 0.63702662
0.44072734 0.33870699 0.63011835
0.56342185 0.33229218 0.62338718
0.67621660 0.32609144 0.61677206
0.77006198 0.32006717 0.61024045
0.84203724 0.31419556 0.60377258
0.88720778 0.30932590 0.59833047
0.13377308 0.46899020 0.62667526
0.19927022 0.46206504 0.62014092
0.29899323 0.45426316 0.61271005
0.41532994 0.44689664 0.60562550
0.53775239 0.43979552 0.59873245
0.65309575 0.43288929 0.59196773
0.75117662 0.42613962 0.58529761
0.82774101 0.41952275 0.57870159
0.87639957 0.41400612 0.57315857
0.12248359 0.57932833 0.60273238
0.18362497 0.57253056 0.59604911
0.27823906 0.56482191 0.58845971
0.39100467 0.55749401 0.58123474
0.51254258 0.55038425 0.57421509
0.62984648 0.54342600 0.56733573
0.73180128 0.53658357 0.56056186
0.81284215 0.52983513 0.55387229
0.86502296 0.52417781 0.54825760
0.11221386 0.68044929 0.57875323
0.16921736 0.67436709 0.57195304
0.25876084 0.66742813 0.56424189
0.36765343 0.66079037 0.55691189
0.48774622 0.65431115 0.54980033
0.60643528 0.64793244 0.54284055
0.71188876 0.64162333 0.53599683
0.79727977 0.63536507 0.52924735
0.85301488 0.63009102 0.52358932
0.10284190 0.76586504 0.55476503
0.15592068 0.76083719 0.54788010
0.24046462 0.75507160 0.54008401
0.34524388 0.74952664 0.53268420
0.46338073 0.74408595 0.52551509
0.58288735 0.73870224 0.51850867
0.69144001 0.73335032 0.51162840
0.78102745 0.72801486 0.50485190
0.84033607 0.72349771 0.49917812
0.09427373 0.83327550 0.53082265
0.14363831 0.82937273 0.52388524
0.22328417 0.82487906 0.51604088
0.32376842 0.82053886 0.50860620
0.43948925 0.81626254 0.50141344
0.55925579 0.81201362 0.49439353
0.67048176 0.80777253 0.48750927
0.76407799 0.80352724 0.48073776
0.82696027 0.79991954 0.47507497
0.09148619 0.85250414 0.52257457
0.13961614 0.84896990 0.51562648
0.21759844 0.84489582 0.50777390
0.31656682 0.84095607 0.50033518
0.43135557 0.83706966 0.49314201
0.55108483 0.83320358 0.48612500
0.66313076 0.82934008 0.47924673
0.75806153 0.82546819 0.47248419
0.82217421 0.82217421 0.46683121
0.17459213 0.17459213 0.78595371
0.25420971 0.17061732 0.78123403
0.36876473 0.16621593 0.77581527
0.49315103 0.16213277 0.77059725
0.61440680 0.15826179 0.76547103
0.72056215 0.15455683 0.76039233
0.80525599 0.15099151 0.75533753
0.86810174 0.14754850 0.75029221
0.90664528 0.14471665 0.74601597
0.15909817 0.25664689 0.76659388
0.23365026 0.25137292 0.76157681
0.34320406 0.24550495 0.75582332
0.46532425 0.24003475 0.75028975
0.58767106 0.23482511 0.74485999
0.69756375 0.22981715 0.73948687
0.78716923 0.22497770 0.73414524
0.85479928 0.22028535 0.72881980
0.89676783 0.21641189 0.72431096
0.14516949 0.35690892 0.74670766
0.21486242 0.35054622 0.74140733
0.31927710 0.34342519 0.73533627
0.43856850 0.33674698 0.72950458
0.56126514 0.33035075 0.72378924
0.67429499 0.32416865 0.71814029
0.76850666 0.31816313 0.71253112
0.84086817 0.31231041 0.70694554
0.88632787 0.30745687 0.70222160
0.13276089 0.46680847 0.72658520
0.19787566 0.45988763 0.72102111
0.29715976 0.45209161 0.71465565
0.41320359 0.44473161 0.70854888
0.53557340 0.43763767 0.70257129
0.65110772 0.43073927 0.69667026
0.74953511 0.42399807 0.69081777
0.82648793 0.41739026 0.68499682
0.87544719 0.41188178 0.68007918
0.12154484 0.57719124 0.70604433
0.18231497 0.57038455 0.70023468
0.27648267 0.56266675 0.69359648
0.38892002 0.55533114 0.68723627
0.51035296 0.54821479 0.68101835
0.62780115 0.54125095 0.67488758
0.73007788 0.53440385 0.66881460
0.81150537 0.52765161 0.66278162
0.86399653 0.52199172 0.65769048
0.11134383 0.67854086 0.68504252
0.16798899 0.67243983 0.67900651
0.25708361 0.66548016 0.67211834
0.36561853 0.65882340 0.66552728
0.48555702 0.65232639 0.65909187
0.60434185 0.64593087 0.65275455
0.71008810 0.63960584 0.64648470
0.79585975 0.63333248 0.64026374
0.85191276 0.62804624 0.63501985
0.10203618 0.76429003 0.66358878
0.15477085 0.75923899 0.65734728
0.23886776 0.75344736 0.65023374
0.34326568 0.74787790 0.64343614
0.46120243 0.74241370 0.63680763
0.58075525 0.73700725 0.63028844
0.68956728 0.73163323 0.62384670
0.77952507 0.72627623 0.61746309
0.83915681 0.72174124 0.61208820
0.09352814 0.83205451 0.64171903
0.14256377 0.82812905 0.63529477
0.22176809 0.82360960 0.62798251
0.32185279 0.81924484 0.62100452
0.43733173 0.81494463 0.61420904
0.55709469 0.81067230 0.60753421
0.66854280 0.80640817 0.60094702
0.76249468 0.80214013 0.59442743
0.82570270 0.79851334 0.58894434
0.09076044 0.85139886 0.63407657
0.13856681 0.84784286 0.62759480
0.21611023 0.84374398 0.62022044
0.31467397 0.83978052 0.61318654
0.42920740 0.83587099 0.60633974
0.54891598 0.83198217 0.59961751
0.66117041 0.82809621 0.59298646
0.75645072 0.82420209 0.58642632
0.82088940 0.82088940 0.58091133
0.17334315 0.17334315 0.85275026
0.25256545 0.16939094 0.84922087
0.36674388 0.16501490 0.84515234
0.49097873 0.16095554 0.84121788
0.61234567 0.15710740 0.83733663
0.71880876 0.15342454 0.83347562
0.80388939 0.14988070 0.82961713
0.86710338 0.14645866 0.82575020
0.90590704 0.14364420 0.82246041
0.15793882 0.25499225 0.83818814
0.23209759 0.24974086 0.83437751
0.34124756 0.24389858 0.82998863
0.46316251 0.23845286 0.82574832
0.58556341 0.23326701 0.82156914
0.69572698 0.22828237 0.81741548
0.78570948 0.22346587 0.81326823
0.85371720 0.21879614 0.80911564
0.89596044 0.21494165 0.80558572
0.14409425 0.35491651 0.82299331
0.21339984 0.34857007 0.81890215
0.31739108 0.34146809 0.81419451
0.43642960 0.33480853 0.80965061
0.55912378 0.32843088 0.80517644
0.67238329 0.32226742 0.80073374
0.76695681 0.31628064 0.79630200
0.83970173 0.31044678 0.79186867
0.88544926 0.30560933 0.78810334
0.13176339 0.46464583 0.80736782
0.19649977 0.45772952 0.80300196
0.29534771 0.44993962 0.79798296
0.41109782 0.44258635 0.79314333
0.53341089 0.43549979 0.78838257
0.64913074 0.42860940 0.78365980
0.74789991 0.42187683 0.77895316
0.82523799 0.41527825 0.77424929
0.87449638 0.40977803 0.77025768
0.12061988 0.57506876 0.79115146
0.18102286 0.56825346 0.78651525
0.27474742 0.56052688 0.78119067
0.38685641 0.55318387 0.77606165
0.50818086 0.54606124 0.77102125
0.62576800 0.53909212 0.76602601
0.72836169 0.53224064 0.76105271
0.81017229 0.52548489 0.75608719
0.86297199 0.51982267 0.75187737
0.11048674 0.67664213 0.77428630
0.16677770 0.67052255 0.76938484
0.25542713 0.66354254 0.76376133
0.36360499 0.65686710 0.75835014
0.48338626 0.65035260 0.75303795
0.60226175 0.64394059 0.74777873
0.70829559 0.63759995 0.74254793
0.79444405 0.63131180 0.73733059
0.85081291 0.62601364 0.73291139
0.10124258 0.76272067 0.75675299
0.15363728 0.75764666 0.75159293
0.23729116 0.75182924 0.74567898
0.34130901 0.74623555 0.73999460
0.45904339 0.74074809 0.73442022
0.57863760 0.73531914 0.72890725
0.68770370 0.72992327 0.72342983
0.77802768 0.72454499 0.71797220
0.83798024 0.71999238 0.71335393
0.09279387 0.83083647 0.73855355
0.14150463 0.82688846 0.73314357
0.22027170 0.82234338 0.72694995
0.31995871 0.81795421 0.72100358
0.43519419 0.81363029 0.71517876
0.55494911 0.80933472 0.70942440
0.66661403 0.80504770 0.70371334
0.76091710 0.80075708 0.69802905
0.82444831 0.79711135 0.69322374
0.09004574 0.85029587 0.73211438
0.13753261 0.84671822 0.72662048
0.21464148 0.84259467 0.72033322
0.31280265 0.83860764 0.71429938
0.42707942 0.83467512 0.70839120
0.54676302 0.83076371 0.70255675
0.65922060 0.82685543 0.69676840
0.75484590 0.82293921 0.69100937
0.81960793 0.81960793 0.68614259
0.17210988 0.17210988 0.90103619
0.25093964 0.16818007 0.89852644
0.36474175 0.16382913 0.89562481
0.48882190 0.15979337 0.89281014
0.61029492 0.15596784 0.89002513
0.71706099 0.15230687 0.88724634
0.80252516 0.14878431 0.88446105
0.86610565 0.14538302 0.88166129
0.90516877 0.14258578 0.87927275
0.15679435 0.25335611 0.89063685
0.23056289 0.24812719 0.88789618
0.33931003 0.24231047 0.88472958
0.46101721 0.23688910 0.88165992
0.58346736 0.23172691 0.87862459
0.69389683 0.22676545 0.87559800
0.78425273 0.22197174 0.87256629
0.85263605 0.21732450 0.86952082
0.89515316 0.21348885 0.86692422
0.14303306 0.35294296 0.87966007
0.21195465 0.34661285 0.87668240
0.31552413 0.33952996 0.87324427
0.43430795 0.33288909 0.86991372
0.55699517 0.32653006 0.86662269
0.67047923 0.32038524 0.86334337
0.76541064 0.31441721 0.86006074
0.83853659 0.30860221 0.85676546
0.88457093 0.30378084 0.85395766
0.13077914 0.46249958 0.86823602
0.19514064 0.45558803 0.86501906
0.29355467 0.44780447 0.86130719
0.40900994 0.44045815 0.85771409
0.53126221 0.43337918 0.85416617
0.64716246 0.42649699 0.85063338
0.74626913 0.41977323 0.84709951
0.82398976 0.41318404 0.84355454
0.87354606 0.40769221 0.84053597
0.11970740 0.57295833 0.85623128
0.17974683 0.56613472 0.85277093
0.27303098 0.55839969 0.84878112
0.38481119 0.55104961 0.84492195
0.50602359 0.54392101 0.84111414
0.62374463 0.53694689 0.83732538
0.72665071 0.53009132 0.83353827
0.80884137 0.52333233 0.82974208
0.86194819 0.51766799 0.82651181
0.10964136 0.67475085 0.84358249
0.16558179 0.66861301 0.83987462
0.25378915 0.66161296 0.83560271
0.36161021 0.65491914 0.83147399
0.48123126 0.64838746 0.82740343
0.60019248 0.64195925 0.82335639
0.70650915 0.63560330 0.81931425
0.79303103 0.62930065 0.81526557
0.84971408 0.62399080 0.81182293
0.10045994 0.76115514 0.83025196
0.15251834 0.75605836 0.82629316
0.23573266 0.75021539 0.82173583
0.33937132 0.74459767 0.81733498
0.45690093 0.73908718 0.81299971
0.57653185 0.73363596 0.80869302
0.68584708 0.72821845 0.80439506
0.77653355 0.72281912 0.80009364
0.83680502 0.71824907 0.79643887
0.09206985 0.82961996 0.81621612
0.14045939 0.82564952 0.81200411
0.21879291 0.82107895 0.80715937
0.31808369 0.81666551 0.80248517
0.43307392 0.81231800 0.79788462
0.55281647 0.80799932 0.79331832
0.66469316 0.80368956 0.78876517
0.75934343 0.79937649 0.78421225
0.82319564 0.79571195 0.78034683
0.08934105 0.84919390 0.81120074
0.13651204 0.84559470 0.80690098
0.21319016 0.84144659 0.80195681
0.31095040 0.83743608 0.79718819
0.42496895 0.83348069 0.79249616
0.54462333 0.82954679 0.78784049
0.65727903 0.82561631 0.78319965
0.75324522 0.82167810 0.77856044
0.81832834 0.81832834 0.77462288
