luts/cubes/fuji_velvia.cube
TITLE "fuji_velvia"
LUT_3D_SIZE 5
DOMAIN_MIN 0.0 0.0 0.0
DOMAIN_MAX 1.0 1.0 1.0
0.18242552 0.18242552 0.18242552
0.38128569 0.17375263 0.17375263
0.62698394 0.16550941 0.16550941
0.81349768 0.15796867 0.15796867
0.91106999 0.15145559 0.15145559
0.15192576 0.36926282 0.15192576
0.33099885 0.35557042 0.14444670
0.57437487 0.34227464 0.13736269
0.77787460 0.32986381 0.13090317
0.89160042 0.31894799 0.12533989
0.12736543 0.59017256 0.12736543
0.28729639 0.57576625 0.12092304
0.52369296 0.56140974 0.11483783
0.74047577 0.54766935 0.10930333
0.87015314 0.53530335 0.10454760
0.10703636 0.77377837 0.10703636
0.24871603 0.76323696 0.10150265
0.47450269 0.75249749 0.09628769
0.70088635 0.74199238 0.09155473
0.84623775 0.73234254 0.08749537
0.09526669 0.85803203 0.09526669
0.22529796 0.85065891 0.09027994
0.44234248 0.84306953 0.08558665
0.67303394 0.83556867 0.08133236
0.82861029 0.82861029 0.07768748
0.17979587 0.17979587 0.36112544
0.37711170 0.17122181 0.34756850
0.62282783 0.16307497 0.33441666
0.81079257 0.15562446 0.32215120
0.90962288 0.14919090 0.31137202
0.14965529 0.36514277 0.31215601
0.32708434 0.35151800 0.29957541
0.57003457 0.33829420 0.28743952
0.77479583 0.32595617 0.27618210
0.88987479 0.31510887 0.26633670
0.12540772 0.58587720 0.26993757
0.28367956 0.57142955 0.25841922
0.51926840 0.55703919 0.24736178
0.73705386 0.54327327 0.23715158
0.86813658 0.53089003 0.22825878
0.10535340 0.77065957 0.23292644
0.24541764 0.76001790 0.22250604
0.47008356 0.74918040 0.21254485
0.69715594 0.73858340 0.20338343
0.84391640 0.72885266 0.19543247
0.09374936 0.85585841 0.21057835
0.22221828 0.84839235 0.20089590
0.43797324 0.84070936 0.19166366
0.66912015 0.83311802 0.18319290
0.82607752 0.82607752 0.17585702
0.17714498 0.17714498 0.59323374
0.37287416 0.16867134 0.57885825
0.61857115 0.16062233 0.56452724
0.80800328 0.15326335 0.55080637
0.90812545 0.14691042 0.53845386
0.14736894 0.36096178 0.53936178
0.32311734 0.34740765 0.52460810
0.56559763 0.33425878 0.50999372
0.77162536 0.32199631 0.49608836
0.88809042 0.31121994 0.48364174
0.12343803 0.58148373 0.48822548
0.28001992 0.56699608 0.47343295
0.51475355 0.55257341 0.45886812
0.73353478 0.53878362 0.44509053
0.86605300 0.52638477 0.43282442
0.10366137 0.76744834 0.43929409
0.24208479 0.75670470 0.42475364
0.46558218 0.74576763 0.41051886
0.69332507 0.73507744 0.39712760
0.84151998 0.72526473 0.38526557
0.09222448 0.85361354 0.40766895
0.21910900 0.84605212 0.39344077
0.43352779 0.83827313 0.37956297
0.66510499 0.83058908 0.36655358
0.82346450 0.82346450 0.35506693
0.17459213 0.17459213 0.78595371
0.36876473 0.16621593 0.77581527
0.61440680 0.15826179 0.76547103
0.80525599 0.15099151 0.75533753
0.90664528 0.14471665 0.74601597
0.14516949 0.35690892 0.74670766
0.31927710 0.34342519 0.73533627
0.56126514 0.33035075 0.72378924
0.76850666 0.31816313 0.71253112
0.88632787 0.30745687 0.70222160
0.12154484 0.57719124 0.70604433
0.27648267 0.56266675 0.69359648
0.51035296 0.54821479 0.68101835
0.73007788 0.53440385 0.66881460
0.86399653 0.52199172 0.65769048
0.10203618 0.76429003 0.66358878
0.23886776 0.75344736 0.65023374
0.46120243 0.74241370 0.63680763
0.68956728 0.73163323 0.62384670
0.83915681 0.72174124 0.61208820
0.09076044 0.85139886 0.63407657
0.21611023 0.84374398 0.62022044
0.42920740 0.83587099 0.60633974
0.66117041 0.82809621 0.59298646
0.82088940 0.82088940 0.58091133
0.17210988 0.17210988 0.90103619
0.36474175 0.16382913 0.89562481
0.61029492 0.15596784 0.89002513
0.80252516 0.14878431 0.88446105
0.90516877 0.14258578 0.87927275
0.14303306 0.35294296 0.87966007
0.31552413 0.33952996 0.87324427
0.55699517 0.32653006 0.86662269
0.76541064 0.31441721 0.86006074
0.88457093 0.30378084 0.85395766
0.11970740 0.57295833 0.85623128
0.27303098 0.55839969 0.84878112
0.50602359 0.54392101 0.84111414
0.72665071 0.53009132 0.83353827
0.86194819 0.51766799 0.82651181
0.10045994 0.76115514 0.83025196
0.23573266 0.75021539 0.82173583
0.45690093 0.73908718 0.81299971
0.68584708 0.72821845 0.80439506
0.83680502 0.71824907 0.79643887
0.08934105 0.84919390 0.81120074
0.21319016 0.84144659 0.80195681
0.42496895 0.83348069 0.79249616
0.65727903 0.82561631 0.78319965
0.81832834 0.81832834 0.77462288
