luts/cubes/fuji_velvia.cube
TITLE "fuji_velvia"
LUT_3D_SIZE 33
DOMAIN_MIN 0.0 0.0 0.0
DOMAIN_MAX 1.0 1.0 1.0
0.18242552 0.18242552 0.18242552
0.18517953 0.18226586 0.18226586
0.21158564 0.18082489 0.18082489
0.23761533 0.17953586 0.17953586
0.26447072 0.17831091 0.17831091
0.29231866 0.17712846 0.17712846
0.32114308 0.17597826 0.17597826
0.35084729 0.17485430 0.17485430
0.38128569 0.17375263 0.17375263
0.41227924 0.17267043 0.17267043
0.44362582 0.17160562 0.17160562
0.47510906 0.17055656 0.17055656
0.50650651 0.16952197 0.16952197
0.53759722 0.16850077 0.16850077
0.56816883 0.16749210 0.16749210
0.59802369 0.16649519 0.16649519
0.62698394 0.16550941 0.16550941
0.65489535 0.16453420 0.16453420
0.68162981 0.16356908 0.16356908
0.70708644 0.16261360 0.16261360
0.73119164 0.16166738 0.16166738
0.75389795 0.16073007 0.16073007
0.77518218 0.15980137 0.15980137
0.79504293 0.15888099 0.15888099
0.81349768 0.15796867 0.15796867
0.83057981 0.15706417 0.15706417
0.84633553 0.15616728 0.15616728
0.86082099 0.15527778 0.15527778
0.87409960 0.15439550 0.15439550
0.88623965 0.15352026 0.15352026
0.89731227 0.15265189 0.15265189
0.90738962 0.15179025 0.15179025
0.91106999 0.15145559 0.15145559
0.17885832 0.19875099 0.17885832
0.18157044 0.19858050 0.17870110
0.20759301 0.19704163 0.17728220
0.23327685 0.19566461 0.17601300
0.25980901 0.19435568 0.17480696
0.28735786 0.19309183 0.17364284
0.31591148 0.19186215 0.17251053
0.34537797 0.19066021 0.17140411
0.37561644 0.18948182 0.17031969
0.40645189 0.18832399 0.16925449
0.43768535 0.18718448 0.16820646
0.46910247 0.18606158 0.16717399
0.50048146 0.18495391 0.16615581
0.53160073 0.18386033 0.16515086
0.56224597 0.18277992 0.16415828
0.59221642 0.18171189 0.16317733
0.62133013 0.18065554 0.16220737
0.64942805 0.17961030 0.16124786
0.67637675 0.17857564 0.16029830
0.70206982 0.17755110 0.15935829
0.72642814 0.17653629 0.15842743
0.74939891 0.17553083 0.15750538
0.77095403 0.17453440 0.15659184
0.79108764 0.17354669 0.15568652
0.80981334 0.17256743 0.15478916
0.82716123 0.17159638 0.15389954
0.84317484 0.17063330 0.15301744
0.85790822 0.16967797 0.15214265
0.87142322 0.16873022 0.15127499
0.88378704 0.16778984 0.15041429
0.89507011 0.16685666 0.14956039
0.90534429 0.16593054 0.14871313
0.90909779 0.16557079 0.14838407
0.17444788 0.22081905 0.17444788
0.17710755 0.22063485 0.17429371
0.20264888 0.21897177 0.17290244
0.22789694 0.21748299 0.17165805
0.25401993 0.21606732 0.17047568
0.28118812 0.21469991 0.16933448
0.30939485 0.21336900 0.16822455
0.33855432 0.21206769 0.16714007
0.36853169 0.21079145 0.16607722
0.39915734 0.20953707 0.16503328
0.43023658 0.20830215 0.16400622
0.46155790 0.20708484 0.16299448
0.49290077 0.20588366 0.16199680
0.52404318 0.20469742 0.16101215
0.55476875 0.20352510 0.16003968
0.58487315 0.20236586 0.15907865
0.61416957 0.20121897 0.15812845
0.64249310 0.20008380 0.15718854
0.66970376 0.19895981 0.15625844
0.69568826 0.19784649 0.15533774
0.72036050 0.19674343 0.15442605
0.74366097 0.19565022 0.15352304
0.76555523 0.19456653 0.15262841
0.78603169 0.19349203 0.15174188
0.80509893 0.19242644 0.15086320
0.82278274 0.19136948 0.14999214
0.83912312 0.19032092 0.14912848
0.85417131 0.18928053 0.14827203
0.86798705 0.18824810 0.14742261
0.88063603 0.18722344 0.14658005
0.89218771 0.18620637 0.14574417
0.90271345 0.18519672 0.14491485
0.90656050 0.18480446 0.14459277
0.17031769 0.24347619 0.17031769
0.17292757 0.24327899 0.17016641
0.19801114 0.24149812 0.16880135
0.22284288 0.23990323 0.16758050
0.24857305 0.23838608 0.16642057
0.27537373 0.23692011 0.16530111
0.30324325 0.23549276 0.16421239
0.33210176 0.23409668 0.16314870
0.36182032 0.23272702 0.16210629
0.39223468 0.23138037 0.16108249
0.42315451 0.23005419 0.16007531
0.45437141 0.22874649 0.15908320
0.48566645 0.22745571 0.15810494
0.51681762 0.22618057 0.15713951
0.54760697 0.22492002 0.15618607
0.57782710 0.22367314 0.15524391
0.60728690 0.22243917 0.15431241
0.63581608 0.22121744 0.15339105
0.66326859 0.22000738 0.15247935
0.68952465 0.21880846 0.15157691
0.71449153 0.21762023 0.15068336
0.73810323 0.21644228 0.14979836
0.76031919 0.21527424 0.14892162
0.78112222 0.21411579 0.14805286
0.80051592 0.21296660 0.14719183
0.81852182 0.21182642 0.14633831
0.83517638 0.21069497 0.14549210
0.85052799 0.20957203 0.14465298
0.86463419 0.20845738 0.14382079
0.87755911 0.20735082 0.14299536
0.88937116 0.20625216 0.14217652
0.90014110 0.20516122 0.14136414
0.90407907 0.20473730 0.14104865
0.16637652 0.26697106 0.16637652
0.16893831 0.26676154 0.16622805
0.19357867 0.26486894 0.16488831
0.21800565 0.26317326 0.16369018
0.24335219 0.26155958 0.16255192
0.26979207 0.25999976 0.16145344
0.29732848 0.25848047 0.16038519
0.32588737 0.25699391 0.15934157
0.35534570 0.25553499 0.15831888
0.38554460 0.25410007 0.15731451
0.41629829 0.25268647 0.15632649
0.44740169 0.25129211 0.15535333
0.47863779 0.24991534 0.15439379
0.50978498 0.24855480 0.15344689
0.54062413 0.24720938 0.15251180
0.57094525 0.24587814 0.15158782
0.60055329 0.24456026 0.15067435
0.62927303 0.24325504 0.14977086
0.65695265 0.24196188 0.14887690
0.68346616 0.24068024 0.14799206
0.70871442 0.23940964 0.14711597
0.73262510 0.23814965 0.14624832
0.75515160 0.23689988 0.14538880
0.77627117 0.23566000 0.14453715
0.79598243 0.23442968 0.14369312
0.81430261 0.23320863 0.14285649
0.83126455 0.23199660 0.14202706
0.84691373 0.23079332 0.14120463
0.86130540 0.22959859 0.14038902
0.87450202 0.22841219 0.13958007
0.88657087 0.22723392 0.13877763
0.89758203 0.22606361 0.13798154
0.90160989 0.22560875 0.13767239
0.16258544 0.29134686 0.16258544
0.16510041 0.29112581 0.16243969
0.18930851 0.28912851 0.16112458
0.21333920 0.28733823 0.15994856
0.23830853 0.28563382 0.15883138
0.26439191 0.28398564 0.15775330
0.29159725 0.28237967 0.15670496
0.31985624 0.28080772 0.15568084
0.34905167 0.27926442 0.15467733
0.37903018 0.27774596 0.15369184
0.40961063 0.27624954 0.15272246
0.44059153 0.27477296 0.15176769
0.47175807 0.27331450 0.15082634
0.50288939 0.27187275 0.14989744
0.53376561 0.27044654 0.14898018
0.56417448 0.26903488 0.14807386
0.59391744 0.26763693 0.14717789
0.62281463 0.26625197 0.14629176
0.65070880 0.26487935 0.14541501
0.67746796 0.26351851 0.14454725
0.70298674 0.26216897 0.14368812
0.72718661 0.26083028 0.14283729
0.75001496 0.25950203 0.14199449
0.77144349 0.25818388 0.14115943
0.79146583 0.25687548 0.14033189
0.81009483 0.25557656 0.13951165
0.82735963 0.25428682 0.13869849
0.84330269 0.25300602 0.13789224
0.85797691 0.25173393 0.13709271
0.87144297 0.25047034 0.13629974
0.88376690 0.24921504 0.13551319
0.89501802 0.24796784 0.13473290
0.89913538 0.24748301 0.13442989
0.15892227 0.31657326 0.15892227
0.16139150 0.31634162 0.15877918
0.18517639 0.31424801 0.15748813
0.20881766 0.31237054 0.15633371
0.23341481 0.31058235 0.15523711
0.25914479 0.30885245 0.15417896
0.28602015 0.30716619 0.15315005
0.31397821 0.30551500 0.15214498
0.34290762 0.30389329 0.15116017
0.37266053 0.30229708 0.15019311
0.40306065 0.30072346 0.14924191
0.43391023 0.29917014 0.14830509
0.46499701 0.29763533 0.14738149
0.49610119 0.29611756 0.14647015
0.52700247 0.29461563 0.14557026
0.55748675 0.29312850 0.14468116
0.58735229 0.29165531 0.14380225
0.61641493 0.29019531 0.14293304
0.64451224 0.28874782 0.14207307
0.67150647 0.28731229 0.14122196
0.69728617 0.28588820 0.14037935
0.72176667 0.28447508 0.13954492
0.74488945 0.28307254 0.13871840
0.76662062 0.28168020 0.13789951
0.78694878 0.28029773 0.13708804
0.80588233 0.27892482 0.13628375
0.82344663 0.27756119 0.13548644
0.83968103 0.27620658 0.13469594
0.85463595 0.27486077 0.13391206
0.86837018 0.27352352 0.13313465
0.88094844 0.27219464 0.13236356
0.89243918 0.27087394 0.13159865
0.89664600 0.27036041 0.13130162
0.15537250 0.34257867 0.15537250
0.15779693 0.34233752 0.15523202
0.18116651 0.34015747 0.15396453
0.20442428 0.33820154 0.15283126
0.22865349 0.33633782 0.15175481
0.25403254 0.33453407 0.15071616
0.28057851 0.33277510 0.14970627
0.30823428 0.33105203 0.14871982
0.33689436 0.32935905 0.14775333
0.36641646 0.32769206 0.14680429
0.39662926 0.32604801 0.14587086
0.42733899 0.32442457 0.14495160
0.45833616 0.32281988 0.14404535
0.48940236 0.32123243 0.14315118
0.52031723 0.31966096 0.14226828
0.55086517 0.31810442 0.14139601
0.58084160 0.31656192 0.14053378
0.61005836 0.31503269 0.13968110
0.63834811 0.31351604 0.13883753
0.66556753 0.31201139 0.13800268
0.69159926 0.31051821 0.13717621
0.71635258 0.30903604 0.13635780
0.73976307 0.30756445 0.13554718
0.76179128 0.30610308 0.13474409
0.78242070 0.30465158 0.13394830
0.80165523 0.30320964 0.13315959
0.81951636 0.30177697 0.13237776
0.83604019 0.30035332 0.13160263
0.85127458 0.29893844 0.13083404
0.86527633 0.29753211 0.13007181
0.87810873 0.29613414 0.12931582
0.88983929 0.29474432 0.12856591
0.89413573 0.29420380 0.12827471
0.15192576 0.36926282 0.15192576
0.15430623 0.36901344 0.15178784
0.17726766 0.36675824 0.15054346
0.20014725 0.36473391 0.14943092
0.22401226 0.36280412 0.14837423
0.24904249 0.36093564 0.14735469
0.27525942 0.35911276 0.14636345
0.30261144 0.35732635 0.14539526
0.33099885 0.35557042 0.14444670
0.36028503 0.35384076 0.14351533
0.39030371 0.35213424 0.14259932
0.42086529 0.35044845 0.14169725
0.45176332 0.34878150 0.14080800
0.48278110 0.34713182 0.13993064
0.51369851 0.34549814 0.13906438
0.54429880 0.34387939 0.13820859
0.57437487 0.34227464 0.13736269
0.60373486 0.34068311 0.13652619
0.63220679 0.33910410 0.13569867
0.65964199 0.33753703 0.13487974
0.68591729 0.33598135 0.13406906
0.71093605 0.33443659 0.13326633
0.73462798 0.33290233 0.13247127
0.75694804 0.33137818 0.13168362
0.77787460 0.32986381 0.13090317
0.79740696 0.32835888 0.13012969
0.81556263 0.32686313 0.12936300
0.83237440 0.32537628 0.12860291
0.84788742 0.32389809 0.12784925
0.86215643 0.32242835 0.12710188
0.87524315 0.32096685 0.12636063
0.88721406 0.31951339 0.12562539
0.89160042 0.31894799 0.12533989
0.14857419 0.39650378 0.14857419
0.15091149 0.39624756 0.14843878
0.17347139 0.39392983 0.14721709
0.19597771 0.39184833 0.14612490
0.21948198 0.38986313 0.14508760
0.24416529 0.38794013 0.14408683
0.27005343 0.38606326 0.14311388
0.29710021 0.38422316 0.14216361
0.32521171 0.38241370 0.14123265
0.35425700 0.38063059 0.14031860
0.38407496 0.37887062 0.13941967
0.41448039 0.37713135 0.13853447
0.44527007 0.37541082 0.13766188
0.47622928 0.37370747 0.13680100
0.50713852 0.37201999 0.13595106
0.53778017 0.37034729 0.13511142
0.56794496 0.36868843 0.13428152
0.59743763 0.36704262 0.13346088
0.62608180 0.36540916 0.13264908
0.65372363 0.36378743 0.13184575
0.68023435 0.36217691 0.13105055
0.70551144 0.36057711 0.13026317
0.72947879 0.35898761 0.12948335
0.75208579 0.35740802 0.12871083
0.77330561 0.35583800 0.12794540
0.79313289 0.35427722 0.12718685
0.81158108 0.35272541 0.12643497
0.82867954 0.35118229 0.12568960
0.84447061 0.34964763 0.12495057
0.85900684 0.34812121 0.12421773
0.87234830 0.34660282 0.12349092
0.88456035 0.34509227 0.12277003
0.88903701 0.34450452 0.12249011
0.14531157 0.42416302 0.14531157
0.14760644 0.42390148 0.14517862
0.16977105 0.42153493 0.14397923
0.19190875 0.41940851 0.14290704
0.21505555 0.41737950 0.14188878
0.23939374 0.41541319 0.14090644
0.26495331 0.41349320 0.13995145
0.29169341 0.41161001 0.13901877
0.31952589 0.40975740 0.13810509
0.34832549 0.40793101 0.13720805
0.37793640 0.40612758 0.13632589
0.40817791 0.40434463 0.13545724
0.43885032 0.40258020 0.13460101
0.46974115 0.40083269 0.13375629
0.50063178 0.39910078 0.13292236
0.53130410 0.39738336 0.13209856
0.56154695 0.39567951 0.13128436
0.59116196 0.39398840 0.13047928
0.61996863 0.39230934 0.12968290
0.64780816 0.39064173 0.12889486
0.67454629 0.38898501 0.12811483
0.70007477 0.38733871 0.12734251
0.72431169 0.38570240 0.12657763
0.74720086 0.38407569 0.12581994
0.76871020 0.38245824 0.12506924
0.78882965 0.38084973 0.12432530
0.80756850 0.37924989 0.12358794
0.82495255 0.37765843 0.12285700
0.84102125 0.37607514 0.12213230
0.85582481 0.37449978 0.12141369
0.86942161 0.37293215 0.12070103
0.88187573 0.37137208 0.11999419
0.88644313 0.37076491 0.11971974
0.14213280 0.45208995 0.14213280
0.14438595 0.45182470 0.14200227
0.16616123 0.44942388 0.14082480
0.18793478 0.44726555 0.13977226
0.21072725 0.44520512 0.13877273
0.23472208 0.44320743 0.13780849
0.25995333 0.44125595 0.13687115
0.28638543 0.43934103 0.13595576
0.31393591 0.43745641 0.13505905
0.34248526 0.43559767 0.13417872
0.37188301 0.43376153 0.13331302
0.40195313 0.43194551 0.13246063
0.43249961 0.43014761 0.13162045
0.46331250 0.42836624 0.13079162
0.49417437 0.42660006 0.12997339
0.52486689 0.42484798 0.12916515
0.55517734 0.42310904 0.12836635
0.58490457 0.42138245 0.12757654
0.61386414 0.41966750 0.12679530
0.64189256 0.41796357 0.12602226
0.66885022 0.41627013 0.12525711
0.69462322 0.41458671 0.12449956
0.71912394 0.41291287 0.12374933
0.74229057 0.41124823 0.12300619
0.76408580 0.40959245 0.12226993
0.78449474 0.40794521 0.12154033
0.80352244 0.40630623 0.12081721
0.82119108 0.40467526 0.12010041
0.83753707 0.40305205 0.11938975
0.85260821 0.40143640 0.11868510
0.86646102 0.39982809 0.11798631
0.87915827 0.39822695 0.11729325
0.88381690 0.39760366 0.11702415
0.13903359 0.48012634 0.13903359
0.14124570 0.47985905 0.13890545
0.16263742 0.47743900 0.13774954
0.18405114 0.47526226 0.13671633
0.20649237 0.47318327 0.13573520
0.23014559 0.47116667 0.13478877
0.25504886 0.46919581 0.13386878
0.28117173 0.46726104 0.13297037
0.30843744 0.46535606 0.13209035
0.33673218 0.46347644 0.13122642
0.36591093 0.46161891 0.13037691
0.39580244 0.45978096 0.12954048
0.42621462 0.45796061 0.12871608
0.45694028 0.45615625 0.12790284
0.48776345 0.45436657 0.12710004
0.51846592 0.45259046 0.12630707
0.54883372 0.45082698 0.12552341
0.57866314 0.44907532 0.12474858
0.60776615 0.44733480 0.12398219
0.63597472 0.44560479 0.12322389
0.66314408 0.44388478 0.12247335
0.68915479 0.44217427 0.12173029
0.71391354 0.44047285 0.12099444
0.73735297 0.43878014 0.12026558
0.75943045 0.43709581 0.11954348
0.78012624 0.43541953 0.11882795
0.79944104 0.43375104 0.11811880
0.81739330 0.43209008 0.11741587
0.83401629 0.43043642 0.11671899
0.84935530 0.42878984 0.11602802
0.86346488 0.42715015 0.11534283
0.87640637 0.42551718 0.11466328
0.88115675 0.42488132 0.11439943
0.13601029 0.50811061 0.13601029
0.13818202 0.50784296 0.13588450
0.15919575 0.50541892 0.13474979
0.18025387 0.50323746 0.13373559
0.20234692 0.50115297 0.13277256
0.22566033 0.49913010 0.13184363
0.25023602 0.49715224 0.13094070
0.27604861 0.49520974 0.13005900
0.30302695 0.49329633 0.12919537
0.33106296 0.49140758 0.12834758
0.36001710 0.48954024 0.12751397
0.38972307 0.48769183 0.12669323
0.41999284 0.48586035 0.12588433
0.45062222 0.48404424 0.12508641
0.48139699 0.48224216 0.12429877
0.51209936 0.48045303 0.12352081
0.54251438 0.47867592 0.12275200
0.57243612 0.47691003 0.12199189
0.60167317 0.47515467 0.12124010
0.63005321 0.47340923 0.12049626
0.65742646 0.47167320 0.11976006
0.68366806 0.46994610 0.11903123
0.70867910 0.46822752 0.11830950
0.73238663 0.46651708 0.11759465
0.75474271 0.46481446 0.11688645
0.77572268 0.46311934 0.11618473
0.79532282 0.46143146 0.11548929
0.81355774 0.45975056 0.11479996
0.83045746 0.45807642 0.11411661
0.84606465 0.45640884 0.11343907
0.86043180 0.45474762 0.11276721
0.87361870 0.45309258 0.11210091
0.87846136 0.45244798 0.11184222
0.13305968 0.53588213 0.13305968
0.13519166 0.53561577 0.13293619
0.15583287 0.53320279 0.13182235
0.17653955 0.53103017 0.13082685
0.19828748 0.52895314 0.12988162
0.22126292 0.52693659 0.12896992
0.24551154 0.52496402 0.12808377
0.27101295 0.52302589 0.12721848
0.29770152 0.52111595 0.12637097
0.32547491 0.51922983 0.12553905
0.35419911 0.51736432 0.12472106
0.38371285 0.51551694 0.12391575
0.41383235 0.51368575 0.12312208
0.44435665 0.51186918 0.12233922
0.47507356 0.51006592 0.12156648
0.50576594 0.50827490 0.12080326
0.53621821 0.50649520 0.12004904
0.56622249 0.50472604 0.11930340
0.59558426 0.50296674 0.11856594
0.62412710 0.50121671 0.11783630
0.65169644 0.49947543 0.11711420
0.67816209 0.49774243 0.11639933
0.70341961 0.49601733 0.11569147
0.72739051 0.49429974 0.11499037
0.75002150 0.49258934 0.11429583
0.77128295 0.49088584 0.11360766
0.79116664 0.48918896 0.11292567
0.80968323 0.48749848 0.11224971
0.82685941 0.48581416 0.11157961
0.84273509 0.48413581 0.11091525
0.85736060 0.48246324 0.11025648
0.87079410 0.48079628 0.10960319
0.87572961 0.48014686 0.10934955
0.13017891 0.56328516 0.13017891
0.13227178 0.56302171 0.13005769
0.15254581 0.56063431 0.12896438
0.17290518 0.55848365 0.12798728
0.19431103 0.55642664 0.12705957
0.21695041 0.55442863 0.12616481
0.24087260 0.55247334 0.12529516
0.26606208 0.55055135 0.12444602
0.29245870 0.54865652 0.12361437
0.31996582 0.54678454 0.12279804
0.34845498 0.54493224 0.12199542
0.37777007 0.54309719 0.12120527
0.40773171 0.54127749 0.12042657
0.43814238 0.53947158 0.11965852
0.46879214 0.53767819 0.11890041
0.49946484 0.53589627 0.11815168
0.52994452 0.53412491 0.11741181
0.56002165 0.53236335 0.11668037
0.58949885 0.53061092 0.11595699
0.61819585 0.52886705 0.11524131
0.64595345 0.52713122 0.11453304
0.67263628 0.52540300 0.11383190
0.69813442 0.52368198 0.11313765
0.72236389 0.52196781 0.11245006
0.74526604 0.52026017 0.11176893
0.76680620 0.51855877 0.11109406
0.78697158 0.51686335 0.11042528
0.80576881 0.51517368 0.10976243
0.82322114 0.51348955 0.10910536
0.83936562 0.51181076 0.10845394
0.85425029 0.51013712 0.10780801
0.86793160 0.50846849 0.10716748
0.87296049 0.50781825 0.10691880
0.12736543 0.59017256 0.12736543
0.12941979 0.58991352 0.12724645
0.14933192 0.58756542 0.12617334
0.16934806 0.58544911 0.12521435
0.19041493 0.58342402 0.12430388
0.21272021 0.58145614 0.12342577
0.23631673 0.57952951 0.12257235
0.26119370 0.57763489 0.12173910
0.28729639 0.57576625 0.12092304
0.31453381 0.57391939 0.12012205
0.34278311 0.57209120 0.11933454
0.37189339 0.57027931 0.11855930
0.40168984 0.56848185 0.11779532
0.43197855 0.56669730 0.11704181
0.46255210 0.56492443 0.11629810
0.49319558 0.56316220 0.11556360
0.52369296 0.56140974 0.11483783
0.55383333 0.55966629 0.11412035
0.58341672 0.55793122 0.11341080
0.61225924 0.55620395 0.11270883
0.64019724 0.55448400 0.11201416
0.66709031 0.55277093 0.11132650
0.69282315 0.55106436 0.11064562
0.71730631 0.54936393 0.10997130
0.74047577 0.54766935 0.10930333
0.76229179 0.54598032 0.10864153
0.78273695 0.54429661 0.10798572
0.80181374 0.54261799 0.10733575
0.81954185 0.54094424 0.10669147
0.83595539 0.53927518 0.10605274
0.85110000 0.53761064 0.10541943
0.86503030 0.53595046 0.10479141
0.87015314 0.53530335 0.10454760
0.12461692 0.61640888 0.12461692
0.12663339 0.61615564 0.12450014
0.14618880 0.61385945 0.12344692
0.16586579 0.61178891 0.12250575
0.18659677 0.60980674 0.12161223
0.20857002 0.60787973 0.12075052
0.23184174 0.60599231 0.11991306
0.25640579 0.60413547 0.11909544
0.28221277 0.60230336 0.11829471
0.30917731 0.60049186 0.11750880
0.33718217 0.59869797 0.11673616
0.36608175 0.59691936 0.11597557
0.39570591 0.59515422 0.11522607
0.42586457 0.59340108 0.11448686
0.45635305 0.59165875 0.11375729
0.48695795 0.58992620 0.11303678
0.51746345 0.58820259 0.11232486
0.54765752 0.58648721 0.11162111
0.57733790 0.58477941 0.11092515
0.60631729 0.58307866 0.11023666
0.63442779 0.58138447 0.10955534
0.66152410 0.57969643 0.10888093
0.68748563 0.57801417 0.10821318
0.71221750 0.57633734 0.10755189
0.73565033 0.57466565 0.10689685
0.75773928 0.57299884 0.10624788
0.77846220 0.57133666 0.10560481
0.79781738 0.56967889 0.10496749
0.81582086 0.56802534 0.10433576
0.83250367 0.56637581 0.10370949
0.84790897 0.56473015 0.10308856
0.86208942 0.56308821 0.10247284
0.86730677 0.56244805 0.10223381
0.12193126 0.64187295 0.12193126
0.12391043 0.64162674 0.12181666
0.14311425 0.63939374 0.12078300
0.16245614 0.63737924 0.11985936
0.18285439 0.63544988 0.11898253
0.20449774 0.63357341 0.11813694
0.22744566 0.63173474 0.11731520
0.25169656 0.62992513 0.11651294
0.27720625 0.62813891 0.11572729
0.30389496 0.62637209 0.11495622
0.33165106 0.62462176 0.11419819
0.36033429 0.62288568 0.11345201
0.38977933 0.62116208 0.11271674
0.41980009 0.61944956 0.11199159
0.45019484 0.61774694 0.11127592
0.48075197 0.61605325 0.11056917
0.51125611 0.61436767 0.10987087
0.54149444 0.61268951 0.10918060
0.57126262 0.61101816 0.10849800
0.60037023 0.60935308 0.10782274
0.62864529 0.60769383 0.10715455
0.65593776 0.60603999 0.10649315
0.68212188 0.60439121 0.10583831
0.70709737 0.60274716 0.10518982
0.73078953 0.60110756 0.10454748
0.75314835 0.59947215 0.10391111
0.77414693 0.59784069 0.10328055
0.79377925 0.59621298 0.10265564
0.81205760 0.59458882 0.10203624
0.82900984 0.59296805 0.10142222
0.84467652 0.59135050 0.10081344
0.85910829 0.58973602 0.10020979
0.86442067 0.58910641 0.09997545
0.11930651 0.66645967 0.11930651
0.12124895 0.66622158 0.11919403
0.14010625 0.66406159 0.11817964
0.15911711 0.66211208 0.11727325
0.17918579 0.66024416 0.11641283
0.20050146 0.65842671 0.11558311
0.22312672 0.65664517 0.11477682
0.24706439 0.65489110 0.11398968
0.27227543 0.65315903 0.11321887
0.29868559 0.65144512 0.11246238
0.32618884 0.64974657 0.11171871
0.35465035 0.64806121 0.11098671
0.38390968 0.64638736 0.11026543
0.41378491 0.64472365 0.10955410
0.44407748 0.64306895 0.10885210
0.47457779 0.64142233 0.10815887
0.50507124 0.63978301 0.10747395
0.53534445 0.63815030 0.10679694
0.56519130 0.63652364 0.10612746
0.59441846 0.63490251 0.10546522
0.62285008 0.63328647 0.10480991
0.65033156 0.63167513 0.10416129
0.67673206 0.63006814 0.10351913
0.70194600 0.62846521 0.10288322
0.72589331 0.62686604 0.10225336
0.74851884 0.62527040 0.10162937
0.76979086 0.62367806 0.10101109
0.78969896 0.62208882 0.10039838
0.80825161 0.62050249 0.09979108
0.82547336 0.61891892 0.09918907
0.84140208 0.61733794 0.09859223
0.85608625 0.61575943 0.09800043
0.86149421 0.61514369 0.09777070
0.11674083 0.69008129 0.11674083
0.11864712 0.68985221 0.11663045
0.13716294 0.68777348 0.11563501
0.15584680 0.68589648 0.11474560
0.17558915 0.68409731 0.11390133
0.19657943 0.68234607 0.11308722
0.21888328 0.68062877 0.11229613
0.24250781 0.67893732 0.11152386
0.26741903 0.67726646 0.11076764
0.29354814 0.67561252 0.11002549
0.32079473 0.67397280 0.10929596
0.34902937 0.67234523 0.10857789
0.37809665 0.67072819 0.10787036
0.40781896 0.66912037 0.10717263
0.43800111 0.66752071 0.10648406
0.46843574 0.66592829 0.10580412
0.49890927 0.66434238 0.10513236
0.52920806 0.66276231 0.10446836
0.55912447 0.66118755 0.10381179
0.58846249 0.65961759 0.10316233
0.61704265 0.65805203 0.10251969
0.64470591 0.65649048 0.10188363
0.67131649 0.65493262 0.10125393
0.69676354 0.65337815 0.10063037
0.72096172 0.65182681 0.10001276
0.74385067 0.65027836 0.09940093
0.76539379 0.64873259 0.09879472
0.78557624 0.64718930 0.09819398
0.80440250 0.64564832 0.09759857
0.82189378 0.64410950 0.09700837
0.83808512 0.64257267 0.09642324
0.85302275 0.64103773 0.09584308
0.85852681 0.64043885 0.09561786
0.11423253 0.71266783 0.11423253
0.11610325 0.71244849 0.11412421
0.13428256 0.71045764 0.11314742
0.15264348 0.70865924 0.11227471
0.17206274 0.70693475 0.11144634
0.19273002 0.70525557 0.11064759
0.21471384 0.70360832 0.10987145
0.23802549 0.70198528 0.10911380
0.26263591 0.70038143 0.10837193
0.28848171 0.69879327 0.10764389
0.31546803 0.69721821 0.10692825
0.34347092 0.69565428 0.10622388
0.37234007 0.69409994 0.10552988
0.40190230 0.69255394 0.10484551
0.43196598 0.69101525 0.10417014
0.46232624 0.68948301 0.10350327
0.49277076 0.68795652 0.10284443
0.52308591 0.68643515 0.10219324
0.55306280 0.68491837 0.10154934
0.58250300 0.68340573 0.10091244
0.61122360 0.68189681 0.10028225
0.63906132 0.68039127 0.09965854
0.66587556 0.67888878 0.09904107
0.69155031 0.67738907 0.09842964
0.71599493 0.67589189 0.09782407
0.73914389 0.67439700 0.09722418
0.76095566 0.67290421 0.09662983
0.78141086 0.67141333 0.09604085
0.80050998 0.66992420 0.09545711
0.81827070 0.66843665 0.09487849
0.83472518 0.66695056 0.09430487
