luts/cubes/golden_hour.cube
TITLE "golden_hour"
LUT_3D_SIZE 33
DOMAIN_MIN 0.0 0.0 0.0
DOMAIN_MAX 1.0 1.0 1.0
0.24150428 0.21080471 0.20086689
0.26696260 0.21005741 0.20035791
0.29208871 0.20936622 0.19988628
0.31749740 0.20870472 0.19943413
0.34332545 0.20806332 0.19899500
0.36957794 0.20743703 0.19856552
0.39620091 0.20682280 0.19814366
0.42310731 0.20621858 0.19772803
0.45018952 0.20562287 0.19731765
0.47732708 0.20503459 0.19691178
0.50439230 0.20445287 0.19650985
0.53125479 0.20387702 0.19611140
0.55778540 0.20330649 0.19571607
0.58385965 0.20274080 0.19532354
0.60936057 0.20217958 0.19493356
0.63418115 0.20162248 0.19454591
0.65822621 0.20106921 0.19416041
0.68141377 0.20051954 0.19377688
0.70367581 0.19997323 0.19339519
0.72495864 0.19943010 0.19301520
0.74522273 0.19888996 0.19263681
0.76444218 0.19835267 0.19225992
0.78260388 0.19781809 0.19188443
0.79970647 0.19728609 0.19151027
0.81575897 0.19675655 0.19113736
0.82454598 0.19645225 0.19092284
0.82454598 0.19645225 0.19092284
0.82454598 0.19645225 0.19092284
0.82454598 0.19645225 0.19092284
0.82454598 0.19645225 0.19092284
0.82454598 0.19645225 0.19092284
0.82454598 0.19645225 0.19092284
0.82454598 0.19645225 0.19092284
0.23824815 0.22904035 0.19941990
0.26365958 0.22829035 0.19890782
0.28877049 0.22759635 0.19843336
0.31419252 0.22693188 0.19797853
0.34006125 0.22628735 0.19753682
0.36638071 0.22565775 0.19710486
0.39309567 0.22504004 0.19668058
0.42011740 0.22443215 0.19626259
0.44733619 0.22383262 0.19584991
0.47462907 0.22324035 0.19544179
0.50186549 0.22265446 0.19503765
0.52891194 0.22207429 0.19463704
0.55563595 0.22149926 0.19423958
0.58190972 0.22092893 0.19384497
0.60761294 0.22036289 0.19345294
0.63263545 0.21980082 0.19306328
0.65687916 0.21924242 0.19267579
0.68025948 0.21868747 0.19229030
0.70270614 0.21813572 0.19190669
0.72416360 0.21758699 0.19152481
0.74459088 0.21704112 0.19114456
0.76396105 0.21649794 0.19076583
0.78226034 0.21595731 0.19038853
0.79948705 0.21541912 0.19001258
0.81565021 0.21488326 0.18963792
0.82449501 0.21457523 0.18942239
0.82449501 0.21457523 0.18942239
0.82449501 0.21457523 0.18942239
0.82449501 0.21457523 0.18942239
0.82449501 0.21457523 0.18942239
0.82449501 0.21457523 0.18942239
0.82449501 0.21457523 0.18942239
0.82449501 0.21457523 0.18942239
0.23521392 0.24732223 0.19805900
0.26057674 0.24657415 0.19754412
0.28566887 0.24588163 0.19706709
0.31109901 0.24521831 0.19660983
0.33700164 0.24457464 0.19616579
0.36337992 0.24394565 0.19573157
0.39017746 0.24332831 0.19530510
0.41730404 0.24272057 0.19488498
0.44464802 0.24212097 0.19447021
0.47208413 0.24152841 0.19406005
0.49947913 0.24094205 0.19365392
0.52669658 0.24036120 0.19325135
0.55360092 0.23978531 0.19285197
0.58006114 0.23921393 0.19245547
0.60595380 0.23864666 0.19206159
0.63116572 0.23808318 0.19167011
0.65559603 0.23752321 0.19128083
0.67915762 0.23696650 0.19089359
0.70177807 0.23641283 0.19050824
0.72340005 0.23586202 0.19012466
0.74398119 0.23531389 0.18974272
0.76349354 0.23476829 0.18936234
0.78192268 0.23422509 0.18898341
0.79926660 0.23368417 0.18860586
0.81553430 0.23314541 0.18822961
0.82443370 0.23283564 0.18801319
0.82443370 0.23283564 0.18801319
0.82443370 0.23283564 0.18801319
0.82443370 0.23283564 0.18801319
0.82443370 0.23283564 0.18801319
0.82443370 0.23283564 0.18801319
0.82443370 0.23283564 0.18801319
0.82443370 0.23283564 0.18801319
0.23226468 0.26631994 0.19672453
0.25757566 0.26557833 0.19620699
0.28264522 0.26489151 0.19572753
0.30807918 0.26423339 0.19526796
0.33401100 0.26359451 0.19482172
0.36044305 0.26296996 0.19438536
0.38731788 0.26235676 0.19395682
0.41454388 0.26175287 0.19353469
0.44200757 0.26115686 0.19311795
0.46958143 0.26056765 0.19270587
0.49712966 0.25998439 0.19229785
0.52451293 0.25940641 0.19189344
0.55159260 0.25883318 0.19149225
0.57823455 0.25826424 0.19109398
0.60431221 0.25769920 0.19069836
0.62970941 0.25713776 0.19030516
0.65432249 0.25657963 0.18991419
0.67806183 0.25602456 0.18952530
0.70085287 0.25547235 0.18913832
0.72263648 0.25492281 0.18875313
0.74336888 0.25437577 0.18836962
0.76302108 0.25383109 0.18798768
0.78157801 0.25328863 0.18760723
0.79903732 0.25274827 0.18722817
0.81540799 0.25220990 0.18685044
0.82436119 0.25190029 0.18663317
0.82436119 0.25190029 0.18663317
0.82436119 0.25190029 0.18663317
0.82436119 0.25190029 0.18663317
0.82436119 0.25190029 0.18663317
0.82436119 0.25190029 0.18663317
0.82436119 0.25190029 0.18663317
0.82436119 0.25190029 0.18663317
0.22937314 0.28614368 0.19540483
0.25462885 0.28541327 0.19488475
0.27967211 0.28473652 0.19440297
0.30510586 0.28408778 0.19394121
0.33106264 0.28345777 0.19349286
0.35754407 0.28284165 0.19305448
0.38449178 0.28223649 0.19262396
0.41181279 0.28164031 0.19219991
0.43939189 0.28105169 0.19178130
0.46709938 0.28046958 0.19136739
0.49479691 0.27989314 0.19095758
0.52234233 0.27932173 0.19055141
0.54959397 0.27875481 0.19014851
0.57641457 0.27819195 0.18974855
0.60267445 0.27763276 0.18935126
0.62825444 0.27707694 0.18895644
0.65304808 0.27652421 0.18856388
0.67696325 0.27597433 0.18817341
0.69992318 0.27542711 0.18778489
0.72186694 0.27488235 0.18739818
0.74274931 0.27433990 0.18701317
0.76254027 0.27379961 0.18662976
0.78122405 0.27326135 0.18624786
0.79879796 0.27272500 0.18586738
0.81527091 0.27219047 0.18548825
0.82427758 0.27188298 0.18527018
0.82427758 0.27188298 0.18527018
0.82427758 0.27188298 0.18527018
0.82427758 0.27188298 0.18527018
0.82427758 0.27188298 0.18527018
0.82427758 0.27188298 0.18527018
0.82427758 0.27188298 0.18527018
0.82427758 0.27188298 0.18527018
0.22652668 0.30682539 0.19409463
0.25172366 0.30611106 0.19357212
0.27673695 0.30544890 0.19308812
0.30216662 0.30481389 0.19262426
0.32814436 0.30419695 0.19217390
0.35467114 0.30359338 0.19173357
0.38168769 0.30300033 0.19130117
0.40909979 0.30241585 0.19087528
0.43679055 0.30183857 0.19045488
0.46462814 0.30126746 0.19003922
0.49247171 0.30070171 0.18962771
0.52017632 0.30014070 0.18921987
0.54759727 0.29958391 0.18881532
0.57459419 0.29903090 0.18841375
0.60103427 0.29848131 0.18801489
0.62679533 0.29793485 0.18761852
0.65176808 0.29739124 0.18722443
0.67585784 0.29685025 0.18683247
0.69898566 0.29631170 0.18644248
0.72108875 0.29577539 0.18605433
0.74212043 0.29524118 0.18566790
0.76204961 0.29470892 0.18528310
0.78085983 0.29417849 0.18489982
0.79854800 0.29364977 0.18451799
0.81512299 0.29312267 0.18413753
0.82418300 0.29281938 0.18391870
0.82418300 0.29281938 0.18391870
0.82418300 0.29281938 0.18391870
0.82418300 0.29281938 0.18391870
0.82418300 0.29281938 0.18391870
0.82418300 0.29281938 0.18391870
0.82418300 0.29281938 0.18391870
0.82418300 0.29281938 0.18391870
0.22371809 0.32836151 0.19279097
0.24885289 0.32766823 0.19226612
0.27383258 0.32702528 0.19177999
0.29925441 0.32640842 0.19131412
0.32524926 0.32580888 0.19086183
0.35181751 0.32522209 0.19041964
0.37889912 0.32464528 0.18998543
0.40639868 0.32407660 0.18955779
0.43419764 0.32351471 0.18913568
0.46216214 0.32295861 0.18871835
0.49014887 0.32240754 0.18830520
0.51801009 0.32186087 0.18789576
0.54559812 0.32131812 0.18748965
0.57276945 0.32077886 0.18708655
0.59938814 0.32024275 0.18668618
0.62532896 0.31970949 0.18628833
0.65047978 0.31917884 0.18589280
0.67474335 0.31865057 0.18549941
0.69803845 0.31812448 0.18510802
0.72030043 0.31760042 0.18471849
0.74148111 0.31707822 0.18433072
0.76154831 0.31655775 0.18394459
0.78048483 0.31603890 0.18356000
0.79828721 0.31552156 0.18317689
0.81496422 0.31500562 0.18279517
0.82407760 0.31470868 0.18257563
0.82407760 0.31470868 0.18257563
0.82407760 0.31470868 0.18257563
0.82407760 0.31470868 0.18257563
0.82407760 0.31470868 0.18257563
0.82407760 0.31470868 0.18257563
0.82407760 0.31470868 0.18257563
0.82407760 0.31470868 0.18257563
0.22094273 0.35072462 0.19149197
0.24601192 0.35005737 0.19096489
0.27095445 0.34943829 0.19047672
0.29636474 0.34884404 0.19000891
0.32237295 0.34826623 0.18955477
0.34897895 0.34770046 0.18911079
0.37612197 0.34714410 0.18867486
0.40370549 0.34659535 0.18824553
0.43160941 0.34605293 0.18782179
0.45969785 0.34551590 0.18740286
0.48782507 0.34498351 0.18698815
0.51584058 0.34445518 0.18657718
0.54359371 0.34393043 0.18616957
0.57093781 0.34340886 0.18576500
0.59773379 0.34289016 0.18536320
0.62385335 0.34237402 0.18496394
0.64918147 0.34186022 0.18456703
0.67361830 0.34134853 0.18417228
0.69708034 0.34083879 0.18377956
0.71950100 0.34033082 0.18338873
0.74083061 0.33982448 0.18299967
0.76103584 0.33931965 0.18261228
0.78009874 0.33881621 0.18222646
0.79801545 0.33831406 0.18184212
0.81479464 0.33781310 0.18145920
0.82396148 0.33752470 0.18123898
0.82396148 0.33752470 0.18123898
0.82396148 0.33752470 0.18123898
0.82396148 0.33752470 0.18123898
0.82396148 0.33752470 0.18123898
0.82396148 0.33752470 0.18123898
0.82396148 0.33752470 0.18123898
0.82396148 0.33752470 0.18123898
0.21819741 0.37386762 0.19019639
0.24319759 0.37323135 0.18966715
0.26809943 0.37264069 0.18917702
0.29349456 0.37207346 0.18870736
0.31951246 0.37152165 0.18825145
0.34615256 0.37098112 0.18780576
0.37335345 0.37044934 0.18736817
0.40101758 0.36992460 0.18693723
0.42902333 0.36940571 0.18651192
0.45723286 0.36889175 0.18609146
0.48549806 0.36838203 0.18567526
0.51366571 0.36787600 0.18526283
0.54158212 0.36737319 0.18485380
0.56909752 0.36687324 0.18444783
0.59606965 0.36637584 0.18404466
0.62236711 0.36588071 0.18364406
0.64787197 0.36538763 0.18324583
0.67248171 0.36489641 0.18284979
0.69611050 0.36440686 0.18245580
0.71868983 0.36391884 0.18206372
0.74016845 0.36343220 0.18167344
0.76051187 0.36294684 0.18128485
0.77970137 0.36246264 0.18089785
0.79773265 0.36197950 0.18051237
0.81461428 0.36149734 0.18012831
0.82383473 0.36121968 0.17990744
0.82383473 0.36121968 0.17990744
0.82383473 0.36121968 0.17990744
0.82383473 0.36121968 0.17990744
0.82383473 0.36121968 0.17990744
0.82383473 0.36121968 0.17990744
0.82383473 0.36121968 0.17990744
0.82383473 0.36121968 0.17990744
0.21547983 0.39772586 0.18890333
0.24040763 0.39712528 0.18837204
0.26526532 0.39656745 0.18788002
0.29064170 0.39603148 0.18740859
0.31666567 0.39550982 0.18695097
0.34333629 0.39499857 0.18650365
0.37059159 0.39449536 0.18606447
0.39833303 0.39399859 0.18563199
0.42643757 0.39350714 0.18520518
0.45476546 0.39302015 0.18478326
0.48316623 0.39253696 0.18436563
0.51148395 0.39205706 0.18395181
0.53956196 0.39158003 0.18354141
0.56724733 0.39110550 0.18313411
0.59439460 0.39063320 0.18272964
0.62086925 0.39016286 0.18232776
0.64655039 0.38969429 0.18192827
0.67133282 0.38922729 0.18153100
0.69512833 0.38876169 0.18113581
0.71786642 0.38829737 0.18074255
0.73949425 0.38783419 0.18035111
0.75997614 0.38737204 0.17996138
0.77929256 0.38691082 0.17957327
0.79743876 0.38645044 0.17918668
0.81442319 0.38599082 0.17880155
0.82369745 0.38572606 0.17858008
0.82369745 0.38572606 0.17858008
0.82369745 0.38572606 0.17858008
0.82369745 0.38572606 0.17858008
0.82369745 0.38572606 0.17858008
0.82369745 0.38572606 0.17858008
0.82369745 0.38572606 0.17858008
0.82369745 0.38572606 0.17858008
0.21278825 0.42221841 0.18761217
0.23764036 0.42165795 0.18707889
0.26245046 0.42113708 0.18658507
0.28780457 0.42063633 0.18611194
0.31383103 0.42014869 0.18565269
0.34052865 0.41967053 0.18520380
0.36783493 0.41919966 0.18476310
0.39565046 0.41873458 0.18432916
0.42385081 0.41827426 0.18390091
0.45229438 0.41781789 0.18347760
0.48082839 0.41736488 0.18305861
0.50929421 0.41691475 0.18264346
0.53753220 0.41646709 0.18223176
0.56538628 0.41602159 0.18182319
0.59270778 0.41557798 0.18141747
0.61935900 0.41513602 0.18101437
0.64521609 0.41469553 0.18061369
0.67017107 0.41425633 0.18021526
0.69413337 0.41381826 0.17981892
0.71703042 0.41338121 0.17942454
0.73880776 0.41294505 0.17903200
0.75942848 0.41250968 0.17864119
0.77887221 0.41207501 0.17825202
0.79713376 0.41164096 0.17786440
0.81422139 0.41120744 0.17747826
0.82354971 0.41095764 0.17725620
0.82354971 0.41095764 0.17725620
0.82354971 0.41095764 0.17725620
0.82354971 0.41095764 0.17725620
0.82354971 0.41095764 0.17725620
0.82354971 0.41095764 0.17725620
0.82354971 0.41095764 0.17725620
0.82354971 0.41095764 0.17725620
0.21012136 0.44724941 0.18632243
0.23489452 0.44673308 0.18578725
0.25965363 0.44625289 0.18529170
0.28498198 0.44579097 0.18481694
0.31100740 0.44534087 0.18435613
0.33772851 0.44489927 0.18390574
0.36508241 0.44446415 0.18346360
0.39296882 0.44403415 0.18302824
0.42126205 0.44360831 0.18259863
0.44981866 0.44318591 0.18217399
0.47848362 0.44276640 0.18175370
0.50709562 0.44234934 0.18133728
0.53549205 0.44193437 0.18092435
0.56351365 0.44152119 0.18051457
0.59100852 0.44110957 0.18010766
0.61783578 0.44069928 0.17970341
0.64386853 0.44029016 0.17930160
0.66899604 0.43988204 0.17890206
0.69312525 0.43947479 0.17850463
0.71618152 0.43906829 0.17810919
0.73810874 0.43866244 0.17771561
0.75886872 0.43825714 0.17732378
0.77844025 0.43785231 0.17693361
0.79681761 0.43744788 0.17654502
0.81374512 0.43760163 0.17665037
0.82293535 0.43769933 0.17671888
0.82293535 0.43769933 0.17671888
0.82293535 0.43769933 0.17671888
0.82293535 0.43769933 0.17671888
0.82293535 0.43769933 0.17671888
0.82293535 0.43769933 0.17671888
0.82293535 0.43769933 0.17671888
0.82293535 0.43769933 0.17671888
0.20747814 0.47270963 0.18503376
0.23216910 0.47224089 0.18449677
0.25687388 0.47180462 0.18399956
0.28217301 0.47138465 0.18352324
0.30819390 0.47097514 0.18306094
0.33493505 0.47057311 0.18260912
0.36233319 0.47017671 0.18216559
0.39028734 0.46978474 0.18172889
0.41867053 0.46939633 0.18129798
0.44733758 0.46901082 0.18087207
0.47613123 0.46862773 0.18045054
0.50488752 0.46824665 0.18003292
0.53344087 0.46786726 0.17961881
0.56162885 0.46748931 0.17920788
0.58929630 0.46711256 0.17879986
0.61629912 0.46673684 0.17839451
0.64250732 0.46636198 0.17799162
0.66780735 0.46598785 0.17759103
0.69210366 0.46561432 0.17719258
0.71531950 0.46524129 0.17679613
0.73739007 0.46503171 0.17657590
0.75816694 0.46514093 0.17669622
0.77761356 0.46525209 0.17681744
0.79575204 0.46536516 0.17693959
0.81261716 0.46548015 0.17706266
0.82178173 0.46554733 0.17713407
0.82178173 0.46554733 0.17713407
0.82178173 0.46554733 0.17713407
0.82178173 0.46554733 0.17713407
0.82178173 0.46554733 0.17713407
0.82178173 0.46554733 0.17713407
0.82178173 0.46554733 0.17713407
0.82178173 0.46554733 0.17713407
0.20485776 0.49847842 0.18374591
0.22946334 0.49806009 0.18320717
0.25411048 0.49767038 0.18270838
0.27937697 0.49729491 0.18223057
0.30538986 0.49692851 0.18176685
0.33214760 0.49656851 0.18131366
0.35958667 0.49621329 0.18086882
0.38760540 0.49586178 0.18043084
0.41607566 0.49551321 0.17999869
0.44485057 0.49516701 0.17957157
0.47377067 0.49482274 0.17914887
0.50266938 0.49448005 0.17873010
0.53137817 0.49413866 0.17831488
0.55973142 0.49379834 0.17790286
0.58757068 0.49345889 0.17749377
0.61474861 0.49312016 0.17708738
0.64113209 0.49278199 0.17668348
0.66677742 0.49268611 0.17661241
0.69134314 0.49273326 0.17673521
0.71463348 0.49278271 0.17685886
0.73661701 0.49283441 0.17698338
0.75728243 0.49288835 0.17710877
0.77663602 0.49294450 0.17723506
0.79469914 0.49300284 0.17736226
0.81150552 0.49306335 0.17749036
0.82064327 0.49309923 0.17756466
0.82064327 0.49309923 0.17756466
0.82064327 0.49309923 0.17756466
0.82064327 0.49309923 0.17756466
0.82064327 0.49309923 0.17756466
0.82064327 0.49309923 0.17756466
0.82064327 0.49309923 0.17756466
0.82064327 0.49309923 0.17756466
0.20225957 0.52442593 0.18245867
0.22677663 0.52406009 0.18191827
0.25136287 0.52371891 0.18141797
0.27659332 0.52338984 0.18093874
0.30259477 0.52306841 0.18047367
0.32936569 0.52275230 0.18001918
0.35684237 0.52244010 0.17957307
0.38492256 0.52213089 0.17913388
0.41347700 0.52182400 0.17870055
0.44235719 0.52151894 0.17827228
0.47140152 0.52121533 0.17784847
0.50044080 0.52091287 0.17742862
0.52930356 0.52061132 0.17701234
0.55782099 0.52031048 0.17659929
0.58637396 0.52024672 0.17664078
0.61413879 0.52022921 0.17676639
0.64087259 0.52021449 0.17689276
0.66647620 0.52020247 0.17701990
0.69087434 0.52019312 0.17714785
0.71401479 0.52018638 0.17727663
0.73586687 0.52018220 0.17740626
0.75641937 0.52018055 0.17753674
0.77567829 0.52018138 0.17766811
0.79366424 0.52018466 0.17780036
0.81040993 0.52019036 0.17793350
0.81951971 0.52019473 0.17801071
0.81951971 0.52019473 0.17801071
0.81951971 0.52019473 0.17801071
0.81951971 0.52019473 0.17801071
0.81951971 0.52019473 0.17801071
0.81951971 0.52019473 0.17801071
0.81951971 0.52019473 0.17801071
0.81951971 0.52019473 0.17801071
0.19968304 0.55041581 0.18117190
0.22410850 0.55010375 0.18062992
0.24863059 0.54981231 0.18012819
0.27382166 0.54953086 0.17964760
0.29980826 0.54925558 0.17918124
0.32658895 0.54898454 0.17872551
0.35409995 0.54871654 0.17827822
0.38223846 0.54845081 0.17783787
0.41087421 0.54818678 0.17740342
0.43985711 0.54792406 0.17697407
0.46902343 0.54766231 0.17654921
0.49921211 0.54756865 0.17665945
0.52902179 0.54748427 0.17678837
0.55823519 0.54740337 0.17691789
0.58669038 0.54732581 0.17704805
0.61424553 0.54725150 0.17717890
0.64078100 0.54718033 0.17731047
0.66620032 0.54711223 0.17744280
0.69043025 0.54704710 0.17757591
0.71341990 0.54698489 0.17770983
0.73513932 0.54692553 0.17784457
0.75557750 0.54686896 0.17798016
0.77474011 0.54681513 0.17811660
0.79264710 0.54676399 0.17825392
0.80933019 0.54671549 0.17839212
0.81841086 0.54668871 0.17847223
0.81841086 0.54668871 0.17847223
0.81841086 0.54668871 0.17847223
0.81841086 0.54668871 0.17847223
0.81841086 0.54668871 0.17847223
0.81841086 0.54668871 0.17847223
0.81841086 0.54668871 0.17847223
0.81841086 0.54668871 0.17847223
0.19712774 0.57630817 0.17988552
0.22145857 0.57605035 0.17934203
0.24591333 0.57580910 0.17883893
0.27106168 0.57557570 0.17835705
0.29703003 0.57534704 0.17788947
0.32381712 0.57512153 0.17743257
0.35135913 0.57489822 0.17698414
0.37955285 0.57467646 0.17654271
0.40966414 0.57451684 0.17666594
0.43995403 0.57436317 0.17679902
0.47020170 0.57421408 0.17693240
0.50021329 0.57406933 0.17706618
0.52980221 0.57392867 0.17720045
0.55879438 0.57379193 0.17733528
0.58703222 0.57365893 0.17747071
0.61437782 0.57352955 0.17760681
0.64071484 0.57340364 0.17774360
0.66594952 0.57328111 0.17788112
0.69001059 0.57316186 0.17801940
0.71284853 0.57304579 0.17815847
0.73443413 0.57293283 0.17829834
0.75475657 0.57282290 0.17843904
0.77382127 0.57271594 0.17858058
0.79164752 0.57261189 0.17872298
0.80826615 0.57251069 0.17886625
0.81731658 0.57245360 0.17894928
0.81731658 0.57245360 0.17894928
0.81731658 0.57245360 0.17894928
0.81731658 0.57245360 0.17894928
0.81731658 0.57245360 0.17894928
0.81731658 0.57245360 0.17894928
0.81731658 0.57245360 0.17894928
0.81731658 0.57245360 0.17894928
0.19459334 0.60196268 0.17859945
0.21882653 0.60175871 0.17805453
0.24321081 0.60156731 0.17755012
0.26831316 0.60138166 0.17706703
0.29425989 0.60119934 0.17659829
0.32253351 0.60097240 0.17665578
0.35168881 0.60074530 0.17679467
0.38133519 0.60052495 0.17693323
0.41130064 0.60031066 0.17707171
0.44139987 0.60010193 0.17721028
0.47144226 0.59989833 0.17734911
0.50123865 0.59969954 0.17748829
0.53060722 0.59950528 0.17762792
0.55937852 0.59931532 0.17776807
0.58739928 0.59912947 0.17790879
0.61453542 0.59894754 0.17805015
0.64067389 0.59876940 0.17819217
0.66572354 0.59859491 0.17833490
0.68961512 0.59842395 0.17847837
0.71230044 0.59825642 0.17862260
0.73375106 0.59809222 0.17876762
0.75395638 0.59793126 0.17891344
0.77292158 0.59777347 0.17906010
0.79066537 0.59761877 0.17920759
0.80721767 0.59746710 0.17935594
0.81623676 0.59738098 0.17944189
0.81623676 0.59738098 0.17944189
0.81623676 0.59738098 0.17944189
0.81623676 0.59738098 0.17944189
0.81623676 0.59738098 0.17944189
0.81623676 0.59738098 0.17944189
0.81623676 0.59738098 0.17944189
0.81623676 0.59738098 0.17944189
0.19207954 0.62724173 0.17731365
0.21621216 0.62709040 0.17676737
0.24158125 0.62684718 0.17661857
0.26851482 0.62653490 0.17676774
0.29621554 0.62623547 0.17691454
0.32463701 0.62594627 0.17705997
0.35366957 0.62566568 0.17720459
0.38316702 0.62539261 0.17734879
0.41296070 0.62512624 0.17749283
0.44286930 0.62486598 0.17763692
0.47270661 0.62461133 0.17778121
0.50228812 0.62436191 0.17792580
0.53143671 0.62411740 0.17807080
0.55998748 0.62387752 0.17821629
0.58779139 0.62364205 0.17836232
0.61471814 0.62341079 0.17850895
0.64065791 0.62318357 0.17865622
0.66552216 0.62296023 0.17880417
0.68924361 0.62274064 0.17895284
0.71177543 0.62252467 0.17910225
0.73308992 0.62231223 0.17925243
0.75317675 0.62210319 0.17940340
0.77204091 0.62189749 0.17955518
0.78970052 0.62169503 0.17970778
0.80618465 0.62149575 0.17986123
0.81517131 0.62138223 0.17995012
0.81517131 0.62138223 0.17995012
0.81517131 0.62138223 0.17995012
0.81517131 0.62138223 0.17995012
0.81517131 0.62138223 0.17995012
0.81517131 0.62138223 0.17995012
0.81517131 0.62138223 0.17995012
0.81517131 0.62138223 0.17995012
0.19147126 0.65171109 0.17669027
0.21764511 0.65129104 0.17686028
0.24390092 0.65090634 0.17702013
0.27080243 0.65054159 0.17717544
0.29843900 0.65019112 0.17732823
0.32676566 0.64985194 0.17747949
0.35567474 0.64952220 0.17762985
0.38502275 0.64920064 0.17777971
0.41464442 0.64888634 0.17792934
0.44436237 0.64857862 0.17807896
0.47399475 0.64827691 0.17822872
0.50336166 0.64798079 0.17837874
0.53229059 0.64768989 0.17852913
0.56062111 0.64740391 0.17867997
0.58820837 0.64712259 0.17883132
0.61492578 0.64684570 0.17898324
0.64066670 0.64657305 0.17913578
0.66534518 0.64630448 0.17928897
0.68889586 0.64603982 0.17944285
0.71127329 0.64577895 0.17959746
0.73245054 0.64552173 0.17975282
0.75241755 0.64526807 0.17990895
0.77117913 0.64501787 0.18006587
0.78875288 0.64477102 0.18022361
0.80516704 0.64452746 0.18038218
0.81412019 0.64438845 0.18047401
0.81412019 0.64438845 0.18047401
0.81412019 0.64438845 0.18047401
0.81412019 0.64438845 0.18047401
0.81412019 0.64438845 0.18047401
0.81412019 0.64438845 0.18047401
0.81412019 0.64438845 0.18047401
0.81412019 0.64438845 0.18047401
0.19378431 0.67473232 0.17709376
0.21999398 0.67425930 0.17727072
0.24624960 0.67382538 0.17743699
0.27311769 0.67341333 0.17759847
0.30068889 0.67301681 0.17775725
0.32891970 0.67263249 0.17791437
0.35770450 0.67225831 0.17807049
0.38690253 0.67189287 0.17822602
0.41635188 0.67153516 0.17838126
0.44587911 0.67118440 0.17853642
0.47530667 0.67084000 0.17869167
0.50445919 0.67050147 0.17884714
0.53316873 0.67016842 0.17900294
0.56127928 0.66984050 0.17915915
0.58865006 0.66951744 0.17931584
0.61515817 0.66919898 0.17947307
0.64070008 0.66888492 0.17963088
0.66519239 0.66857508 0.17978934
0.68857169 0.66826928 0.17994846
0.71079386 0.66796737 0.18010828
0.73183277 0.66766923 0.18026884
0.75167864 0.66737474 0.18043015
0.77033613 0.66708379 0.18059224
0.78782236 0.66679628 0.18075512
0.80416478 0.66651211 0.18091882
0.81308335 0.66634972 0.18101361
0.81308335 0.66634972 0.18101361
0.81308335 0.66634972 0.18101361
0.81308335 0.66634972 0.18101361
0.81308335 0.66634972 0.18101361
0.81308335 0.66634972 0.18101361
0.81308335 0.66634972 0.18101361
0.81308335 0.66634972 0.18101361
0.19612972 0.69656450 0.17751253
0.22237374 0.69604467 0.17769646
0.24862769 0.69556721 0.17786918
0.27546094 0.69511325 0.17803685
0.30296549 0.69467588 0.17820163
0.33109936 0.69425147 0.17836464
0.35975903 0.69383778 0.17852653
0.38880647 0.69343329 0.17868776
0.41808315 0.69303690 0.17884861
0.44741953 0.69264777 0.17900934
0.47664234 0.69226525 0.17917010
0.50558066 0.69188882 0.17933104
0.53407105 0.69151806 0.17949226
0.56196184 0.69115259 0.17965386
0.58911630 0.69079211 0.17981591
0.61541512 0.69043637 0.17997847
0.64075786 0.69008513 0.18014159
0.66506362 0.68973820 0.18030532
0.68827093 0.68939539 0.18046969
0.71033700 0.68905655 0.18063476
0.73123648 0.68872153 0.18080053
0.75095991 0.68839022 0.18096704
0.76951184 0.68806250 0.18113432
0.78690891 0.68773825 0.18130237
0.80317784 0.68741739 0.18147123
0.81206078 0.68723386 0.18156899
0.81206078 0.68723386 0.18156899
0.81206078 0.68723386 0.18156899
0.81206078 0.68723386 0.18156899
0.81206078 0.68723386 0.18156899
0.81206078 0.68723386 0.18156899
