luts/cubes/golden_hour.cube
TITLE "golden_hour"
LUT_3D_SIZE 5
DOMAIN_MIN 0.0 0.0 0.0
DOMAIN_MAX 1.0 1.0 1.0
0.24150428 0.21080471 0.20086689
0.45018952 0.20562287 0.19731765
0.65822621 0.20106921 0.19416041
0.81575897 0.19675655 0.19113736
0.82454598 0.19645225 0.19092284
0.21819741 0.37386762 0.19019639
0.42902333 0.36940571 0.18651192
0.64787197 0.36538763 0.18324583
0.81461428 0.36149734 0.18012831
0.82383473 0.36121968 0.17990744
0.19712774 0.57630817 0.17988552
0.40966414 0.57451684 0.17666594
0.64071484 0.57340364 0.17774360
0.80826615 0.57251069 0.17886625
0.81731658 0.57245360 0.17894928
0.20336501 0.75482829 0.17886086
0.42342046 0.75056161 0.18034371
0.64107597 0.74691996 0.18176777
0.80030879 0.74356489 0.18322364
0.80907868 0.74333163 0.18333038
0.21211070 0.80919146 0.18059176
0.42985723 0.80449453 0.18224651
0.64170986 0.80042153 0.18382430
0.79716504 0.79661279 0.18542838
0.80579320 0.79634587 0.18554569
0.24049063 0.21014545 0.26533369
0.44930472 0.20496272 0.26216547
0.65781015 0.20040887 0.25930556
0.81572683 0.19609653 0.25653146
0.82453174 0.19579227 0.25633329
0.21721368 0.37330643 0.25566095
0.42809031 0.36882886 0.25222088
0.64739651 0.36479735 0.24913006
0.81454656 0.36089460 0.24614419
0.82378640 0.36061607 0.24593135
0.19618058 0.57608089 0.24591021
0.41027143 0.57434459 0.24308545
0.64069664 0.57325675 0.24300513
0.80787349 0.57238786 0.24305087
0.81691238 0.57233247 0.24305858
0.20430315 0.75427824 0.24305039
0.42411186 0.75002740 0.24326175
0.64113161 0.74640029 0.24358891
0.79995523 0.74305954 0.24402117
0.80871016 0.74282730 0.24405619
0.21310143 0.80859030 0.24331090
0.43058496 0.80390085 0.24372122
0.64179703 0.79983524 0.24422359
0.79682956 0.79603417 0.24482244
0.80544139 0.79576782 0.24486925
0.23898646 0.20916558 0.38295010
0.44798601 0.20398171 0.38118317
0.65718729 0.19942771 0.37951379
0.81567628 0.19511599 0.37783153
0.82450790 0.19481180 0.37770909
0.21575475 0.37246884 0.37729146
0.42670034 0.36796810 0.37510279
0.64668525 0.36391669 0.37306555
0.81444309 0.35999552 0.37103716
0.82371188 0.35971571 0.37089037
0.19477664 0.57573857 0.37087578
0.41118104 0.57409544 0.36798906
0.64067602 0.57304529 0.36518690
0.80729326 0.57221215 0.36269435
0.81631467 0.57215929 0.36252432
0.20570761 0.75346459 0.36270546
0.42514657 0.74923746 0.35991352
0.64122069 0.74563212 0.35764635
0.79943348 0.74231277 0.35565665
0.80816590 0.74208208 0.35552198
0.21458445 0.80769871 0.35949242
0.43167369 0.80302061 0.35695896
0.64193295 0.79896617 0.35491693
0.79633484 0.79517669 0.35313899
0.80492212 0.79491119 0.35301920
0.23732725 0.20808251 0.53122858
0.44652333 0.20289760 0.53179491
0.65649260 0.19834366 0.53216463
0.81561652 0.19403281 0.53240487
0.82447781 0.19372871 0.53241779
0.21414661 0.37153819 0.53245752
0.42515951 0.36701196 0.53256507
0.64589266 0.36293868 0.53253204
0.81432481 0.35899726 0.53239086
0.82362575 0.35871604 0.53237686
0.19323018 0.57535392 0.53237544
0.41219623 0.57382956 0.52765099
0.64066215 0.57282108 0.52143608
0.80665662 0.57202747 0.51570904
0.81565830 0.57197740 0.51531072
0.20727417 0.75257064 0.51573503
0.42630013 0.74836998 0.50905514
0.64132803 0.74478891 0.50337933
0.79886201 0.74149341 0.49816837
0.80756916 0.74126443 0.49780665
0.21623843 0.80671590 0.50801953
0.43288699 0.80205067 0.50160582
0.64209202 0.79800884 0.49616597
0.79579345 0.79423243 0.49118007
0.80435322 0.79396790 0.49083428
0.23556351 0.20692867 0.68370909
0.44495920 0.20174292 0.68644203
0.65574526 0.19718926 0.68872124
0.81554837 0.19287957 0.69077723
0.82444145 0.19257559 0.69091860
0.21243851 0.37054111 0.69139299
0.42351279 0.36598787 0.69369792
0.64504082 0.36189143 0.69560534
0.81419425 0.35792857 0.69731255
0.82352964 0.35764585 0.69742942
0.19158882 0.57493686 0.69744100
0.41328911 0.57355730 0.68952157
0.64065769 0.57259321 0.68119646
0.80598383 0.57184172 0.67334902
0.81496399 0.57179462 0.67279673
0.20895966 0.75162453 0.67338503
0.42754053 0.74745234 0.66400855
0.64145263 0.74389737 0.65584095
0.79825925 0.74062750 0.64817030
0.80693903 0.74040036 0.64763148
0.21801771 0.80567199 0.66253236
0.43419106 0.80102084 0.65324928
0.64227168 0.79699276 0.64517686
0.79522296 0.79323056 0.63760726
0.80375301 0.79296707 0.63707596
