luts/cubes/golden_hour.cube
TITLE "golden_hour"
LUT_3D_SIZE 9
DOMAIN_MIN 0.0 0.0 0.0
DOMAIN_MAX 1.0 1.0 1.0
0.24150428 0.21080471 0.20086689
0.34332545 0.20806332 0.19899500
0.45018952 0.20562287 0.19731765
0.55778540 0.20330649 0.19571607
0.65822621 0.20106921 0.19416041
0.74522273 0.19888996 0.19263681
0.81575897 0.19675655 0.19113736
0.82454598 0.19645225 0.19092284
0.82454598 0.19645225 0.19092284
0.22937314 0.28614368 0.19540483
0.33106264 0.28345777 0.19349286
0.43939189 0.28105169 0.19178130
0.54959397 0.27875481 0.19014851
0.65304808 0.27652421 0.18856388
0.74274931 0.27433990 0.18701317
0.81527091 0.27219047 0.18548825
0.82427758 0.27188298 0.18527018
0.82427758 0.27188298 0.18527018
0.21819741 0.37386762 0.19019639
0.31951246 0.37152165 0.18825145
0.42902333 0.36940571 0.18651192
0.54158212 0.36737319 0.18485380
0.64787197 0.36538763 0.18324583
0.74016845 0.36343220 0.18167344
0.81461428 0.36149734 0.18012831
0.82383473 0.36121968 0.17990744
0.82383473 0.36121968 0.17990744
0.20747814 0.47270963 0.18503376
0.30819390 0.47097514 0.18306094
0.41867053 0.46939633 0.18129798
0.53344087 0.46786726 0.17961881
0.64250732 0.46636198 0.17799162
0.73739007 0.46503171 0.17657590
0.81261716 0.46548015 0.17706266
0.82178173 0.46554733 0.17713407
0.82178173 0.46554733 0.17713407
0.19712774 0.57630817 0.17988552
0.29703003 0.57534704 0.17788947
0.40966414 0.57451684 0.17666594
0.52980221 0.57392867 0.17720045
0.64071484 0.57340364 0.17774360
0.73443413 0.57293283 0.17829834
0.80826615 0.57251069 0.17886625
0.81731658 0.57245360 0.17894928
0.81731658 0.57245360 0.17894928
0.19378431 0.67473232 0.17709376
0.30068889 0.67301681 0.17775725
0.41635188 0.67153516 0.17838126
0.53316873 0.67016842 0.17900294
0.64070008 0.66888492 0.17963088
0.73183277 0.66766923 0.18026884
0.80416478 0.66651211 0.18091882
0.81308335 0.66634972 0.18101361
0.81308335 0.66634972 0.18101361
0.20336501 0.75482829 0.17886086
0.30995812 0.75255486 0.17962731
0.42342046 0.75056161 0.18034371
0.53692205 0.74869649 0.18105378
0.64107597 0.74691996 0.18176777
0.72957528 0.74521312 0.18249022
0.80030879 0.74356489 0.18322364
0.80907868 0.74333163 0.18333038
0.80907868 0.74333163 0.18333038
0.21211070 0.80919146 0.18059176
0.31834900 0.80669851 0.18144878
0.42985723 0.80449453 0.18224651
0.54048289 0.80241616 0.18303444
0.64170986 0.80042153 0.18382430
0.72789152 0.79849090 0.18462131
0.79716504 0.79661279 0.18542838
0.80579320 0.79634587 0.18554569
0.80579320 0.79634587 0.18554569
0.21211070 0.80919146 0.18059176
0.31834900 0.80669851 0.18144878
0.42985723 0.80449453 0.18224651
0.54048289 0.80241616 0.18303444
0.64170986 0.80042153 0.18382430
0.72789152 0.79849090 0.18462131
0.79716504 0.79661279 0.18542838
0.80579320 0.79634587 0.18554569
0.80579320 0.79634587 0.18554569
0.24114320 0.21056996 0.22235590
0.34296444 0.20782837 0.22053144
0.44987469 0.20538780 0.21889245
0.55754877 0.20307135 0.21732389
0.65807834 0.20083407 0.21579698
0.74515379 0.19865484 0.21429841
0.81574770 0.19652151 0.21282061
0.82454108 0.19621722 0.21260894
0.82454108 0.19621722 0.21260894
0.22901710 0.28591439 0.21701866
0.33069848 0.28322674 0.21514078
0.43906795 0.28081919 0.21345561
0.54934582 0.27852094 0.21184442
0.65288937 0.27628906 0.21027746
0.74267168 0.27410355 0.20874094
0.81525312 0.27195299 0.20722698
0.82426642 0.27164534 0.20701025
0.82426642 0.27164534 0.20701025
0.21784694 0.37366801 0.21189172
0.31914617 0.37131908 0.20996813
0.42869131 0.36920052 0.20824362
0.54132322 0.36716555 0.20659624
0.64770295 0.36517766 0.20499541
0.74008256 0.36321997 0.20342691
0.81459034 0.36128292 0.20188264
0.82381769 0.36100496 0.20166166
0.82381769 0.36100496 0.20166166
0.20713386 0.47256272 0.20677520
0.30782634 0.47082457 0.20481114
0.41833107 0.46924251 0.20305193
0.53317153 0.46771038 0.20137279
0.64232811 0.46620214 0.19974237
0.73728756 0.46507920 0.19851355
0.81247073 0.46553197 0.19883802
0.82163185 0.46559977 0.19888639
0.82163185 0.46559977 0.19888639
0.19679025 0.57622752 0.20163973
0.29666199 0.57526270 0.19963991
0.40987995 0.57445508 0.19857284
0.52990762 0.57387151 0.19893152
0.64070797 0.57335091 0.19930651
0.73434222 0.57288442 0.19969892
0.80812613 0.57246653 0.20010922
0.81717247 0.57241004 0.20016987
0.81717247 0.57241004 0.20016987
0.19409696 0.67458330 0.19885906
0.30099264 0.67287230 0.19931605
0.41658267 0.67139470 0.19975831
0.53328834 0.67003184 0.20020915
0.64070642 0.66875211 0.20067354
0.73175156 0.66754011 0.20115344
0.80403154 0.66638663 0.20164984
0.81294539 0.66622476 0.20172280
0.81294539 0.66622476 0.20172280
0.20369843 0.75463219 0.20010529
0.31027925 0.75236170 0.20067087
0.42366621 0.75037114 0.20121026
0.53705567 0.74850863 0.20175376
0.64109539 0.74673466 0.20230811
0.72950486 0.74503037 0.20287614
0.80018266 0.74338468 0.20345931
0.80894725 0.74315178 0.20354470
0.80894725 0.74315178 0.20354470
0.21246282 0.80897729 0.20139918
0.31868543 0.80648570 0.20205953
0.43011591 0.80428301 0.20268377
0.54062850 0.80220593 0.20330828
0.64174050 0.80021263 0.20394135
0.72783051 0.79828334 0.20458655
0.79704534 0.79640661 0.20524576
0.80566771 0.79613989 0.20534204
0.80566771 0.79613989 0.20534204
0.21246282 0.80897729 0.20139918
0.31868543 0.80648570 0.20205953
0.43011591 0.80428301 0.20268377
0.54062850 0.80220593 0.20330828
0.64174050 0.80021263 0.20394135
0.72783051 0.79828334 0.20458655
0.79704534 0.79640661 0.20524576
0.80566771 0.79613989 0.20534204
0.80566771 0.79613989 0.20534204
0.24049063 0.21014545 0.26533369
0.34231140 0.20740350 0.26366900
0.44930472 0.20496272 0.26216547
0.55712004 0.20264617 0.26071954
0.65781015 0.20040887 0.25930556
0.74502849 0.19822972 0.25791175
0.81572683 0.19609653 0.25653146
0.82453174 0.19579227 0.25633329
0.82453174 0.19579227 0.25633329
0.22837371 0.28549939 0.26043740
0.33003981 0.28280864 0.25869597
0.43848154 0.28039841 0.25712526
0.54889624 0.27809771 0.25561657
0.65260157 0.27586354 0.25414289
0.74253067 0.27367587 0.25269181
0.81522045 0.27152326 0.25125629
0.82424577 0.27121533 0.25105032
0.82424577 0.27121533 0.25105032
0.21721368 0.37330643 0.25566095
0.31848371 0.37095213 0.25385124
0.42809031 0.36882886 0.25222088
0.54085420 0.36678947 0.25065655
0.64739651 0.36479735 0.24913006
0.73992657 0.36283559 0.24762840
0.81454656 0.36089460 0.24614419
0.82378640 0.36061607 0.24593135
0.82378640 0.36061607 0.24593135
0.20651186 0.47229627 0.25082682
0.30716162 0.47055152 0.24895395
0.41771666 0.46896359 0.24726852
0.53268366 0.46742591 0.24565293
0.64200321 0.46591232 0.24407787
0.73710309 0.46516628 0.24309892
0.81220646 0.46562688 0.24303935
0.82136130 0.46569579 0.24303322
0.82136130 0.46569579 0.24303322
0.19618058 0.57608089 0.24591021
0.29599648 0.57510940 0.24397868
0.41027143 0.57434459 0.24308545
0.53009942 0.57376932 0.24302808
0.64069664 0.57325675 0.24300513
0.73417693 0.57279809 0.24301343
0.80787349 0.57238786 0.24305087
0.81691238 0.57233247 0.24305858
0.81691238 0.57233247 0.24305858
0.19466402 0.67431482 0.24303660
0.30154336 0.67261199 0.24300497
0.41700126 0.67114172 0.24301716
0.53350581 0.66978587 0.24306385
0.64071899 0.66851296 0.24314140
0.73160563 0.66730764 0.24324762
0.80379120 0.66616074 0.24338101
0.81269646 0.66599982 0.24340241
0.81269646 0.66599982 0.24340241
0.20430315 0.75427824 0.24305039
0.31086142 0.75201309 0.24314088
0.42411186 0.75002740 0.24326175
0.53729847 0.74816961 0.24341162
0.64113161 0.74640029 0.24358891
0.72937845 0.74470062 0.24379241
0.79995523 0.74305954 0.24402117
0.80871016 0.74282730 0.24405619
0.80871016 0.74282730 0.24405619
0.21310143 0.80859030 0.24331090
0.31929530 0.80610119 0.24350661
0.43058496 0.80390085 0.24372122
0.54089299 0.80182614 0.24396015
0.64179703 0.79983524 0.24422359
0.72772113 0.79790840 0.24451117
0.79682956 0.79603417 0.24482244
0.80544139 0.79576782 0.24486925
0.80544139 0.79576782 0.24486925
0.21310143 0.80859030 0.24331090
0.31929530 0.80610119 0.24350661
0.43058496 0.80390085 0.24372122
0.54089299 0.80182614 0.24396015
0.64179703 0.79983524 0.24422359
0.72772113 0.79790840 0.24451117
0.79682956 0.79603417 0.24482244
0.80544139 0.79576782 0.24486925
0.80544139 0.79576782 0.24486925
0.23976324 0.20967184 0.31926459
0.34158255 0.20692952 0.31789741
0.44866787 0.20448853 0.31665217
0.55664049 0.20217188 0.31544565
0.65750976 0.19993459 0.31425756
0.74488774 0.19775553 0.31307869
0.81570282 0.19562253 0.31190391
0.82452062 0.19531830 0.31173467
0.82452062 0.19531830 0.31173467
0.22765668 0.28503589 0.31520922
0.32930477 0.28234170 0.31374290
0.43782641 0.27992850 0.31241019
0.54839344 0.27762509 0.31112132
0.65227928 0.27538837 0.30985431
0.74237236 0.27319832 0.30859916
0.81518326 0.27104345 0.30735027
0.82422202 0.27073520 0.30717050
0.82422202 0.27073520 0.30717050
0.21650805 0.37290211 0.31115935
0.31774456 0.37054184 0.30960264
0.42741896 0.36841332 0.30819024
0.54032973 0.36636901 0.30682643
0.64705341 0.36437218 0.30548768
0.73975156 0.36240589 0.30416324
0.81449697 0.36046051 0.30284710
0.82375079 0.36018137 0.30265778
0.82375079 0.36018137 0.30265778
0.20581886 0.47199784 0.30697527
0.30642006 0.47024573 0.30533273
0.41703041 0.46865127 0.30384476
0.53213815 0.46710739 0.30240994
0.64163952 0.46558784 0.30100327
0.73689864 0.46526526 0.30005569
0.81191247 0.46573459 0.29943477
0.82106022 0.46580475 0.29934894
0.82106022 0.46580475 0.29934894
0.19550142 0.57591610 0.30263898
0.29525412 0.57493717 0.30091443
0.41071004 0.57422314 0.29993591
0.53031520 0.57365713 0.29927028
0.64068572 0.57315352 0.29866524
0.73399391 0.57270358 0.29811141
0.80759254 0.57230191 0.29760301
0.81662302 0.57224774 0.29753320
0.81662302 0.57224774 0.29753320
0.19529921 0.67401682 0.29939724
0.30215989 0.67232312 0.29865087
0.41747013 0.67086104 0.29803368
0.53375022 0.66951302 0.29748866
0.64073472 0.66824773 0.29699973
0.73144424 0.66704988 0.29655867
0.80352400 0.66591033 0.29616037
0.81241962 0.66575046 0.29610625
0.81241962 0.66575046 0.29610625
0.20498047 0.75388439 0.29760758
0.31151311 0.75162522 0.29700235
0.42461092 0.74964499 0.29651027
0.53757112 0.74779248 0.29608361
0.64117372 0.74602838 0.29570867
0.72923886 0.74433388 0.29537838
0.79970248 0.74269795 0.29508833
0.80844658 0.74246645 0.29504964
0.80844658 0.74246645 0.29504964
0.21381666 0.80815907 0.29635471
0.31997792 0.80567276 0.29586989
0.43111013 0.80347508 0.29548462
0.54118983 0.80140303 0.29515906
0.64186178 0.79941483 0.29488154
0.72760056 0.79749075 0.29464599
0.79658986 0.79561934 0.29444856
0.80518986 0.79535340 0.29442307
0.80518986 0.79535340 0.29442307
0.21381666 0.80815907 0.29635471
0.31997792 0.80567276 0.29586989
0.43111013 0.80347508 0.29548462
0.54118983 0.80140303 0.29515906
0.64186178 0.79941483 0.29488154
0.72760056 0.79749075 0.29464599
0.79658986 0.79561934 0.29444856
0.80518986 0.79535340 0.29442307
0.80518986 0.79535340 0.29442307
0.23898646 0.20916558 0.38295010
0.34080312 0.20642289 0.38203289
0.44798601 0.20398171 0.38118317
0.55612643 0.20166498 0.38034765
0.65718729 0.19942771 0.37951379
0.74473617 0.19724878 0.37867607
0.81567628 0.19511599 0.37783153
0.82450790 0.19481180 0.37770909
0.82450790 0.19481180 0.37770909
0.22689109 0.28453986 0.38018257
0.32851886 0.28184200 0.37914930
0.43712506 0.27942567 0.37819665
0.54785454 0.27711937 0.37726377
0.65193338 0.27487996 0.37633617
0.74220201 0.27268737 0.37540742
0.81514265 0.27053010 0.37447401
0.82419580 0.27022152 0.37433892
0.82419580 0.27022152 0.37433892
0.21575475 0.37246884 0.37729146
0.31695436 0.37010221 0.37615071
0.42670034 0.36796810 0.37510279
0.53976766 0.36591854 0.37407983
0.64668525 0.36391669 0.37306555
0.73956332 0.36194557 0.37205266
0.81444309 0.35999552 0.37103716
0.82371188 0.35971571 0.37089037
0.82371188 0.35971571 0.37089037
0.20507919 0.47167749 0.37419199
0.30562739 0.46991751 0.37294753
0.41629594 0.46831606 0.37180773
0.53155362 0.46676557 0.37069794
0.64124931 0.46523965 0.36960014
0.73668170 0.46537318 0.36824534
0.81159920 0.46585185 0.36690313
0.82073927 0.46592334 0.36671479
0.82073927 0.46592334 0.36671479
0.19477664 0.57573857 0.37087578
0.29446073 0.57475168 0.36953049
0.41118104 0.57409544 0.36798906
0.53054795 0.57353933 0.36654155
0.64067602 0.57304529 0.36518690
0.73379991 0.57260468 0.36390796
0.80729326 0.57221215 0.36269435
0.81631467 0.57215929 0.36252432
0.81631467 0.57215929 0.36252432
0.19598116 0.67370007 0.36682087
0.30282143 0.67201614 0.36515423
0.41797350 0.67056284 0.36372504
0.53401356 0.66922320 0.36241538
0.64075351 0.66796605 0.36119330
0.73127337 0.66677619 0.36004300
0.80323950 0.66564451 0.35895488
0.81212471 0.66548576 0.35880271
0.81212471 0.66548576 0.35880271
0.20570761 0.75346459 0.36270546
0.31221228 0.75121184 0.36119999
0.42514657 0.74923746 0.35991352
0.53786464 0.74739063 0.35873871
0.64122069 0.74563212 0.35764635
0.72909132 0.74394318 0.35662194
0.79943348 0.74231277 0.35565665
0.80816590 0.74208208 0.35552198
0.80816590 0.74208208 0.35552198
0.21458445 0.80769871 0.35949242
0.32071021 0.80521542 0.35812402
0.43167369 0.80302061 0.35695896
0.54150918 0.80095145 0.35589890
0.64193295 0.79896617 0.35491693
0.72747337 0.79704506 0.35399969
0.79633484 0.79517669 0.35313899
0.80492212 0.79491119 0.35301920
0.80492212 0.79491119 0.35301920
0.21458445 0.80769871 0.35949242
0.32071021 0.80521542 0.35812402
0.43167369 0.80302061 0.35695896
0.54150918 0.80095145 0.35589890
0.64193295 0.79896617 0.35491693
0.72747337 0.79704506 0.35399969
0.79633484 0.79517669 0.35313899
0.80492212 0.79491119 0.35301920
0.80492212 0.79491119 0.35301920
0.23817212 0.20863430 0.45458210
0.33998480 0.20589125 0.45424744
0.44726918 0.20344988 0.45391353
0.55558534 0.20113310 0.45356522
0.65684734 0.19889589 0.45319977
0.74457585 0.19671711 0.45281631
0.81564748 0.19458457 0.45241457
0.82449363 0.19428042 0.45235514
0.82449363 0.19428042 0.45235514
0.22608863 0.28401866 0.45349423
0.32769385 0.28131699 0.45303485
0.43638786 0.27889737 0.45259004
0.54728739 0.27658807 0.45213656
0.65156881 0.27434586 0.45166960
0.74202196 0.27215063 0.45118730
0.81509907 0.26999086 0.45068884
0.82416736 0.26968193 0.45061562
0.82416736 0.26968193 0.45061562
0.21496532 0.37201296 0.45215026
0.31612499 0.36963967 0.45157443
0.42594510 0.36749970 0.45102609
0.53917622 0.36544464 0.45047445
0.64629730 0.36343755 0.44991275
0.73936448 0.36146137 0.44933824
0.81438558 0.35950643 0.44874954
0.82367012 0.35922592 0.44866345
0.82367012 0.35922592 0.44866345
0.20430417 0.47133980 0.45053568
0.30479556 0.46957156 0.44984649
0.41552414 0.46796279 0.44919738
0.53093862 0.46640536 0.44855020
0.64096280 0.46503052 0.44776496
0.73645581 0.46548881 0.44552165
0.81127152 0.46597727 0.44336655
0.82040343 0.46605016 0.44306243
0.82040343 0.46605016 0.44306243
0.19401735 0.57555071 0.44865487
0.29451782 0.57458792 0.44761935
0.41167774 0.57396377 0.44511177
0.53079453 0.57341805 0.44278229
0.64066805 0.57293405 0.44057863
0.73359812 0.57250325 0.43847533
0.80698035 0.57212031 0.43645717
0.81599213 0.57206882 0.43617258
0.81599213 0.57206882 0.43617258
0.19670014 0.67336965 0.44323376
0.30351845 0.67169600 0.44052518
0.41850417 0.67025191 0.43817258
0.53429222 0.66892108 0.43598998
0.64077542 0.66767250 0.43392796
0.73109590 0.66649103 0.43196245
0.80294216 0.66536762 0.43007900
0.81181635 0.66521005 0.42981361
0.81181635 0.66521005 0.42981361
0.20647419 0.75302537 0.43647575
0.31294887 0.75077940 0.43393932
0.42571113 0.74881119 0.43173961
0.53817496 0.74697035 0.42970183
0.64127218 0.74521773 0.42777942
0.72893835 0.74353463 0.42594965
0.79915247 0.74191005 0.42419888
0.80787254 0.74168020 0.42395239
0.80787254 0.74168020 0.42395239
0.21539384 0.80721626 0.43101252
0.32148160 0.80473619 0.42862352
0.43226755 0.80254443 0.42655469
0.54184661 0.80047832 0.42464083
0.64200982 0.79849613 0.42283784
0.72734177 0.79657818 0.42112416
0.79606856 0.79471304 0.41948681
0.80464239 0.79444801 0.41925649
0.80464239 0.79444801 0.41925649
0.21539384 0.80721626 0.43101252
0.32148160 0.80473619 0.42862352
0.43226755 0.80254443 0.42655469
0.54184661 0.80047832 0.42464083
0.64200982 0.79849613 0.42283784
0.72734177 0.79657818 0.42112416
0.79606856 0.79471304 0.41948681
0.80464239 0.79444801 0.41925649
0.80464239 0.79444801 0.41925649
0.23732725 0.20808251 0.53122858
0.33913448 0.20533913 0.53154756
0.44652333 0.20289760 0.53179491
0.55502161 0.20058079 0.53199790
0.65649260 0.19834366 0.53216463
0.74440799 0.19616507 0.53229938
0.81561652 0.19403281 0.53240487
0.82447781 0.19372871 0.53241779
0.82447781 0.19372871 0.53241779
0.22525626 0.28347663 0.53203364
0.32683674 0.28077103 0.53222712
0.43562093 0.27834804 0.53236284
0.54669659 0.27603564 0.53245993
0.65118848 0.27379054 0.53252440
0.74183358 0.27159259 0.53255955
0.81505276 0.26943026 0.53256753
0.82413682 0.26912097 0.53256653
0.82413682 0.26912097 0.53256653
0.21414661 0.37153819 0.53245752
0.31526348 0.36915800 0.53253370
0.42515951 0.36701196 0.53256507
0.53856020 0.36495121 0.53256316
0.64589266 0.36293868 0.53253204
0.73915657 0.36095727 0.53247407
0.81432481 0.35899726 0.53239086
0.82362575 0.35871604 0.53237686
0.82362575 0.35871604 0.53237686
0.20350055 0.47098743 0.53256485
0.30393165 0.46921063 0.53252663
0.41472144 0.46759425 0.53245623
0.53029816 0.46602962 0.53235776
0.64092551 0.46514279 0.53125048
0.73622311 0.46561147 0.52820885
0.81093238 0.46611010 0.52526827
0.82005569 0.46618444 0.52485180
0.82005569 0.46618444 0.52485180
0.19323018 0.57535392 0.53237544
0.29520431 0.57444235 0.53105363
0.41219623 0.57382956 0.52765099
0.53105316 0.57329464 0.52446785
0.64066215 0.57282108 0.52143608
0.73339050 0.57240044 0.51852294
0.80665662 0.57202747 0.51570904
0.81565830 0.57197740 0.51531072
0.81565830 0.57197740 0.51531072
0.19745051 0.67302863 0.52508648
0.30424542 0.67136566 0.52136229
0.41905796 0.66993116 0.51810200
0.53458416 0.66860949 0.51505495
0.64080057 0.66736982 0.51215548
0.73091356 0.66619708 0.50937198
0.80263467 0.66508227 0.50668571
0.81149731 0.66492593 0.50630565
0.81149731 0.66492593 0.50630565
0.20727417 0.75257064 0.51573503
0.31371700 0.75033174 0.51217151
0.42630013 0.74836998 0.50905514
0.53849975 0.74653538 0.50614546
0.64132803 0.74478891 0.50337933
0.72878150 0.74311191 0.50072633
0.79886201 0.74149341 0.49816837
0.80756916 0.74126443 0.49780665
0.80756916 0.74126443 0.49780665
0.21623843 0.80671590 0.50801953
0.32228595 0.80423922 0.50459650
0.43288699 0.80205067 0.50160582
0.54219953 0.79998777 0.49881593
0.64209202 0.79800884 0.49616597
0.72720712 0.79609420 0.49362650
0.79579345 0.79423243 0.49118007
0.80435322 0.79396790 0.49083428
0.80435322 0.79396790 0.49083428
0.21623843 0.80671590 0.50801953
0.32228595 0.80423922 0.50459650
0.43288699 0.80205067 0.50160582
0.54219953 0.79998777 0.49881593
0.64209202 0.79800884 0.49616597
0.72720712 0.79609420 0.49362650
0.79579345 0.79423243 0.49118007
0.80435322 0.79396790 0.49083428
0.80435322 0.79396790 0.49083428
0.23645657 0.20751324 0.60900513
0.33825678 0.20476954 0.60995594
0.44575240 0.20232788 0.61076633
0.55443814 0.20001106 0.61150442
0.65612482 0.19777405 0.61218877
0.74423335 0.19559568 0.61282861
0.81558348 0.19346375 0.61342956
0.82446043 0.19315970 0.61351323
0.82446043 0.19315970 0.61351323
0.22439863 0.28291667 0.61164388
0.32595220 0.28020704 0.61247277
0.43482833 0.27778060 0.61317494
0.54608521 0.27546503 0.61381054
0.65079428 0.27321698 0.61439610
0.74163776 0.27101625 0.61493987
0.81500387 0.26885130 0.61544689
0.82410425 0.26854165 0.61551718
0.82410425 0.26854165 0.61551718
0.21330323 0.37104699 0.61379237
0.31437455 0.36865969 0.61450797
0.42434774 0.36650741 0.61510954
0.53792281 0.36444081 0.61564986
0.64547336 0.36242269 0.61614356
0.73894057 0.36043589 0.61659797
0.81426098 0.35847067 0.61701762
0.82357889 0.35818871 0.61707545
0.82357889 0.35818871 0.61707545
0.20267287 0.47062214 0.61559276
0.30304039 0.46883651 0.61619843
0.41389211 0.46721229 0.61670238
0.52963556 0.46564024 0.61715022
0.64088958 0.46526136 0.61512781
0.73598509 0.46574075 0.61146563
0.81058376 0.46624987 0.60790547
0.81969808 0.46632571 0.60739966
0.81969808 0.46632571 0.60739966
0.19241959 0.57514909 0.61708116
0.29591572 0.57429488 0.61489142
0.41273396 0.57369382 0.61079172
0.53132268 0.57317003 0.60693300
0.64065862 0.57270724 0.60323622
0.73317839 0.57229710 0.59966383
0.80632398 0.57193441 0.59619390
0.81531511 0.57188581 0.59570116
0.81531511 0.57188581 0.59570116
0.19822856 0.67267910 0.60768473
0.30499867 0.67102718 0.60314598
0.41963212 0.66960259 0.59914597
0.53488803 0.66829038 0.59538456
0.64082905 0.66705991 0.59178419
0.73072758 0.66589619 0.58830795
0.80231887 0.66479026 0.58493424
0.81116948 0.66463520 0.58445538
0.81116948 0.66463520 0.58445538
0.20810359 0.75210305 0.59622604
0.31451281 0.74987148 0.59180415
0.42691062 0.74791640 0.58791102
0.53883750 0.74608827 0.58425344
0.64138819 0.74434818 0.58075552
0.72862182 0.74267750 0.57738104
0.79856385 0.74106529 0.57410879
0.80725755 0.74083722 0.57364456
0.80725755 0.74083722 0.57364456
0.21711404 0.80620046 0.58661175
0.32311917 0.80372733 0.58229723
0.43352889 0.80154213 0.57850187
0.54256628 0.79948258 0.57493895
0.64217935 0.79750704 0.57153410
0.72707038 0.79559586 0.56825182
0.79551118 0.79373761 0.56507123
0.80405634 0.79347359 0.56462018
0.80405634 0.79347359 0.56462018
0.21711404 0.80620046 0.58661175
0.32311917 0.80372733 0.58229723
0.43352889 0.80154213 0.57850187
0.54256628 0.79948258 0.57493895
0.64217935 0.79750704 0.57153410
0.72707038 0.79559586 0.56825182
0.79551118 0.79373761 0.56507123
0.80405634 0.79347359 0.56462018
0.80405634 0.79347359 0.56462018
0.23556351 0.20692867 0.68370909
0.33735504 0.20418469 0.68517368
0.44495920 0.20174292 0.68644203
0.55383698 0.19942613 0.68761552
0.65574526 0.19718926 0.68872124
0.74405248 0.19501115 0.68977248
0.81554837 0.19287957 0.69077723
0.82444145 0.19257559 0.69091860
0.82444145 0.19257559 0.69091860
0.22351914 0.28234086 0.68783940
0.32504359 0.27962713 0.68918564
0.43401297 0.27719716 0.69034932
0.54545540 0.27487837 0.69142402
0.65038755 0.27262732 0.69243483
0.74143510 0.27042377 0.69339407
0.81495249 0.26825616 0.69430917
0.82406967 0.26794613 0.69443778
0.82406967 0.26794613 0.69443778
0.21243851 0.37054111 0.69139299
0.31346160 0.36814655 0.69263046
0.42351279 0.36598787 0.69369792
0.53726631 0.36391527 0.69468181
0.64504082 0.36189143 0.69560534
0.73871716 0.35989913 0.69647995
0.81419425 0.35792857 0.69731255
0.82352964 0.35764585 0.69742942
0.82352964 0.35764585 0.69742942
0.20182441 0.47024518 0.69457658
0.30212519 0.46845048 0.69570963
0.41303923 0.46681822 0.69668470
0.52895319 0.46523856 0.69758135
0.64085538 0.46538601 0.69425597
0.73574284 0.46587640 0.69025945
0.81022710 0.46639630 0.68635272
0.81933206 0.46647368 0.68579595
0.81933206 0.46647368 0.68579595
0.19158882 0.57493686 0.69744100
0.29664963 0.57414632 0.69399868
0.41328911 0.57355730 0.68952157
0.53160229 0.57304495 0.68528187
0.64065769 0.57259321 0.68119646
0.73296279 0.57219384 0.67722634
0.80598383 0.57184172 0.67334902
0.81496399 0.57179462 0.67279673
0.81496399 0.57179462 0.67279673
0.19903167 0.67232261 0.68610979
0.30577564 0.67068205 0.68109644
0.42022471 0.66926764 0.67664900
0.53520290 0.66796518 0.67244165
0.64086099 0.66674417 0.66839131
0.73053883 0.66558972 0.66445893
0.80199609 0.66449292 0.66062194
0.81083422 0.66433917 0.66007568
0.81083422 0.66433917 0.66007568
0.20895966 0.75162453 0.67338503
0.31533355 0.74940052 0.66841383
0.42754053 0.74745234 0.66400855
0.53918715 0.74563089 0.65984518
0.64145263 0.74389737 0.65584095
0.72846013 0.74223321 0.65195685
0.79825925 0.74062750 0.64817030
0.80693903 0.74040036 0.64763148
0.80693903 0.74040036 0.64763148
0.21801771 0.80567199 0.66253236
0.32397841 0.80320255 0.65760856
0.43419106 0.80102084 0.65324928
0.54294570 0.79896477 0.64913282
0.64227168 0.79699276 0.64517686
0.72693227 0.79508516 0.64134252
0.79522296 0.79323056 0.63760726
0.80375301 0.79296707 0.63707596
0.80375301 0.79296707 0.63707596
0.21801771 0.80567199 0.66253236
0.32397841 0.80320255 0.65760856
0.43419106 0.80102084 0.65324928
0.54294570 0.79896477 0.64913282
0.64227168 0.79699276 0.64517686
0.72693227 0.79508516 0.64134252
0.79522296 0.79323056 0.63760726
0.80375301 0.79296707 0.63707596
0.80375301 0.79296707 0.63707596
