luts/cubes/horror.cube
TITLE "horror"
LUT_3D_SIZE 9
DOMAIN_MIN 0.0 0.0 0.0
DOMAIN_MAX 1.0 1.0 1.0
0.14185106 0.14185106 0.14185106
0.15111281 0.14297451 0.14297451
0.17760122 0.14593876 0.14593876
0.21097172 0.14927497 0.14927497
0.25104418 0.15287337 0.15287337
0.29778591 0.15669276 0.15669276
0.35084085 0.16071220 0.16071220
0.40934309 0.16491963 0.16491963
0.47185277 0.16930769 0.16930769
0.15741779 0.19453789 0.15741779
0.16749754 0.19598332 0.15864173
0.19619421 0.19979038 0.16186945
0.23207242 0.20406351 0.16549927
0.27475714 0.20865870 0.16941089
0.32400397 0.21352054 0.17355881
0.37920755 0.21861981 0.17791961
0.43923938 0.22393875 0.18247958
0.50243098 0.22946565 0.18723011
0.17536785 0.26509823 0.17536785
0.18634279 0.26689420 0.17670209
0.21742491 0.27161340 0.18021856
0.25594932 0.27689113 0.18416942
0.30130259 0.28254413 0.18842269
0.35299157 0.28849991 0.19292797
0.41013754 0.29471881 0.19765905
0.47134810 0.30117558 0.20260025
0.53475394 0.30785254 0.20774148
0.19467424 0.34915169 0.19467424
0.20655477 0.35124495 0.19612043
0.24001377 0.35672986 0.19992949
0.28110292 0.36283763 0.20420484
0.32894283 0.36934906 0.20880238
0.38277582 0.37617522 0.21366666
0.44145367 0.38326599 0.21876845
0.50334972 0.39058835 0.22408997
0.56644778 0.39811827 0.22961949
0.21540251 0.44309375 0.21540251
0.22818960 0.44536482 0.21696120
0.26398715 0.45129708 0.22106372
0.30751973 0.45787150 0.22566353
0.35761898 0.46484416 0.23060420
0.41325489 0.47211399 0.23582500
0.47302431 0.47962280 0.24129352
0.53510612 0.48733141 0.24698973
0.59739665 0.49521084 0.25290014
0.23757011 0.54079661 0.23757011
0.25125175 0.54308010 0.23924030
0.28931104 0.54902552 0.24363302
0.33511823 0.55558210 0.24855260
0.38719962 0.56249885 0.25383013
0.44425489 0.56967018 0.25939947
0.50465162 0.57703453 0.26522492
0.56642271 0.58455007 0.27128408
0.62743864 0.59218569 0.27756155
0.26116152 0.63509666 0.26116152
0.27571048 0.63722580 0.26294037
0.31591154 0.64275204 0.26761517
0.36377463 0.64881757 0.27284432
0.41751296 0.65518384 0.27844651
0.47556853 0.66174950 0.28435014
0.53611562 0.66845516 0.29051612
0.59709564 0.67526046 0.29691958
0.65641341 0.68213547 0.30354317
0.28613056 0.71979425 0.28613056
0.30150287 0.72164579 0.28801318
0.34368019 0.72643811 0.29295657
0.39333145 0.73167594 0.29847908
0.44835906 0.73714866 0.30438730
0.50697069 0.74276638 0.31060417
0.56719181 0.74847639 0.31708720
0.62692944 0.75424304 0.32380904
0.68417814 0.76004013 0.33075028
0.31240051 0.79111050 0.31240051
0.32853465 0.79262656 0.31437986
0.37247696 0.79654138 0.31957268
0.42360335 0.80080501 0.32536604
0.47951858 0.80524308 0.33155493
0.53822925 0.80978101 0.33805702
0.59766236 0.81437520 0.34482645
0.65574693 0.81899637 0.35183337
0.71061472 0.82362320 0.35905635
0.14226264 0.14226264 0.15104041
0.15154652 0.14338880 0.15222372
0.17809499 0.14636017 0.15534497
0.21153441 0.14970432 0.15885621
0.25167965 0.15331121 0.16264143
0.29849255 0.15713952 0.16665685
0.35161035 0.16116823 0.17088010
0.41015983 0.16538524 0.17529812
0.47269442 0.16978317 0.17990284
0.15786622 0.19506759 0.16741883
0.16796896 0.19651599 0.16870496
0.19672732 0.20033082 0.17209555
0.23267479 0.20461255 0.17590655
0.27543057 0.20921686 0.18001109
0.32474406 0.21408818 0.18436094
0.38000285 0.21919723 0.18893111
0.44007133 0.22452618 0.19370680
0.50327520 0.23006328 0.19867858
0.17585675 0.26575666 0.18625720
0.18685534 0.26755547 0.18765544
0.21800005 0.27228201 0.19133922
0.25659296 0.27756779 0.19547575
0.30201399 0.28322919 0.19992614
0.35376322 0.28919358 0.20463712
0.41095476 0.29542123 0.20958077
0.47218966 0.30188681 0.21474023
0.53559400 0.30857257 0.22010449
0.19520421 0.34991948 0.20646226
0.20710877 0.35201485 0.20797341
0.24063030 0.35750517 0.21195198
0.28178586 0.36361870 0.21641487
0.32968870 0.37013600 0.22121090
0.38357398 0.37696801 0.22628158
0.44228650 0.38406453 0.23159586
0.50419391 0.39139246 0.23713470
0.56727692 0.39892774 0.24288535
0.21597378 0.44392722 0.22809019
0.22878490 0.44619914 0.22971381
0.26464381 0.45213345 0.23398541
0.30823933 0.45870987 0.23877168
0.35839514 0.46568433 0.24390894
0.41407396 0.47295569 0.24933334
0.47386617 0.48046570 0.25501056
0.53594610 0.48817515 0.26091923
0.59820860 0.49605502 0.26704476
0.23818233 0.54163511 0.25114556
0.25188757 0.54391796 0.25287953
0.29000587 0.54986151 0.25743794
0.33587109 0.55641575 0.26253951
0.38800120 0.56332973 0.26800811
0.44508879 0.57049784 0.27377439
0.50549578 0.57785852 0.27980070
0.56725187 0.58536994 0.28606321
0.62822770 0.59300098 0.29254538
0.26181365 0.63587891 0.27559775
0.27638535 0.63800609 0.27743800
0.31664180 0.64352709 0.28227185
0.36455657 0.64958664 0.28767489
0.41833446 0.65594636 0.29345871
0.47641082 0.66250498 0.29954849
0.53695536 0.66920315 0.30590316
0.59790778 0.67600054 0.31249640
0.65717464 0.68286724 0.31930965
0.28682083 0.72047485 0.30138399
0.30221454 0.72232362 0.30332433
0.34444232 0.72710869 0.30841668
0.39413756 0.73233841 0.31410116
0.44919444 0.73780247 0.32017747
0.50781475 0.74341107 0.32656544
0.56802062 0.74911160 0.33322059
0.62771894 0.75486846 0.34011411
0.68490738 0.76065548 0.34722539
0.31312637 0.79166801 0.32841012
0.32928004 0.79318108 0.33044216
0.37326663 0.79708811 0.33577036
0.42442810 0.80134314 0.34170989
0.48036147 0.80577213 0.34804928
0.53906845 0.81030064 0.35470319
0.59847412 0.81488515 0.36162385
0.65650886 0.81949644 0.36877997
0.71130867 0.82411323 0.37614896
0.14329845 0.14329845 0.17621888
0.15263790 0.14443144 0.17755820
0.17933715 0.14742069 0.18108796
0.21294937 0.15078479 0.18505358
0.25327689 0.15441299 0.18932252
0.30026767 0.15826366 0.19384418
0.35354215 0.16231564 0.19859220
0.41220881 0.16655672 0.20355081
0.47480432 0.17097942 0.20870985
0.15899458 0.19639984 0.19470142
0.16915503 0.19785570 0.19614776
0.19806811 0.20169001 0.19995722
0.23418916 0.20599331 0.20423301
0.27712272 0.21062046 0.20883102
0.32660260 0.21551556 0.21369579
0.38199874 0.22064910 0.21879808
0.44215772 0.22600314 0.22412011
0.50539078 0.23156578 0.22965016
0.17708666 0.26741130 0.21581395
0.18814462 0.26921721 0.21737479
0.21944623 0.27396213 0.22148292
0.25821062 0.27926800 0.22608892
0.30380098 0.28495041 0.23103613
0.35570036 0.29093633 0.23626370
0.41300493 0.29718582 0.24173917
0.47429933 0.30367337 0.24744247
0.53769838 0.31038110 0.25336007
0.19653717 0.35184704 0.23828641
0.20850196 0.35394766 0.23996005
0.24218011 0.35945140 0.24436174
0.28350177 0.36557928 0.24929118
0.33156165 0.37211118 0.25457908
0.38557696 0.37895771 0.26015913
0.44437506 0.38606848 0.26599550
0.50630942 0.39341022 0.27206575
0.56935316 0.40095875 0.27835441
0.21741025 0.44601733 0.26214676
0.23028155 0.44829132 0.26392992
0.26629404 0.45423063 0.26861591
0.31004679 0.46081190 0.27385730
0.36034350 0.46779070 0.27947230
0.41612870 0.47506571 0.28538908
0.47597659 0.48257854 0.29156840
0.53805025 0.49028991 0.29798532
0.60024101 0.49817068 0.30462237
0.23972134 0.54373543 0.28736303
0.25348568 0.54601658 0.28925048
0.29175151 0.55195532 0.29420633
0.33776147 0.55850355 0.29974242
0.39001268 0.56541040 0.30566474
0.44717998 0.57257027 0.31189601
0.50761115 0.57992158 0.31839355
0.56932814 0.58742250 0.32512989
0.63020214 0.59504190 0.33208555
0.26345256 0.63783614 0.31386353
0.27808111 0.63995835 0.31584789
0.31847585 0.64546613 0.32105360
0.36651929 0.65151056 0.32686091
0.42039517 0.65785376 0.33306420
0.47852226 0.66439462 0.33958085
0.53905887 0.67107391 0.34636482
0.59994070 0.67785136 0.35338614
0.65907876 0.68469713 0.36062327
0.28855509 0.72217602 0.34154204
0.30400219 0.72401786 0.34361375
0.34635578 0.72878469 0.34904362
0.39616026 0.73399404 0.35509243
0.45128923 0.73943633 0.36154373
0.50992982 0.74502206 0.36830989
0.57009600 0.75069880 0.37534161
0.62969449 0.75643108 0.38260649
0.68673090 0.76219283 0.39008103
0.31494944 0.79306036 0.37026072
0.33115182 0.79456594 0.37240812
0.37524856 0.79845346 0.37803094
0.42649682 0.80268695 0.38428554
0.48247428 0.80709319 0.39094571
0.54117056 0.81159810 0.39791916
0.60050609 0.81615837 0.40515361
0.65841476 0.82074491 0.41261436
0.71304342 0.82533658 0.42027607
0.14442973 0.14442973 0.20715321
0.15382966 0.14557013 0.20866809
0.18069293 0.14857886 0.21265638
0.21449284 0.15196468 0.21713002
0.25501794 0.15561607 0.22193741
0.30220101 0.15949108 0.22701989
0.35564417 0.16356838 0.23234630
0.41443602 0.16783563 0.23789753
0.47709523 0.17228527 0.24366076
0.16022659 0.19785351 0.22798234
0.17044981 0.19931747 0.22960543
0.19953106 0.20317293 0.23387563
0.23584044 0.20749964 0.23866034
0.27896645 0.21215159 0.24379598
0.32862588 0.21707249 0.24921869
0.38416941 0.22223262 0.25489419
0.44442440 0.22761385 0.26080111
0.50768660 0.23320420 0.26692487
0.17842912 0.26921449 0.25157630
0.18955159 0.27102806 0.25331224
0.22102356 0.27579285 0.25787575
0.25997378 0.28112046 0.26298293
0.30574713 0.28682555 0.26845740
0.35780811 0.29283474 0.27422973
0.41523340 0.29910780 0.28026219
0.47659001 0.30561906 0.28653092
0.53998074 0.31235050 0.29301934
0.19799160 0.35394450 0.27645981
0.21002179 0.35605077 0.27830361
0.24386979 0.36156891 0.28314663
0.28537119 0.36771216 0.28855969
0.33360042 0.37425968 0.29435394
0.38775520 0.38112175 0.30045440
0.44664401 0.38824774 0.30681987
0.50860512 0.39560422 0.31342394
0.57160376 0.40316687 0.32024800
0.21897705 0.44828790 0.30262397
0.23191362 0.45056405 0.30456881
0.26809245 0.45650856 0.30967277
0.31201502 0.46309483 0.31536984
0.36246328 0.47007806 0.32145919
0.41836201 0.47735673 0.32786040
0.47826800 0.48487233 0.33452884
0.54033236 0.49258545 0.34143555
0.60244290 0.50046690 0.34855987
0.24139934 0.54601315 0.32999247
0.25522768 0.54829238 0.33202946
0.29365303 0.55422565 0.33737035
0.33981898 0.56076710 0.34332357
0.39219999 0.56766595 0.34967698
0.44945166 0.57481661 0.35634501
0.50990666 0.58215748 0.36327966
0.57157877 0.58964673 0.37044954
0.63234008 0.59725321 0.37783192
0.26523871 0.63995516 0.35844686
0.27992875 0.64207192 0.36056497
0.32047273 0.64756517 0.36611329
0.36865447 0.65359303 0.37228874
0.42263481 0.65991810 0.37886892
0.48081468 0.66643951 0.38576340
0.54134025 0.67309813 0.39292107
0.60214314 0.67985377 0.40030816
0.66113953 0.68667666 0.40790004
0.29044432 0.72401509 0.38783467
0.30594907 0.72584936 0.39002087
0.34843810 0.73059634 0.39574193
0.39835952 0.73578351 0.40210012
0.45356466 0.74120209 0.40886401
0.51222491 0.74676293 0.41593881
0.57234562 0.75241379 0.42327055
0.63183365 0.75811935 0.43082330
0.68870346 0.76385363 0.43857067
0.31693450 0.79456369 0.41797500
0.33318933 0.79606115 0.42021446
0.37740429 0.79992749 0.42606906
0.42874492 0.80413761 0.43256570
0.48476804 0.80851919 0.43946538
0.54345034 0.81299851 0.44666959
0.60270748 0.81753250 0.45412184
0.66047747 0.82209224 0.46178431
0.71491908 0.82665668 0.46962905
0.14562228 0.14562228 0.24365672
0.15508576 0.14677049 0.24535593
0.18212117 0.14979968 0.24982407
0.21611777 0.15320831 0.25482654
0.25684949 0.15688405 0.26019116
0.30423305 0.16078463 0.26585034
0.35785128 0.16488851 0.27176750
0.41677200 0.16918323 0.27791959
0.47949517 0.17366114 0.28429071
0.16152496 0.19938438 0.26692058
0.17181407 0.20085684 0.26872438
0.20107166 0.20473446 0.27346386
0.23757818 0.20908570 0.27876380
0.28090514 0.21376361 0.28443999
0.33075137 0.21871153 0.29041955
0.38644737 0.22389947 0.29666258
0.44680043 0.22930917 0.30314363
0.51009032 0.23492849 0.30984487
0.17984339 0.27111089 0.29301480
0.19103353 0.27293247 0.29492400
0.22268394 0.27771799 0.29993604
0.26182841 0.28306825 0.30553327
0.30779249 0.28879699 0.31151911
0.36002114 0.29483040 0.31781509
0.41757066 0.30112801 0.32437782
0.47898975 0.30766395 0.33117925
0.54236891 0.31442003 0.33819946
0.19952328 0.35614689 0.32024322
0.21162198 0.35825899 0.32224897
0.24564767 0.36379202 0.32750968
0.28733666 0.36995116 0.33337643
0.33574200 0.37651481 0.33964098
0.39004096 0.38339289 0.34621951
0.44902231 0.39053455 0.35306521
0.51100868 0.39790618 0.36014751
0.57395729 0.40548331 0.36744442
0.22062641 0.45066783 0.34855489
0.23363127 0.45294614 0.35064649
0.26998387 0.45889583 0.35612719
0.31408335 0.46548704 0.36223045
0.36468876 0.47247460 0.36873729
0.42070421 0.47975679 0.37555887
0.48066842 0.48727494 0.38264516
0.54272026 0.49498956 0.38996315
0.60474416 0.50287135 0.39748888
0.24316500 0.54839620 0.37782676
0.25706021 0.55067330 0.37999156
0.29565194 0.55660059 0.38565853
0.34198000 0.56313467 0.39195980
0.39449506 0.57002484 0.39866684
0.45183270 0.57716555 0.40568629
0.51230995 0.58449518 0.41296509
0.57393233 0.59197189 0.42046801
0.63457325 0.59956455 0.42816925
0.26711735 0.64216826 0.40789474
0.28187152 0.64427924 0.41011825
0.32257083 0.64975709 0.41593310
0.37089584 0.65576739 0.42238893
0.42498345 0.66207329 0.42924908
0.48321605 0.66857413 0.43641620
0.54372732 0.67521089 0.44383461
0.60444500 0.68194350 0.45146705
0.66329092 0.68874225 0.45928610
0.29243043 0.72593277 0.43856526
0.30799518 0.72775909 0.44083149
0.35062482 0.73248519 0.44675200
0.40066688 0.73764904 0.45331492
0.45594945 0.74304273 0.46027710
0.51462766 0.74857744 0.46753791
0.57469811 0.75420114 0.47503943
0.63406812 0.75987865 0.48274271
0.69076171 0.76558411 0.49061894
0.31902031 0.79612919 0.46962359
0.33532960 0.79761815 0.47191541
0.37966687 0.80146234 0.47789659
0.43110216 0.80564801 0.48451635
0.48717062 0.81000378 0.49152688
0.54583565 0.81445634 0.49882504
0.60500822 0.81896286 0.50635118
0.66263092 0.82349457 0.51406500
0.71687524 0.82803056 0.52193661
0.14686264 0.14686264 0.28569063
0.15639197 0.14801894 0.28757152
0.18360561 0.15106933 0.29251045
0.21780552 0.15450161 0.29802810
0.25875033 0.15820257 0.30393125
0.30634000 0.16212963 0.31014297
0.36013736 0.16626104 0.31662079
0.41918877 0.17058421 0.32333742
0.48197509 0.17509139 0.33027349
0.16287495 0.20097495 0.31131590
0.17323229 0.20245618 0.31329150
0.20267229 0.20635671 0.31847469
0.23938234 0.21073329 0.32425764
0.28291623 0.21543803 0.33043577
0.33295409 0.22041383 0.33692697
0.38880552 0.22563050 0.34368552
0.44925720 0.23106957 0.35068167
0.51257264 0.23671877 0.35789406
0.18131338 0.27307849 0.33973884
0.19257351 0.27490830 0.34180529
0.22440828 0.27971514 0.34722170
0.26375302 0.28508868 0.35325607
0.30991312 0.29084173 0.35969262
0.36231326 0.29690003 0.36644401
0.41998873 0.30322283 0.37346117
0.48146947 0.30978408 0.38071184
0.54483362 0.31656543 0.38817263
0.20111468 0.35842815 0.36904268
0.21328417 0.36054621 0.37118717
0.24749322 0.36609441 0.37680263
0.28937526 0.37226973 0.38304943
0.33796118 0.37884978 0.38970173
0.39240702 0.38574412 0.39666744
0.45148133 0.39290167 0.40389440
0.51349079 0.40028863 0.41134800
0.57638475 0.40788040 0.41900297
0.22233938 0.45312844 0.39913536
0.23541471 0.45540888 0.40134349
0.27194634 0.46136364 0.40711979
0.31622751 0.46795964 0.41353568
0.36699355 0.47495134 0.42035669
0.42312724 0.48223680 0.42748654
0.48314877 0.48975723 0.43487028
0.54518467 0.49747302 0.44247121
0.60711628 0.50535478 0.45026234
0.24499796 0.55085533 0.42985215
0.25896207 0.55313014 0.43210801
0.29772490 0.55905097 0.43800313
0.34421904 0.56557712 0.44454079
0.39687056 0.57245802 0.45147951
0.45429442 0.57958812 0.45871948
0.51479173 0.58690581 0.46620340
0.57635984 0.59436925 0.47389274
0.63687385 0.60194729 0.48175907
0.26906666 0.64444783 0.46099270
0.28388679 0.64655277 0.46327919
0.32474551 0.65201452 0.46924818
0.37321682 0.65800647 0.47585732
0.42741294 0.66429235 0.48285993
0.48569725 0.67077173 0.49015345
0.54619084 0.67738572 0.49767868
0.60681775 0.68409434 0.50539564
0.66550602 0.69086795 0.51327472
0.29449024 0.72790483 0.49233597
0.31011658 0.72972290 0.49463525
0.35289010 0.73442734 0.50063141
0.40305480 0.73956704 0.50726012
0.45841484 0.74493493 0.51427142
0.51710876 0.75044257 0.52156089
0.57712447 0.75603815 0.52906794
0.63637008 0.76168663 0.53675154
0.69287977 0.76736229 0.54458123
0.32118240 0.79773688 0.52365056
0.33754743 0.79921706 0.52594458
0.38200941 0.80303838 0.53192080
0.43354026 0.80719881 0.53851702
0.48965289 0.81152796 0.54548209
0.54829724 0.81595292 0.55271055
0.60737979 0.82043110 0.56014103
0.66484817 0.82493391 0.56773188
0.71888724 0.82944057 0.57545211
0.14814349 0.14814349 0.33301076
0.15774056 0.14930810 0.33505706
0.18513736 0.15238031 0.34042184
0.21954586 0.15583691 0.34640075
0.26070879 0.15956382 0.35278052
0.30850875 0.16351811 0.35947501
0.36248794 0.16767782 0.36643591
0.42167078 0.17203023 0.37363152
0.48451873 0.17656748 0.38103893
0.16426856 0.20261565 0.36073695
0.17469603 0.20410589 0.36286094
0.20432330 0.20802991 0.36842424
0.24124192 0.21243248 0.37461563
0.28498729 0.21716471 0.38121196
0.33522021 0.22216910 0.38812243
0.39122881 0.22741519 0.39529571
0.45177876 0.23288434 0.40269782
0.51511720 0.23856415 0.41030402
0.18283030 0.27510516 0.39110954
0.19416229 0.27694338 0.39330233
0.22618613 0.28177196 0.39904004
0.26573578 0.28716927 0.40541567
0.31209578 0.29294710 0.41219688
0.36466995 0.29903076 0.41928844
0.42247204 0.30537923 0.42663610
0.48401294 0.31196625 0.43420369
0.54735849 0.31877331 0.44196464
0.20275623 0.36077387 0.42201224
0.21499831 0.36289795 0.42425757
0.24939515 0.36846149 0.43012671
0.29147438 0.37465313 0.43663815
0.34024399 0.38124972 0.44355201
0.39483826 0.38816046 0.45076934
0.45400509 0.39533398 0.45823335
0.51603507 0.40273634 0.46590598
0.57886988 0.41034276 0.47375911
0.22410558 0.45565376 0.45332095
0.23725309 0.45793627 0.45560155
0.27396777 0.46389592 0.46155669
0.31843413 0.47049650 0.46815305
0.36936306 0.47749208 0.47514506
0.42561549 0.48478054 0.48243076
0.48569280 0.49230292 0.48995136
0.54770920 0.50001951 0.49766722
0.60954325 0.50790084 0.50554896
0.24688700 0.55337418 0.48484293
0.26092157 0.55564652 0.48714080
0.29985902 0.56156043 0.49313476
0.34652199 0.56807814 0.49976354
0.39931128 0.57494920 0.50677780
0.45682081 0.58206808 0.51407347
0.51733561 0.58937319 0.52159024
0.57884500 0.59682267 0.52928730
0.63922623 0.60438539 0.53713435
0.27107466 0.64677836 0.51635932
0.28596212 0.64887702 0.51865618
0.32698314 0.65432206 0.52464123
0.37560266 0.66029497 0.53124964
0.42990761 0.66656010 0.53823033
0.48824203 0.67301726 0.54547803
0.54871441 0.67960769 0.55293147
0.60924538 0.68629150 0.56054913
0.66776968 0.69303914 0.56830009
0.29661098 0.72991758 0.54764228
0.31230003 0.73172716 0.54992007
0.35521965 0.73640932 0.55584927
0.40550798 0.74152416 0.56238571
0.46094478 0.74686551 0.56927867
0.51965182 0.75234533 0.57642256
0.57960842 0.75791200 0.58375578
0.63872387 0.76353067 0.59123649
0.69504306 0.76917572 0.59883356
0.32340724 0.79937545 0.57846627
0.33982888 0.80084662 0.58070768
0.38441698 0.80464451 0.58653625
0.43604346 0.80877910 0.59295179
0.49219855 0.81308098 0.59970598
0.55081873 0.81747767 0.60669387
0.60980617 0.82192685 0.61385410
0.66711406 0.82640010 0.62114494
0.72094112 0.83087675 0.62853539
0.14946022 0.14946022 0.38503710
0.15912667 0.15063336 0.38721750
0.18671084 0.15372791 0.39292393
0.22133234 0.15720940 0.39926676
0.26271747 0.16096288 0.40601535
0.31073092 0.16494503 0.41307530
0.36489375 0.16913370 0.42039290
0.42420801 0.17351603 0.42793240
0.48711561 0.17808404 0.43566757
0.16570074 0.20430043 0.41440367
0.17619995 0.20579986 0.41663770
0.20601861 0.20974786 0.42247878
0.24314994 0.21417696 0.42896158
0.28711038 0.21893725 0.43584794
0.33754086 0.22397080 0.44303971
0.39370757 0.22924689 0.45048071
0.45435483 0.23474671 0.45813330
0.51771336 0.24045770 0.46596972
0.18438860 0.27718317 0.44614130
0.19579404 0.27902993 0.44841541
0.22801086 0.28388061 0.45435501
0.26776916 0.28930204 0.46093656
0.31433204 0.29510501 0.46791561
0.36708190 0.30121440 0.47519083
0.42501054 0.30758889 0.48270382
0.48660966 0.31420201 0.49041528
0.54993285 0.32103509 0.49829611
0.20444188 0.36317478 0.47797887
0.21675807 0.36530492 0.48027454
0.25134629 0.37088388 0.48626412
0.29362595 0.37709192 0.49289036
0.34258149 0.38370511 0.49990455
0.39732495 0.39063225 0.50720303
0.45658327 0.39782175 0.51472574
0.51863092 0.40523947 0.52243213
0.58140208 0.41286049 0.53029204
0.22591842 0.45823345 0.50977758
0.23913950 0.46051795 0.51207616
0.27604046 0.46648228 0.51806700
0.32069464 0.47308719 0.52468401
0.37178788 0.48008637 0.53167628
0.42815888 0.48737749 0.53893873
0.48829001 0.49490146 0.54641024
0.55028321 0.50261845 0.55404939
0.61201464 0.51049892 0.56182538
0.24882503 0.55594208 0.54133792
0.26293131 0.55821179 0.54362100
0.30204610 0.56411835 0.54956522
0.34887982 0.57062710 0.55612029
0.40180744 0.57748777 0.56303525
0.45940153 0.58459485 0.57020451
0.51993097 0.59188676 0.57756649
0.58137725 0.59932165 0.58507938
0.64162021 0.60686836 0.59271205
0.27313370 0.64914973 0.57244592
0.28808955 0.65124189 0.57469581
0.32927501 0.65666966 0.58054758
0.37804389 0.66262293 0.58699062
0.43245734 0.66886666 0.59377595
0.49083986 0.67530090 0.60079845
0.55128739 0.68186706 0.60799666
0.61171745 0.68852534 0.61532880
0.67007201 0.69524627 0.62276379
0.29878448 0.73196210 0.60289105
0.31453708 0.73376298 0.60509126
0.35760427 0.73842230 0.61080804
0.40801657 0.74351169 0.61709283
0.46352892 0.74882588 0.62370066
0.52224623 0.75427722 0.63052774
0.58213939 0.75981434 0.63751331
0.64111931 0.76540252 0.64461606
0.69724208 0.77101629 0.65180531
0.32568618 0.80103749 0.63247684
0.34216502 0.80249949 0.63461247
0.38688001 0.80627348 0.64015604
0.43860158 0.81038172 0.64624139
0.49479708 0.81465580 0.65262936
0.55338947 0.81902371 0.65921836
0.61227696 0.82344334 0.66594887
0.66941868 0.82788646 0.67278043
0.72302780 0.83233257 0.67968304
0.15080971 0.15080971 0.44080046
0.16054695 0.15199154 0.44306913
0.18832219 0.15510890 0.44899556
0.22316050 0.15861581 0.45556429
0.26477123 0.16239640 0.46253180
0.31300067 0.16640698 0.46979721
0.36734828 0.17062519 0.47730248
0.42679341 0.17503801 0.48500856
0.48975829 0.17963738 0.49288654
0.16716804 0.20602513 0.47116155
0.17774042 0.20753392 0.47345418
0.20775403 0.21150633 0.47943716
0.24510159 0.21596241 0.48605839
0.28928000 0.22075123 0.49306989
0.33990987 0.22581443 0.50036842
0.39623500 0.23112102 0.50789424
0.45697814 0.23665200 0.51560702
0.52035363 0.24239466 0.52347681
0.18598450 0.27930717 0.50350852
0.19746475 0.28116257 0.50580800
0.22987789 0.28603562 0.51180243
0.26984795 0.29148146 0.51842549
0.31661602 0.29730986 0.52542657
0.36954259 0.30344524 0.53270074
0.42759720 0.30984600 0.54018709
0.48925222 0.31648547 0.54784433
0.55254918 0.32334480 0.55564174
0.20616747 0.36562441 0.53548193
0.21855905 0.36776062 0.53776927
0.25334170 0.37335502 0.54372573
0.29582438 0.37957947 0.55029624
0.34496746 0.38620923 0.55722970
0.39986029 0.39315274 0.56442052
0.45920862 0.40035815 0.57180718
0.52127080 0.40779113 0.57934789
0.58397387 0.41542662 0.58701157
0.22777338 0.46086024 0.56695138
0.24106921 0.46314664 0.56920842
0.27815908 0.46911542 0.57507987
0.32300306 0.47572436 0.58154635
0.37426146 0.48272682 0.58835841
0.43075035 0.49002024 0.59541075
0.49093297 0.49754541 0.60264185
0.55289916 0.50526239 0.61000990
0.61452304 0.51314155 0.61748379
0.25080713 0.55855152 0.59773542
0.26498613 0.56081843 0.59994523
0.30428042 0.56671719 0.60568796
0.35128622 0.57321649 0.61200292
0.40435219 0.58006623 0.61864430
0.46202931 0.58716095 0.62550803
0.52257029 0.59443907 0.63253320
0.58394908 0.60185873 0.63967838
0.64404853 0.60938881 0.64691280
0.27523848 0.65155474 0.62764936
0.29026356 0.65364021 0.62979662
0.33161505 0.65905019 0.63537127
0.38053388 0.66498324 0.64149223
0.43505503 0.67120497 0.64791923
0.49348331 0.67761567 0.65455028
0.55390223 0.68415692 0.66132562
0.61422656 0.69078901 0.66820462
0.67240597 0.69748255 0.67515715
0.30100507 0.73403203 0.65652221
0.31682186 0.73582402 0.65859353
0.36003757 0.74046003 0.66396592
0.41057366 0.74552343 0.66985628
0.46615995 0.75080992 0.67603159
0.52488445 0.75623221 0.68239272
0.58470988 0.76173919 0.68888154
0.64354914 0.76729630 0.69545858
0.69947005 0.77287820 0.70209463
0.32801318 0.80271776 0.68420525
0.34454960 0.80417043 0.68618943
0.38939176 0.80792013 0.69133110
0.44120748 0.81200159 0.69696070
0.49744102 0.81624745 0.70285393
0.55600193 0.82058610 0.70891517
0.61478473 0.82497573 0.71508836
0.67175500 0.82938828 0.72133550
0.72514082 0.83380338 0.72762852
