luts/cubes/horror.cube
TITLE "horror"
LUT_3D_SIZE 5
DOMAIN_MIN 0.0 0.0 0.0
DOMAIN_MAX 1.0 1.0 1.0
0.14185106 0.14185106 0.14185106
0.17760122 0.14593876 0.14593876
0.25104418 0.15287337 0.15287337
0.35084085 0.16071220 0.16071220
0.47185277 0.16930769 0.16930769
0.17536785 0.26509823 0.17536785
0.21742491 0.27161340 0.18021856
0.30130259 0.28254413 0.18842269
0.41013754 0.29471881 0.19765905
0.53475394 0.30785254 0.20774148
0.21540251 0.44309375 0.21540251
0.26398715 0.45129708 0.22106372
0.35761898 0.46484416 0.23060420
0.47302431 0.47962280 0.24129352
0.59739665 0.49521084 0.25290014
0.26116152 0.63509666 0.26116152
0.31591154 0.64275204 0.26761517
0.41751296 0.65518384 0.27844651
0.53611562 0.66845516 0.29051612
0.65641341 0.68213547 0.30354317
0.31240051 0.79111050 0.31240051
0.37247696 0.79654138 0.31957268
0.47951858 0.80524308 0.33155493
0.59766236 0.81437520 0.34482645
0.71061472 0.82362320 0.35905635
0.14329845 0.14329845 0.17621888
0.17933715 0.14742069 0.18108796
0.25327689 0.15441299 0.18932252
0.35354215 0.16231564 0.19859220
0.47480432 0.17097942 0.20870985
0.17708666 0.26741130 0.21581395
0.21944623 0.27396213 0.22148292
0.30380098 0.28495041 0.23103613
0.41300493 0.29718582 0.24173917
0.53769838 0.31038110 0.25336007
0.21741025 0.44601733 0.26214676
0.26629404 0.45423063 0.26861591
0.36034350 0.46779070 0.27947230
0.47597659 0.48257854 0.29156840
0.60024101 0.49817068 0.30462237
0.26345256 0.63783614 0.31386353
0.31847585 0.64546613 0.32105360
0.42039517 0.65785376 0.33306420
0.53905887 0.67107391 0.34636482
0.65907876 0.68469713 0.36062327
0.31494944 0.79306036 0.37026072
0.37524856 0.79845346 0.37803094
0.48247428 0.80709319 0.39094571
0.60050609 0.81615837 0.40515361
0.71304342 0.82533658 0.42027607
0.14562228 0.14562228 0.24365672
0.18212117 0.14979968 0.24982407
0.25684949 0.15688405 0.26019116
0.35785128 0.16488851 0.27176750
0.47949517 0.17366114 0.28429071
0.17984339 0.27111089 0.29301480
0.22268394 0.27771799 0.29993604
0.30779249 0.28879699 0.31151911
0.41757066 0.30112801 0.32437782
0.54236891 0.31442003 0.33819946
0.22062641 0.45066783 0.34855489
0.26998387 0.45889583 0.35612719
0.36468876 0.47247460 0.36873729
0.48066842 0.48727494 0.38264516
0.60474416 0.50287135 0.39748888
0.26711735 0.64216826 0.40789474
0.32257083 0.64975709 0.41593310
0.42498345 0.66207329 0.42924908
0.54372732 0.67521089 0.44383461
0.66329092 0.68874225 0.45928610
0.31902031 0.79612919 0.46962359
0.37966687 0.80146234 0.47789659
0.48717062 0.81000378 0.49152688
0.60500822 0.81896286 0.50635118
0.71687524 0.82803056 0.52193661
0.14814349 0.14814349 0.33301076
0.18513736 0.15238031 0.34042184
0.26070879 0.15956382 0.35278052
0.36248794 0.16767782 0.36643591
0.48451873 0.17656748 0.38103893
0.18283030 0.27510516 0.39110954
0.22618613 0.28177196 0.39904004
0.31209578 0.29294710 0.41219688
0.42247204 0.30537923 0.42663610
0.54735849 0.31877331 0.44196464
0.22410558 0.45565376 0.45332095
0.27396777 0.46389592 0.46155669
0.36936306 0.47749208 0.47514506
0.48569280 0.49230292 0.48995136
0.60954325 0.50790084 0.50554896
0.27107466 0.64677836 0.51635932
0.32698314 0.65432206 0.52464123
0.42990761 0.66656010 0.53823033
0.54871441 0.67960769 0.55293147
0.66776968 0.69303914 0.56830009
0.32340724 0.79937545 0.57846627
0.38441698 0.80464451 0.58653625
0.49219855 0.81308098 0.59970598
0.60980617 0.82192685 0.61385410
0.72094112 0.83087675 0.62853539
0.15080971 0.15080971 0.44080046
0.18832219 0.15510890 0.44899556
0.26477123 0.16239640 0.46253180
0.36734828 0.17062519 0.47730248
0.48975829 0.17963738 0.49288654
0.18598450 0.27930717 0.50350852
0.22987789 0.28603562 0.51180243
0.31661602 0.29730986 0.52542657
0.42759720 0.30984600 0.54018709
0.55254918 0.32334480 0.55564174
0.22777338 0.46086024 0.56695138
0.27815908 0.46911542 0.57507987
0.37426146 0.48272682 0.58835841
0.49093297 0.49754541 0.60264185
0.61452304 0.51314155 0.61748379
0.27523848 0.65155474 0.62764936
0.33161505 0.65905019 0.63537127
0.43505503 0.67120497 0.64791923
0.55390223 0.68415692 0.66132562
0.67240597 0.69748255 0.67515715
0.32801318 0.80271776 0.68420525
0.38939176 0.80792013 0.69133110
0.49744102 0.81624745 0.70285393
0.61478473 0.82497573 0.71508836
0.72514082 0.83380338 0.72762852
