luts/cubes/horror.cube
TITLE "horror"
LUT_3D_SIZE 33
DOMAIN_MIN 0.0 0.0 0.0
DOMAIN_MAX 1.0 1.0 1.0
0.14185106 0.14185106 0.14185106
0.14185106 0.14185106 0.14185106
0.14185106 0.14185106 0.14185106
0.14578359 0.14233439 0.14233439
0.15111281 0.14297451 0.14297451
0.15703377 0.14366700 0.14366700
0.16344565 0.14439634 0.14439634
0.17030781 0.14515507 0.14515507
0.17760122 0.14593876 0.14593876
0.18531687 0.14674445 0.14674445
0.19345093 0.14757003 0.14757003
0.20200241 0.14841394 0.14841394
0.21097172 0.14927497 0.14927497
0.22035985 0.15015214 0.15015214
0.23016779 0.15104467 0.15104467
0.24039600 0.15195193 0.15195193
0.25104418 0.15287337 0.15287337
0.26211087 0.15380854 0.15380854
0.27359327 0.15475704 0.15475704
0.28548698 0.15571854 0.15571854
0.29778591 0.15669276 0.15669276
0.31048197 0.15767945 0.15767945
0.32356505 0.15867837 0.15867837
0.33702286 0.15968935 0.15968935
0.35084085 0.16071220 0.16071220
0.36500216 0.16174678 0.16174678
0.37948768 0.16279296 0.16279296
0.39427591 0.16385061 0.16385061
0.40934309 0.16491963 0.16491963
0.42466331 0.16599993 0.16599993
0.44020852 0.16709142 0.16709142
0.45594889 0.16819403 0.16819403
0.47185277 0.16930769 0.16930769
0.14471213 0.15086833 0.14471213
0.14471213 0.15086833 0.14471213
0.14471213 0.15086833 0.14471213
0.14871022 0.15137696 0.14520355
0.15412713 0.15205054 0.14585438
0.16014391 0.15277915 0.14655843
0.16665767 0.15354646 0.14729993
0.17362670 0.15434460 0.14807128
0.18103123 0.15516889 0.14886797
0.18886167 0.15601623 0.14968699
0.19711368 0.15688438 0.15052621
0.20578576 0.15777170 0.15138402
0.21487783 0.15867690 0.15225920
0.22439034 0.15959895 0.15315075
0.23432375 0.16053704 0.15405788
0.24467795 0.16149046 0.15497993
0.25545201 0.16245867 0.15591635
0.26664383 0.16344115 0.15686669
0.27824993 0.16443752 0.15783053
0.29026519 0.16544739 0.15880754
0.30268276 0.16647048 0.15979743
0.31549380 0.16750650 0.16079994
0.32868740 0.16855523 0.16181484
0.34225045 0.16961644 0.16284193
0.35616764 0.17068997 0.16388104
0.37042127 0.17177563 0.16493201
0.38499146 0.17287330 0.16599470
0.39985596 0.17398283 0.16706901
0.41499029 0.17510412 0.16815480
0.43036786 0.17623705 0.16925200
0.44596003 0.17738153 0.17036050
0.46173643 0.17853749 0.17148025
0.47766493 0.17970484 0.17261115
0.14889537 0.16460512 0.14889537
0.14889537 0.16460512 0.14889537
0.14889537 0.16460512 0.14889537
0.15298837 0.16515105 0.14939851
0.15853209 0.16587395 0.15006485
0.16468734 0.16665578 0.15078563
0.17134821 0.16747900 0.15154472
0.17847137 0.16833516 0.15233433
0.18603599 0.16921922 0.15314983
0.19403163 0.17012783 0.15398815
0.20245315 0.17105859 0.15484709
0.21129831 0.17200972 0.15572501
0.22056630 0.17297983 0.15662065
0.23025679 0.17396781 0.15753299
0.24036941 0.17497277 0.15846122
0.25090321 0.17599396 0.15940466
0.26185636 0.17703075 0.16036275
0.27322580 0.17808263 0.16133501
0.28500705 0.17914913 0.16232102
0.29719394 0.18022987 0.16332044
0.30977856 0.18132451 0.16433296
0.32275092 0.18243274 0.16535832
0.33609898 0.18355431 0.16639629
0.34980851 0.18468899 0.16744665
0.36386302 0.18583656 0.16850923
0.37824369 0.18699684 0.16958386
0.39292954 0.18816967 0.17067040
0.40789725 0.18935490 0.17176873
0.42312135 0.19055240 0.17287873
0.43857434 0.19176205 0.17400031
0.45422675 0.19298374 0.17513335
0.47004748 0.19421736 0.17627780
0.48600382 0.19546284 0.17743357
0.15312400 0.17913924 0.15312400
0.15312400 0.17913924 0.15312400
0.15312400 0.17913924 0.15312400
0.15731175 0.17972300 0.15363885
0.16298199 0.18049589 0.15432067
0.16927527 0.18133166 0.15505817
0.17608258 0.18221152 0.15583482
0.18335900 0.18312643 0.15664265
0.19108261 0.18407098 0.15747693
0.19924205 0.18504157 0.15833451
0.20783140 0.18603563 0.15921313
0.21684765 0.18705125 0.16011112
0.22628921 0.18808692 0.16102717
0.23615495 0.18914145 0.16196025
0.24644368 0.19021388 0.16290953
0.25715356 0.19130339 0.16387429
0.26828185 0.19240932 0.16485398
0.27982451 0.19353108 0.16584808
0.29177606 0.19466819 0.16685619
0.30412928 0.19582022 0.16787794
0.31687516 0.19698679 0.16891301
0.33000261 0.19816758 0.16996114
0.34349848 0.19936229 0.17102207
0.35734737 0.20057068 0.17209561
0.37153169 0.20179251 0.17318155
0.38603152 0.20302757 0.17427973
0.40082482 0.20427568 0.17539001
0.41588724 0.20553668 0.17651225
0.43119239 0.20681041 0.17764633
0.44671189 0.20809673 0.17879214
0.46241551 0.20939552 0.17994960
0.47827152 0.21070667 0.18111860
0.49424667 0.21203007 0.18229909
0.15741779 0.19453789 0.15741779
0.15741779 0.19453789 0.15741779
0.15741779 0.19453789 0.15741779
0.16170055 0.19515991 0.15794439
0.16749754 0.19598332 0.15864173
0.17392894 0.19687357 0.15939599
0.18088265 0.19781063 0.16019024
0.18831209 0.19878482 0.16101635
0.19619421 0.19979038 0.16186945
0.20451674 0.20082346 0.16274633
0.21327292 0.20188130 0.16364467
0.22245895 0.20296185 0.16456276
0.23207242 0.20406351 0.16549927
0.24211140 0.20518498 0.16645312
0.25257383 0.20632522 0.16742347
0.26345697 0.20748337 0.16840959
0.27475714 0.20865870 0.16941089
0.28646934 0.20985058 0.17042687
0.29858703 0.21105849 0.17145709
0.31110193 0.21228194 0.17250117
0.32400397 0.21352054 0.17355881
0.33728095 0.21477393 0.17462970
0.35091856 0.21604179 0.17571361
0.36490034 0.21732383 0.17681031
0.37920755 0.21861981 0.17791961
0.39381923 0.21992948 0.17904133
0.40871230 0.22125265 0.18017533
0.42386145 0.22258913 0.18132145
0.43923938 0.22393875 0.18247958
0.45481692 0.22530135 0.18364961
0.47056315 0.22667678 0.18483143
0.48644573 0.22806492 0.18602496
0.50243098 0.22946565 0.18723011
0.16178506 0.21082921 0.16178506
0.16178506 0.21082921 0.16178506
0.16178506 0.21082921 0.16178506
0.16616321 0.21148963 0.16232345
0.17208734 0.21236376 0.16303639
0.17865716 0.21330868 0.16380747
0.18575739 0.21430309 0.16461940
0.19333980 0.21533670 0.16546385
0.20138015 0.21640338 0.16633584
0.20986523 0.21749901 0.16723209
0.21878741 0.21862067 0.16815022
0.22814209 0.21976614 0.16908848
0.23792600 0.22093372 0.17004550
0.24813637 0.22212203 0.17102018
0.25877027 0.22332995 0.17201166
0.26982402 0.22455655 0.17301919
0.28129299 0.22580104 0.17404216
0.29317117 0.22706274 0.17508006
0.30545099 0.22834109 0.17613243
0.31812311 0.22963556 0.17719890
0.33117635 0.23094573 0.17827913
0.34459741 0.23227120 0.17937283
0.35837088 0.23361162 0.18047974
0.37247919 0.23496668 0.18159964
0.38690253 0.23633609 0.18273231
0.40161890 0.23771961 0.18387759
0.41660421 0.23911701 0.18503531
0.43183224 0.24052807 0.18620533
0.44727485 0.24195260 0.18738752
0.46290213 0.24339043 0.18858176
0.47868250 0.24484139 0.18978794
0.49458312 0.24630534 0.19100597
0.51056993 0.24778213 0.19223577
0.16623056 0.22802361 0.16623056
0.16623056 0.22802361 0.16623056
0.16623056 0.22802361 0.16623056
0.17070451 0.22872229 0.16678080
0.17675623 0.22964690 0.16750940
0.18346480 0.23064620 0.16829738
0.19071173 0.23169763 0.16912707
0.19844708 0.23279028 0.16998993
0.20664542 0.23391764 0.17088090
0.21529254 0.23507534 0.17179659
0.22437994 0.23626027 0.17273458
0.23390213 0.23747008 0.17369308
0.24385503 0.23870295 0.17467068
0.25423496 0.23995739 0.17566626
0.26503807 0.24123222 0.17667893
0.27625978 0.24252644 0.17770793
0.28789444 0.24383920 0.17875264
0.29993505 0.24516978 0.17981251
0.31237297 0.24651756 0.18088709
0.32519781 0.24788197 0.18197599
0.33839727 0.24926256 0.18307886
0.35195697 0.25065889 0.18419541
0.36586040 0.25207059 0.18532536
0.38008889 0.25349730 0.18646848
0.39462160 0.25493872 0.18762456
0.40943550 0.25639458 0.18879342
0.42450555 0.25786462 0.18997489
0.43980467 0.25934860 0.19116881
0.45530392 0.26084631 0.19237506
0.47097269 0.26235756 0.19359351
0.48677883 0.26388216 0.19482405
0.50268906 0.26541994 0.19606659
0.51866900 0.26697075 0.19732102
0.17075741 0.24611827 0.17075741
0.17075741 0.24611827 0.17075741
0.17075741 0.24611827 0.17075741
0.17532758 0.24685466 0.17131956
0.18150732 0.24782902 0.17206389
0.18835495 0.24888188 0.17286885
0.19574874 0.24998943 0.17371636
0.20363699 0.25114014 0.17459772
0.21199302 0.25232713 0.17550773
0.22080164 0.25354580 0.17644293
0.23005340 0.25479282 0.17740086
0.23974195 0.25606571 0.17837967
0.24986229 0.25736253 0.17937792
0.26040986 0.25868172 0.18039447
0.27137988 0.26002199 0.18142840
0.28276679 0.26138229 0.18247893
0.29456396 0.26276171 0.18354542
0.30676334 0.26415948 0.18462732
0.31935526 0.26557491 0.18572417
0.33232821 0.26700743 0.18683554
0.34566884 0.26845652 0.18796110
0.35936165 0.26992171 0.18910053
0.37338905 0.27140260 0.19025355
0.38773131 0.27289881 0.19141993
0.40236656 0.27441000 0.19259944
0.41727080 0.27593587 0.19379190
0.43241809 0.27747614 0.19499712
0.44778049 0.27903055 0.19621497
0.46332834 0.28059886 0.19744528
0.47903040 0.28218086 0.19868795
0.49485401 0.28377634 0.19994284
0.51076551 0.28538511 0.20120986
0.52673026 0.28700699 0.20248892
0.17536785 0.26509823 0.17536785
0.17536785 0.26509823 0.17536785
0.17536785 0.26509823 0.17536785
0.18003462 0.26587138 0.17594196
0.18634279 0.26689420 0.17670209
0.19332975 0.26799920 0.17752410
0.20087049 0.26916133 0.17838951
0.20891152 0.27036848 0.17928943
0.21742491 0.27161340 0.18021856
0.22639438 0.27289121 0.18117335
0.23580956 0.27419842 0.18215128
0.24566318 0.27553242 0.18315046
0.25594932 0.27689113 0.18416942
0.26666251 0.27827291 0.18520700
0.27779699 0.27967640 0.18626224
0.28934624 0.28110046 0.18733436
0.30130259 0.28254413 0.18842269
0.31365696 0.28400659 0.18952666
0.32639862 0.28548711 0.19064581
0.33951497 0.28698507 0.19177970
0.35299157 0.28849991 0.19292797
0.36681184 0.29003112 0.19409031
0.38095712 0.29157827 0.19526643
0.39540664 0.29314096 0.19645609
0.41013754 0.29471881 0.19765905
0.42512486 0.29631148 0.19887511
0.44034181 0.29791869 0.20010411
0.45575968 0.29954015 0.20134587
0.47134810 0.30117558 0.20260025
0.48707528 0.30282476 0.20386712
0.50290810 0.30448745 0.20514635
0.51881259 0.30616344 0.20643783
0.53475394 0.30785254 0.20774148
0.18006358 0.28493655 0.18006358
0.18006358 0.28493655 0.18006358
0.18006358 0.28493655 0.18006358
0.18482730 0.28574507 0.18064969
0.19126422 0.28681447 0.18142568
0.19839073 0.28796955 0.18226480
0.20607844 0.28918407 0.18314818
0.21427205 0.29044533 0.18406673
0.22294232 0.29174572 0.18501503
0.23207190 0.29308014 0.18598946
0.24164944 0.29444490 0.18698745
0.25166672 0.29583725 0.18800706
0.26211689 0.29725501 0.18904680
0.27299351 0.29869643 0.19010545
0.28428987 0.30016009 0.19118205
0.29599842 0.30164477 0.19227579
0.30811048 0.30314946 0.19338600
0.32061590 0.30467328 0.19451209
0.33350288 0.30621546 0.19565356
0.34675776 0.30777533 0.19680999
0.36036499 0.30935230 0.19798101
0.37430693 0.31094582 0.19916628
0.38856388 0.31255542 0.20036551
0.40311404 0.31418067 0.20157845
0.41793359 0.31582117 0.20280486
0.43299667 0.31747655 0.20404453
0.44827568 0.31914650 0.20529729
0.46374115 0.32083069 0.20656295
0.47936212 0.32252884 0.20784138
0.49510626 0.32424069 0.20913242
0.51094009 0.32596599 0.21043596
0.52682939 0.32770450 0.21175187
0.54273923 0.32945601 0.21308006
0.18484589 0.30559422 0.18484589
0.18484589 0.30559422 0.18484589
0.18484589 0.30559422 0.18484589
0.18970686 0.30643623 0.18544405
0.19627281 0.30754974 0.18623596
0.20353896 0.30875216 0.18709224
0.21137357 0.31001617 0.18799363
0.21971944 0.31132850 0.18893087
0.22854602 0.31268119 0.18989839
0.23783484 0.31406890 0.19089252
0.24757355 0.31548778 0.19191062
0.25775293 0.31693494 0.19295071
0.26836520 0.31840808 0.19401124
0.27940292 0.31990538 0.19509101
0.29085839 0.32142533 0.19618901
0.30272303 0.32296666 0.19730441
0.31498714 0.32452829 0.19843651
0.32763950 0.32610928 0.19958473
0.34066724 0.32770883 0.20074856
0.35405559 0.32932621 0.20192754
0.36778797 0.33096080 0.20312131
0.38184565 0.33261203 0.20432951
0.39620791 0.33427938 0.20555186
0.41085198 0.33596238 0.20678807
0.42575308 0.33766062 0.20803792
0.44088453 0.33937369 0.20930118
0.45621791 0.34110125 0.21057767
0.47172312 0.34284296 0.21186721
0.48736860 0.34459851 0.21316964
0.50312158 0.34636761 0.21448482
0.51894828 0.34814999 0.21581261
0.53481428 0.34994539 0.21715291
0.55068461 0.35175358 0.21850558
0.18971584 0.32702024 0.18971584
0.18971584 0.32702024 0.18971584
0.18971584 0.32702024 0.18971584
0.19467430 0.32789341 0.19032608
0.20136944 0.32904789 0.19113394
0.20877527 0.33029428 0.19200743
0.21675657 0.33160417 0.19292689
0.22525428 0.33296379 0.19388284
0.23423646 0.33436484 0.19486963
0.24368350 0.33580176 0.19588350
0.25358201 0.33727055 0.19692173
0.26392179 0.33876818 0.19798232
0.27469405 0.34029225 0.19906370
0.28589035 0.34184085 0.20016460
0.29750200 0.34341239 0.20128401
0.30951936 0.34500555 0.20242108
0.32193169 0.34661918 0.20357510
0.33472669 0.34825231 0.20474546
0.34789041 0.34990407 0.20593163
0.36140704 0.35157372 0.20713317
0.37525891 0.35326057 0.20834968
0.38942625 0.35496402 0.20958080
0.40388734 0.35668354 0.21082624
0.41861845 0.35841861 0.21208570
0.43359393 0.36016879 0.21335896
0.44878626 0.36193366 0.21464577
0.46416631 0.36371283 0.21594595
0.47970335 0.36550595 0.21725932
0.49536532 0.36731268 0.21858571
0.51111907 0.36913272 0.21992496
0.52693055 0.37096575 0.22127695
0.54276524 0.37281152 0.22264154
0.55858820 0.37466976 0.22401863
0.19467424 0.34915169 0.19467424
0.19467424 0.34915169 0.19467424
0.19467424 0.34915169 0.19467424
0.19973034 0.35005322 0.19529658
0.20655477 0.35124495 0.19612043
0.21410017 0.35253123 0.19701115
0.22222787 0.35388272 0.19794870
0.23087685 0.35528512 0.19892341
0.24001377 0.35672986 0.19992949
0.24961787 0.35821118 0.20096311
0.25967467 0.35972490 0.20202150
0.27017296 0.36126788 0.20310262
0.28110292 0.36283763 0.20420484
0.29245512 0.36443215 0.20532688
0.30421981 0.36604979 0.20646771
0.31638632 0.36768916 0.20762645
0.32894283 0.36934906 0.20880238
0.34187599 0.37102846 0.20999486
0.35517078 0.37272648 0.21120337
0.36881029 0.37444230 0.21242744
0.38277582 0.37617522 0.21366666
0.39704660 0.37792460 0.21492067
0.41159990 0.37968987 0.21618916
0.42641110 0.38147049 0.21747184
0.44145367 0.38326599 0.21876845
0.45669934 0.38507592 0.22007876
0.47211831 0.38689988 0.22140258
0.48767926 0.38873747 0.22273970
0.50334972 0.39058835 0.22408997
0.51909619 0.39245217 0.22545322
0.53488445 0.39432863 0.22682931
0.55067993 0.39621742 0.22821811
0.56644778 0.39811827 0.22961949
0.19972170 0.37191426 0.19972170
0.19972170 0.37191426 0.19972170
0.19972170 0.37191426 0.19972170
0.20487555 0.37284089 0.20035617
0.21182924 0.37406555 0.20119602
0.21951402 0.37538705 0.20210400
0.22778767 0.37677516 0.20305966
0.23658721 0.37821518 0.20405312
0.24587787 0.37969826 0.20507851
0.25563769 0.38121843 0.20613189
0.26585110 0.38277139 0.20721045
0.27650583 0.38435388 0.20831208
0.28759103 0.38596332 0.20943514
0.29909624 0.38759765 0.21057832
0.31101065 0.38925514 0.21174055
0.32332254 0.39093434 0.21292095
0.33601902 0.39263402 0.21411876
0.34908567 0.39435310 0.21533334
0.36250639 0.39609063 0.21656415
0.37626324 0.39784579 0.21781071
0.39033646 0.39961783 0.21907260
0.40470429 0.40140609 0.22034945
0.41934307 0.40320994 0.22164093
0.43422727 0.40502885 0.22294675
0.44932957 0.40686229 0.22426665
0.46462098 0.40870981 0.22560038
0.48007108 0.41057097 0.22694775
0.49564804 0.41244535 0.22830854
0.51131899 0.41433260 0.22968259
0.52705020 0.41623234 0.23106973
0.54280733 0.41814424 0.23246981
0.55855580 0.42006799 0.23388270
0.57426094 0.42200329 0.23530827
0.20485871 0.39522309 0.20485871
0.20485871 0.39522309 0.20485871
0.20485871 0.39522309 0.20485871
0.21011031 0.39617116 0.20550530
0.21719315 0.39742389 0.20636117
0.22501696 0.39877534 0.20728641
0.23343599 0.40019453 0.20826018
0.24238524 0.40166637 0.20927241
0.25182848 0.40318177 0.21031709
0.26174252 0.40473462 0.21139022
0.27211067 0.40632047 0.21248893
0.28291959 0.40793597 0.21361106
0.29415738 0.40957847 0.21475494
0.30581251 0.41124582 0.21591923
0.31787313 0.41293625 0.21710283
0.33032644 0.41464825 0.21830484
0.34315848 0.41638055 0.21952449
0.35635376 0.41813202 0.22076113
0.36989511 0.41990169 0.22201418
0.38376356 0.42168868 0.22328317
0.39793833 0.42349223 0.22456766
0.41239670 0.42531164 0.22586728
0.42711409 0.42714626 0.22718167
0.44206413 0.42899553 0.22851056
0.45721873 0.43085890 0.22985365
0.47254823 0.43273588 0.23121071
0.48802164 0.43462603 0.23258152
0.50360670 0.43652890 0.23396587
0.51927021 0.43844411 0.23536358
0.53497825 0.44037128 0.23677449
0.55069641 0.44231005 0.23819842
0.56639021 0.44426009 0.23963526
0.58202520 0.44622109 0.24108485
0.21008558 0.41898373 0.21008558
0.21008558 0.41898373 0.21008558
0.21008558 0.41898373 0.21008558
0.21543487 0.41994922 0.21074430
0.22264661 0.42122469 0.21161618
0.23060899 0.42260031 0.21255866
0.23917268 0.42404449 0.21355053
0.24827063 0.42554181 0.21458150
0.25786512 0.42708300 0.21564546
0.26793170 0.42866178 0.21673832
0.27845254 0.43027362 0.21785714
0.28941322 0.43191507 0.21899974
0.30080074 0.43358341 0.22016440
0.31260252 0.43527644 0.22134974
0.32480563 0.43699233 0.22255467
0.33739620 0.43872954 0.22377823
0.35035919 0.44048673 0.22501966
0.36367805 0.44226276 0.22627827
0.37733456 0.44405662 0.22755350
0.39130871 0.44586740 0.22884484
0.40557876 0.44769431 0.23015184
0.42012101 0.44953661 0.23147413
0.43491004 0.45139366 0.23281134
0.44991864 0.45326484 0.23416317
0.46511804 0.45514960 0.23552935
0.48047794 0.45704742 0.23690961
0.49596685 0.45895784 0.23830373
0.51155212 0.46088040 0.23971150
0.52720030 0.46281470 0.24113274
0.54287732 0.46476033 0.24256725
0.55854880 0.46671693 0.24401489
0.57418041 0.46868414 0.24547550
0.58973797 0.47066164 0.24694895
0.21540251 0.44309375 0.21540251
0.21540251 0.44309375 0.21540251
0.21540251 0.44309375 0.21540251
0.22084933 0.44407234 0.21607334
0.22818960 0.44536482 0.21696120
0.23628996 0.44675843 0.21792092
0.24499743 0.44822107 0.21893084
0.25424291 0.44973711 0.21998053
0.26398715 0.45129708 0.22106372
0.27420442 0.45289461 0.22217626
0.28487573 0.45452508 0.22331515
0.29598552 0.45618497 0.22447816
0.30751973 0.45787150 0.22566353
0.31946468 0.45958242 0.22686987
0.33180636 0.46131585 0.22809604
0.34452983 0.46307022 0.22934109
0.35761898 0.46484416 0.23060420
0.37105618 0.46663649 0.23188471
0.38482220 0.46844618 0.23318201
0.39889600 0.47027229 0.23449559
0.41325489 0.47211399 0.23582500
0.42787426 0.47397055 0.23716984
0.44272784 0.47584128 0.23852974
0.45778767 0.47772555 0.23990440
0.47302431 0.47962280 0.24129352
0.48840689 0.48153248 0.24269683
0.50390349 0.48345412 0.24411411
0.51948112 0.48538724 0.24554515
0.53510612 0.48733141 0.24698973
0.55074439 0.48928624 0.24844768
0.56636160 0.49125132 0.24991884
0.58192363 0.49322630 0.25140304
0.59739665 0.49521084 0.25290014
0.22080955 0.46744428 0.22080955
0.22080955 0.46744428 0.22080955
0.22080955 0.46744428 0.22080955
0.22635366 0.46843141 0.22149247
0.23382197 0.46973488 0.22239628
0.24205957 0.47113997 0.22337318
0.25090980 0.47261425 0.22440112
0.26030147 0.47414189 0.22546946
0.27019378 0.47571333 0.22657184
0.28055970 0.47732211 0.22770399
0.29137905 0.47896353 0.22886288
0.30263513 0.48063403 0.23004622
0.31431278 0.48233078 0.23125223
0.32639722 0.48405149 0.23247948
0.33887336 0.48579425 0.23372680
0.35172517 0.48755745 0.23499322
0.36493549 0.48933971 0.23627793
0.37848563 0.49113981 0.23758021
0.39235533 0.49295669 0.23889947
0.40652258 0.49478941 0.24023516
0.42096373 0.49663712 0.24158684
0.43565333 0.49849904 0.24295409
0.45056428 0.50037449 0.24433654
0.46566794 0.50226282 0.24573386
0.48093422 0.50416345 0.24714576
0.49633176 0.50607582 0.24857196
0.51182824 0.50799943 0.25001222
0.52739041 0.50993381 0.25146633
0.54298449 0.51187850 0.25293407
0.55857636 0.51383310 0.25441525
0.57413184 0.51579720 0.25590971
0.58961708 0.51777044 0.25741728
0.60499864 0.51975244 0.25893781
0.22630665 0.49192203 0.22630665
0.22630665 0.49192203 0.22630665
0.22630665 0.49192203 0.22630665
0.23194769 0.49291301 0.22700161
0.23954342 0.49422127 0.22792132
0.24791736 0.49563114 0.22891535
0.25690917 0.49711002 0.22996124
0.26644553 0.49864198 0.23104817
0.27648406 0.50021737 0.23216964
0.28699640 0.50182970 0.23332133
0.29796117 0.50347422 0.23450013
0.30936051 0.50514732 0.23570371
0.32117815 0.50684616 0.23693025
0.33339821 0.50856841 0.23817829
0.34600449 0.51031214 0.23944665
0.35897991 0.51207571 0.24073433
0.37230621 0.51385772 0.24204049
0.38596370 0.51565693 0.24336441
0.39993110 0.51747228 0.24470548
0.41418544 0.51930279 0.24606314
0.42870218 0.52114761 0.24743693
0.44345500 0.52300595 0.24882643
0.45841608 0.52487711 0.25023125
0.47355608 0.52676041 0.25165105
0.48884438 0.52865528 0.25308554
0.50424914 0.53056114 0.25453442
0.51973774 0.53247749 0.25599747
0.53527671 0.53440383 0.25747443
0.55083219 0.53633972 0.25896511
0.56637014 0.53828472 0.26046930
0.58185657 0.54023843 0.26198682
0.59725796 0.54220046 0.26351751
0.61254133 0.54417045 0.26506121
0.23189359 0.51641135 0.23189359
0.23189359 0.51641135 0.23189359
0.23189359 0.51641135 0.23189359
0.23763112 0.51740142 0.23260055
0.24535352 0.51870819 0.23353610
0.25386277 0.52011608 0.23454717
0.26299481 0.52159247 0.23561094
0.27267417 0.52312139 0.23671636
0.28285688 0.52469319 0.23785683
0.29351323 0.52630133 0.23902795
0.30462060 0.52794105 0.24022655
0.31615999 0.52960874 0.24145025
0.32811397 0.53130152 0.24269720
0.34046556 0.53301705 0.24396591
0.35319748 0.53475339 0.24525516
0.36629156 0.53650888 0.24656395
0.37972851 0.53828212 0.24789141
0.39348759 0.54007185 0.24923682
0.40754655 0.54187699 0.25059952
0.42188149 0.54369655 0.25197898
0.43646699 0.54552968 0.25337470
0.45127595 0.54737558 0.25478625
0.46627982 0.54923353 0.25621324
0.48144866 0.55110286 0.25765532
0.49675133 0.55298298 0.25911218
0.51215561 0.55487330 0.26058354
0.52762859 0.55677331 0.26206912
0.54313667 0.55868251 0.26356871
0.55864599 0.56060045 0.26508207
0.57412262 0.56252669 0.26660901
0.58953284 0.56446082 0.26814933
0.60484351 0.56640245 0.26970287
0.62002215 0.56835121 0.27126946
0.23757011 0.54079661 0.23757011
0.23757011 0.54079661 0.23757011
0.23757011 0.54079661 0.23757011
0.24340358 0.54178105 0.23828901
0.25125175 0.54308010 0.23924030
0.25989511 0.54447931 0.24026833
0.26916586 0.54594618 0.24134986
0.27898637 0.54746479 0.24247366
0.28931104 0.54902552 0.24363302
0.30010879 0.55062185 0.24482344
0.31135576 0.55224901 0.24604171
0.32303176 0.55390338 0.24728539
0.33511823 0.55558210 0.24855260
0.34759709 0.55728281 0.24984182
0.36044994 0.55900357 0.25115181
0.37365757 0.56074273 0.25248154
0.38719962 0.56249885 0.25383013
0.40105438 0.56427070 0.25519683
0.41519862 0.56605717 0.25658099
0.42960754 0.56785729 0.25798203
0.44425489 0.56967018 0.25939947
0.45911281 0.57149505 0.26083286
0.47415209 0.57333116 0.26228180
0.48934223 0.57517786 0.26374592
0.50465162 0.57703453 0.26522492
0.52004772 0.57890059 0.26671849
0.53549741 0.58077553 0.26822636
0.55096701 0.58265884 0.26974830
0.56642271 0.58455007 0.27128408
0.58183077 0.58644877 0.27283348
0.59715778 0.58835453 0.27439631
0.61237104 0.59026696 0.27597239
0.62743864 0.59218569 0.27756155
0.24333576 0.56496407 0.24333576
0.24333576 0.56496407 0.24333576
0.24333576 0.56496407 0.24333576
0.24926453 0.56593829 0.24406653
0.25723742 0.56722356 0.24503346
0.26601353 0.56860756 0.24607833
0.27542132 0.57005808 0.24717751
0.28538093 0.57155934 0.24831956
0.29584515 0.57310177 0.24949767
0.30678151 0.57467889 0.25070725
0.31816486 0.57628598 0.25194502
0.32997385 0.57791942 0.25320852
0.34218878 0.57957636 0.25449582
0.35479042 0.58125445 0.25580537
0.36775933 0.58295177 0.25713592
0.38107520 0.58466665 0.25848639
0.39471667 0.58639768 0.25985590
0.40866103 0.58814360 0.26124369
0.42288412 0.58990333 0.26264908
0.43736029 0.59167589 0.26407149
0.45206247 0.59346040 0.26551042
0.46696212 0.59525605 0.26696540
0.48202938 0.59706214 0.26843603
0.49723324 0.59887799 0.26992194
0.51254172 0.60070298 0.27142280
0.52792200 0.60253655 0.27293831
0.54334079 0.60437817 0.27446819
0.55876441 0.60622734 0.27601218
0.57415916 0.60808360 0.27757007
0.58949154 0.60994652 0.27914162
0.60472852 0.61181566 0.28072663
