luts/cubes/matte_fade.cube
TITLE "matte_fade"
LUT_3D_SIZE 33
DOMAIN_MIN 0.0 0.0 0.0
DOMAIN_MAX 1.0 1.0 1.0
0.08038605 0.08038605 0.09642678
0.10388820 0.08194135 0.09798208
0.12675583 0.08345466 0.09949539
0.14938994 0.08495251 0.10099324
0.17187371 0.08644042 0.10248115
0.19424636 0.08792097 0.10396170
0.21653084 0.08939569 0.10543642
0.23874227 0.09086558 0.10690630
0.26089136 0.09233133 0.10837206
0.28298609 0.09379349 0.10983422
0.30503263 0.09525247 0.11129320
0.32703591 0.09670858 0.11274930
0.34899995 0.09816209 0.11420282
0.37092809 0.09961323 0.11565395
0.39282314 0.10106217 0.11710290
0.41468753 0.10250909 0.11854982
0.43652333 0.10395412 0.11999485
0.45833237 0.10539737 0.12143810
0.48011626 0.10683896 0.12287969
0.50187642 0.10827898 0.12431971
0.52361412 0.10971752 0.12575825
0.54533051 0.11115464 0.12719537
0.56702663 0.11259042 0.12863115
0.58870341 0.11402493 0.13006566
0.61036171 0.11545821 0.13149894
0.63200233 0.11689032 0.13293105
0.65362597 0.11832130 0.13436203
0.67523330 0.11975121 0.13579194
0.69682495 0.12118008 0.13722081
0.71840148 0.12260795 0.13864868
0.73996342 0.12403485 0.14007558
0.76151127 0.12546082 0.14150155
0.78304549 0.12688589 0.14292662
0.08561818 0.10756503 0.10165891
0.10912033 0.10912033 0.10321421
0.13198796 0.11063364 0.10472752
0.15462207 0.11213150 0.10622537
0.17710584 0.11361940 0.10771328
0.19947849 0.11509996 0.10919383
0.22176297 0.11657467 0.11066855
0.24397440 0.11804456 0.11213843
0.26612349 0.11951032 0.11360419
0.28821822 0.12097248 0.11506635
0.31026476 0.12243145 0.11652533
0.33226804 0.12388756 0.11798143
0.35423208 0.12534107 0.11943495
0.37616022 0.12679221 0.12088608
0.39805527 0.12824116 0.12233503
0.41991966 0.12968807 0.12378195
0.44175546 0.13113310 0.12522698
0.46356450 0.13257636 0.12667023
0.48534839 0.13401795 0.12811182
0.50710854 0.13545797 0.12955184
0.52884625 0.13689650 0.13099038
0.55056264 0.13833363 0.13242750
0.57225876 0.13976941 0.13386328
0.59393554 0.14120391 0.13529779
0.61559384 0.14263719 0.13673107
0.63723446 0.14406930 0.13816317
0.65885810 0.14550029 0.13959416
0.68046543 0.14693019 0.14102407
0.70205708 0.14835906 0.14245294
0.72363361 0.14978693 0.14388081
0.74519555 0.15121383 0.14530771
0.76674340 0.15263980 0.14673368
0.78827762 0.15406487 0.14815875
0.09070905 0.13401022 0.10674978
0.11421120 0.13556552 0.10830508
0.13707883 0.13707883 0.10981839
0.15971294 0.13857669 0.11131624
0.18219671 0.14006460 0.11280415
0.20456936 0.14154515 0.11428470
0.22685384 0.14301987 0.11575942
0.24906527 0.14448975 0.11722930
0.27121436 0.14595551 0.11869506
0.29330909 0.14741767 0.12015722
0.31535563 0.14887664 0.12161620
0.33735891 0.15033275 0.12307231
0.35932295 0.15178627 0.12452582
0.38125109 0.15323740 0.12597696
0.40314614 0.15468635 0.12742590
0.42501053 0.15613327 0.12887282
0.44684633 0.15757830 0.13031785
0.46865537 0.15902155 0.13176110
0.49043926 0.16046314 0.13320269
0.51219942 0.16190316 0.13464271
0.53393712 0.16334170 0.13608125
0.55565351 0.16477882 0.13751837
0.57734963 0.16621460 0.13895415
0.59902641 0.16764911 0.14038866
0.62068471 0.16908239 0.14182194
0.64232533 0.17051449 0.14325405
0.66394897 0.17194548 0.14468503
0.68555630 0.17337539 0.14611494
0.70714795 0.17480426 0.14754381
0.72872448 0.17623212 0.14897168
0.75028642 0.17765903 0.15039858
0.77183427 0.17908500 0.15182455
0.79336849 0.18051007 0.15324962
0.09574793 0.16018536 0.11178866
0.11925008 0.16174066 0.11334396
0.14211772 0.16325397 0.11485727
0.16475182 0.16475182 0.11635512
0.18723560 0.16623973 0.11784303
0.20960824 0.16772028 0.11932358
0.23189272 0.16919500 0.12079830
0.25410416 0.17066488 0.12226819
0.27625324 0.17213064 0.12373394
0.29834797 0.17359280 0.12519611
0.32039451 0.17505178 0.12665508
0.34239779 0.17650789 0.12811119
0.36436183 0.17796140 0.12956470
0.38628997 0.17941254 0.13101584
0.40818502 0.18086148 0.13246478
0.43004941 0.18230840 0.13391170
0.45188521 0.18375343 0.13535673
0.47369425 0.18519668 0.13679998
0.49547814 0.18663827 0.13824157
0.51723830 0.18807829 0.13968160
0.53897600 0.18951683 0.14112013
0.56069239 0.19095395 0.14255725
0.58238851 0.19238973 0.14399304
0.60406529 0.19382424 0.14542754
0.62572360 0.19525752 0.14686082
0.64736421 0.19668963 0.14829293
0.66898785 0.19812061 0.14972391
0.69059518 0.19955052 0.15115382
0.71218683 0.20097939 0.15258269
0.73376336 0.20240726 0.15401056
0.75532530 0.20383416 0.15543746
0.77687315 0.20526013 0.15686343
0.79840737 0.20668520 0.15828850
0.10075334 0.18618664 0.11679407
0.12425550 0.18774194 0.11834937
0.14712313 0.18925525 0.11986268
0.16975724 0.19075310 0.12136054
0.19224101 0.19224101 0.12284845
0.21461365 0.19372156 0.12432900
0.23689814 0.19519628 0.12580372
0.25910957 0.19666617 0.12727360
0.28125866 0.19813192 0.12873936
0.30335338 0.19959409 0.13020152
0.32539992 0.20105306 0.13166049
0.34740320 0.20250917 0.13311660
0.36936724 0.20396268 0.13457011
0.39129538 0.20541382 0.13602125
0.41319044 0.20686276 0.13747020
0.43505482 0.20830968 0.13891712
0.45689063 0.20975471 0.14036214
0.47869967 0.21119796 0.14180540
0.50048355 0.21263955 0.14324699
0.52224371 0.21407957 0.14468701
0.54398141 0.21551811 0.14612554
0.56569781 0.21695523 0.14756267
0.58739392 0.21839102 0.14899845
0.60907071 0.21982552 0.15043295
0.63072901 0.22125880 0.15186623
0.65236962 0.22269091 0.15329834
0.67399326 0.22412189 0.15472933
0.69560060 0.22555180 0.15615924
0.71719225 0.22698067 0.15758810
0.73876877 0.22840854 0.15901597
0.76033071 0.22983544 0.16044288
0.78187856 0.23126141 0.16186885
0.80341279 0.23268648 0.16329391
0.10573402 0.21205940 0.12177475
0.12923617 0.21361470 0.12333005
0.15210381 0.21512801 0.12484336
0.17473791 0.21662587 0.12634121
0.19722168 0.21811378 0.12782912
0.21959433 0.21959433 0.12930967
0.24187881 0.22106905 0.13078439
0.26409025 0.22253893 0.13225428
0.28623933 0.22400469 0.13372003
0.30833406 0.22546685 0.13518220
0.33038060 0.22692582 0.13664117
0.35238388 0.22838193 0.13809728
0.37434792 0.22983545 0.13955079
0.39627606 0.23128658 0.14100193
0.41817111 0.23273553 0.14245087
0.44003550 0.23418245 0.14389779
0.46187130 0.23562747 0.14534282
0.48368034 0.23707073 0.14678607
0.50546423 0.23851232 0.14822766
0.52722439 0.23995234 0.14966768
0.54896209 0.24139088 0.15110622
0.57067848 0.24282800 0.15254334
0.59237460 0.24426378 0.15397913
0.61405138 0.24569828 0.15541363
0.63570969 0.24713156 0.15684691
0.65735030 0.24856367 0.15827902
0.67897394 0.24999466 0.15971000
0.70058127 0.25142457 0.16113991
0.72217292 0.25285344 0.16256878
0.74374945 0.25428130 0.16399665
0.76531139 0.25570821 0.16542355
0.78685924 0.25713418 0.16684952
0.80839346 0.25855925 0.16827459
0.11069507 0.23783022 0.12673580
0.13419722 0.23938552 0.12829110
0.15706485 0.24089883 0.12980441
0.17969896 0.24239668 0.13130226
0.20218273 0.24388459 0.13279017
0.22455538 0.24536514 0.13427072
0.24683986 0.24683986 0.13574544
0.26905129 0.24830974 0.13721532
0.29120038 0.24977550 0.13868108
0.31329511 0.25123766 0.14014324
0.33534165 0.25269664 0.14160222
0.35734493 0.25415275 0.14305832
0.37930897 0.25560626 0.14451184
0.40123711 0.25705740 0.14596297
0.42313216 0.25850634 0.14741192
0.44499655 0.25995326 0.14885884
0.46683235 0.26139829 0.15030387
0.48864139 0.26284154 0.15174712
0.51042528 0.26428313 0.15318871
0.53218543 0.26572315 0.15462873
0.55392314 0.26716169 0.15606727
0.57563953 0.26859881 0.15750439
0.59733565 0.27003459 0.15894017
0.61901243 0.27146910 0.16037468
0.64067073 0.27290238 0.16180796
0.66231135 0.27433449 0.16324006
0.68393499 0.27576547 0.16467105
0.70554232 0.27719538 0.16610096
0.72713397 0.27862425 0.16752983
0.74871050 0.28005212 0.16895770
0.77027244 0.28147902 0.17038460
0.79182029 0.28290499 0.17181057
0.81335451 0.28433006 0.17323564
0.11563985 0.26351655 0.13168058
0.13914201 0.26507185 0.13323588
0.16200964 0.26658516 0.13474919
0.18464374 0.26808302 0.13624705
0.20712752 0.26957092 0.13773495
0.22950016 0.27105148 0.13921551
0.25178465 0.27252619 0.14069022
0.27399608 0.27399608 0.14216011
0.29614517 0.27546184 0.14362587
0.31823989 0.27692400 0.14508803
0.34028643 0.27838297 0.14654700
0.36228971 0.27983908 0.14800311
0.38425375 0.28129259 0.14945662
0.40618189 0.28274373 0.15090776
0.42807695 0.28419268 0.15235671
0.44994133 0.28563959 0.15380362
0.47177713 0.28708462 0.15524865
0.49358618 0.28852788 0.15669191
0.51537006 0.28996947 0.15813350
0.53713022 0.29140949 0.15957352
0.55886792 0.29284802 0.16101205
0.58058431 0.29428515 0.16244918
0.60228043 0.29572093 0.16388496
0.62395721 0.29715543 0.16531946
0.64561552 0.29858871 0.16675274
0.66725613 0.30002082 0.16818485
0.68887977 0.30145181 0.16961584
0.71048711 0.30288171 0.17104574
0.73207875 0.30431058 0.17247461
0.75365528 0.30573845 0.17390248
0.77521722 0.30716535 0.17532938
0.79676507 0.30859132 0.17675535
0.81829930 0.31001639 0.17818042
0.12057076 0.28913079 0.13661149
0.14407291 0.29068609 0.13816679
0.16694054 0.29219940 0.13968010
0.18957465 0.29369725 0.14117795
0.21205842 0.29518516 0.14266586
0.23443107 0.29666571 0.14414641
0.25671555 0.29814043 0.14562113
0.27892698 0.29961031 0.14709101
0.30107607 0.30107607 0.14855677
0.32317080 0.30253823 0.15001893
0.34521734 0.30399721 0.15147791
0.36722062 0.30545332 0.15293402
0.38918466 0.30690683 0.15438753
0.41111280 0.30835796 0.15583867
0.43300785 0.30980691 0.15728761
0.45487224 0.31125383 0.15873453
0.47670804 0.31269886 0.16017956
0.49851708 0.31414211 0.16162281
0.52030097 0.31558370 0.16306440
0.54206113 0.31702372 0.16450442
0.56379883 0.31846226 0.16594296
0.58551522 0.31989938 0.16738008
0.60721134 0.32133516 0.16881586
0.62888812 0.32276967 0.17025037
0.65054642 0.32420295 0.17168365
0.67218704 0.32563506 0.17311576
0.69381068 0.32706604 0.17454674
0.71541801 0.32849595 0.17597665
0.73700966 0.32992482 0.17740552
0.75858619 0.33135269 0.17883339
0.78014813 0.33277959 0.18026029
0.80169598 0.33420556 0.18168626
0.82323020 0.33563063 0.18311133
0.12548956 0.31468215 0.14153029
0.14899171 0.31623745 0.14308559
0.17185935 0.31775076 0.14459890
0.19449345 0.31924862 0.14609676
0.21697723 0.32073653 0.14758466
0.23934987 0.32221708 0.14906521
0.26163435 0.32369180 0.15053993
0.28384579 0.32516168 0.15200982
0.30599488 0.32662744 0.15347558
0.32808960 0.32808960 0.15493774
0.35013614 0.32954857 0.15639671
0.37213942 0.33100468 0.15785282
0.39410346 0.33245820 0.15930633
0.41603160 0.33390933 0.16075747
0.43792666 0.33535828 0.16220642
0.45979104 0.33680520 0.16365333
0.48162684 0.33825022 0.16509836
0.50343589 0.33969348 0.16654162
0.52521977 0.34113507 0.16798321
0.54697993 0.34257509 0.16942323
0.56871763 0.34401362 0.17086176
0.59043402 0.34545075 0.17229889
0.61213014 0.34688653 0.17373467
0.63380692 0.34832103 0.17516917
0.65546523 0.34975431 0.17660245
0.67710584 0.35118642 0.17803456
0.69872948 0.35261741 0.17946555
0.72033682 0.35404732 0.18089545
0.74192846 0.35547618 0.18232432
0.76350499 0.35690405 0.18375219
0.78506693 0.35833096 0.18517909
0.80661478 0.35975693 0.18660506
0.82814900 0.36118199 0.18803013
0.13039764 0.34017780 0.14643837
0.15389979 0.34173310 0.14799367
0.17676742 0.34324641 0.14950698
0.19940153 0.34474426 0.15100483
0.22188530 0.34623217 0.15249274
0.24425795 0.34771272 0.15397329
0.26654243 0.34918744 0.15544801
0.28875386 0.35065733 0.15691789
0.31090295 0.35212308 0.15838365
0.33299768 0.35358524 0.15984581
0.35504422 0.35504422 0.16130479
0.37704750 0.35650033 0.16276090
0.39901154 0.35795384 0.16421441
0.42093968 0.35940498 0.16566554
0.44283473 0.36085392 0.16711449
0.46469912 0.36230084 0.16856141
0.48653492 0.36374587 0.17000644
0.50834396 0.36518912 0.17144969
0.53012785 0.36663071 0.17289128
0.55188801 0.36807073 0.17433130
0.57362571 0.36950927 0.17576984
0.59534210 0.37094639 0.17720696
0.61703822 0.37238217 0.17864274
0.63871500 0.37381668 0.18007725
0.66037330 0.37524996 0.18151053
0.68201392 0.37668207 0.18294264
0.70363756 0.37811305 0.18437362
0.72524489 0.37954296 0.18580353
0.74683654 0.38097183 0.18723240
0.76841307 0.38239970 0.18866027
0.78997501 0.38382660 0.19008717
0.81152286 0.38525257 0.19151314
0.83305708 0.38667764 0.19293821
0.13529608 0.36562341 0.15133681
0.15879824 0.36717871 0.15289211
0.18166587 0.36869202 0.15440542
0.20429998 0.37018988 0.15590328
0.22678375 0.37167779 0.15739118
0.24915639 0.37315834 0.15887174
0.27144088 0.37463306 0.16034646
0.29365231 0.37610294 0.16181634
0.31580140 0.37756870 0.16328210
0.33789612 0.37903086 0.16474426
0.35994266 0.38048983 0.16620323
0.38194594 0.38194594 0.16765934
0.40390998 0.38339946 0.16911285
0.42583812 0.38485059 0.17056399
0.44773318 0.38629954 0.17201294
0.46959756 0.38774646 0.17345986
0.49143337 0.38919148 0.17490488
0.51324241 0.39063474 0.17634814
0.53502629 0.39207633 0.17778973
0.55678645 0.39351635 0.17922975
0.57852415 0.39495489 0.18066828
0.60024055 0.39639201 0.18210541
0.62193666 0.39782779 0.18354119
0.64361345 0.39926229 0.18497569
0.66527175 0.40069557 0.18640897
0.68691236 0.40212768 0.18784108
0.70853600 0.40355867 0.18927207
0.73014334 0.40498858 0.19070197
0.75173498 0.40641745 0.19213084
0.77331151 0.40784531 0.19355871
0.79487345 0.40927222 0.19498561
0.81642130 0.41069819 0.19641159
0.83795553 0.41212326 0.19783665
0.14018579 0.39102365 0.15622652
0.16368795 0.39257895 0.15778182
0.18655558 0.39409226 0.15929513
0.20918969 0.39559012 0.16079299
0.23167346 0.39707802 0.16228089
0.25404610 0.39855858 0.16376145
0.27633059 0.40003330 0.16523617
0.29854202 0.40150318 0.16670605
0.32069111 0.40296894 0.16817181
0.34278583 0.40443110 0.16963397
0.36483237 0.40589007 0.17109294
0.38683565 0.40734618 0.17254905
0.40879969 0.40879969 0.17400256
0.43072783 0.41025083 0.17545370
0.45262289 0.41169978 0.17690265
0.47448727 0.41314670 0.17834957
0.49632308 0.41459172 0.17979459
0.51813212 0.41603498 0.18123785
0.53991600 0.41747657 0.18267944
0.56167616 0.41891659 0.18411946
0.58341386 0.42035512 0.18555799
0.60513026 0.42179225 0.18699512
0.62682637 0.42322803 0.18843090
0.64850316 0.42466253 0.18986540
0.67016146 0.42609581 0.19129868
0.69180207 0.42752792 0.19273079
0.71342571 0.42895891 0.19416178
0.73503305 0.43038881 0.19559168
0.75662469 0.43181768 0.19702055
0.77820122 0.43324555 0.19844842
0.79976316 0.43467245 0.19987532
0.82131101 0.43609842 0.20130129
0.84284524 0.43752349 0.20272636
0.14506751 0.41638237 0.16110824
0.16856966 0.41793767 0.16266354
0.19143730 0.41945098 0.16417685
0.21407140 0.42094884 0.16567470
0.23655518 0.42243674 0.16716261
0.25892782 0.42391729 0.16864316
0.28121230 0.42539201 0.17011788
0.30342374 0.42686190 0.17158777
0.32557282 0.42832766 0.17305353
0.34766755 0.42978982 0.17451569
0.36971409 0.43124879 0.17597466
0.39171737 0.43270490 0.17743077
0.41368141 0.43415841 0.17888428
0.43560955 0.43560955 0.18033542
0.45750460 0.43705850 0.18178437
0.47936899 0.43850541 0.18323128
0.50120479 0.43995044 0.18467631
0.52301383 0.44139370 0.18611956
0.54479772 0.44283529 0.18756116
0.56655788 0.44427531 0.18900118
0.58829558 0.44571384 0.19043971
0.61001197 0.44715097 0.19187683
0.63170809 0.44858675 0.19331262
0.65338487 0.45002125 0.19474712
0.67504318 0.45145453 0.19618040
0.69668379 0.45288664 0.19761251
0.71830743 0.45431763 0.19904349
0.73991476 0.45574753 0.20047340
0.76150641 0.45717640 0.20190227
0.78308294 0.45860427 0.20333014
0.80464488 0.46003117 0.20475704
0.82619273 0.46145714 0.20618301
0.84772695 0.46288221 0.20760808
0.14994186 0.44170283 0.16598259
0.17344402 0.44325813 0.16753789
0.19631165 0.44477144 0.16905120
0.21894575 0.44626930 0.17054906
0.24142953 0.44775720 0.17203696
0.26380217 0.44923776 0.17351752
0.28608666 0.45071247 0.17499223
0.30829809 0.45218236 0.17646212
0.33044718 0.45364812 0.17792788
0.35254190 0.45511028 0.17939004
0.37458844 0.45656925 0.18084901
0.39659172 0.45802536 0.18230512
0.41855576 0.45947887 0.18375863
0.44048390 0.46093001 0.18520977
0.46237896 0.46237896 0.18665872
0.48424334 0.46382587 0.18810564
0.50607914 0.46527090 0.18955066
0.52788819 0.46671416 0.19099392
0.54967207 0.46815575 0.19243551
0.57143223 0.46959577 0.19387553
0.59316993 0.47103430 0.19531406
0.61488633 0.47247143 0.19675119
0.63658244 0.47390721 0.19818697
0.65825922 0.47534171 0.19962147
0.67991753 0.47677499 0.20105475
0.70155814 0.47820710 0.20248686
0.72318178 0.47963809 0.20391785
0.74478912 0.48106799 0.20534775
0.76638076 0.48249686 0.20677662
0.78795729 0.48392473 0.20820449
0.80951923 0.48535163 0.20963139
0.83106708 0.48677760 0.21105736
0.85260131 0.48820267 0.21248243
0.15480939 0.46698782 0.17085012
0.17831154 0.46854312 0.17240542
0.20117917 0.47005643 0.17391873
0.22381328 0.47155429 0.17541658
0.24629705 0.47304220 0.17690449
0.26866970 0.47452275 0.17838504
0.29095418 0.47599747 0.17985976
0.31316561 0.47746735 0.18132964
0.33531470 0.47893311 0.18279540
0.35740943 0.48039527 0.18425756
0.37945597 0.48185424 0.18571654
0.40145925 0.48331035 0.18717264
0.42342329 0.48476387 0.18862616
0.44535143 0.48621500 0.19007729
0.46724648 0.48766395 0.19152624
0.48911087 0.48911087 0.19297316
0.51094667 0.49055589 0.19441819
0.53275571 0.49199915 0.19586144
0.55453960 0.49344074 0.19730303
0.57629975 0.49488076 0.19874305
0.59803746 0.49631929 0.20018159
0.61975385 0.49775642 0.20161871
0.64144997 0.49919220 0.20305449
0.66312675 0.50062670 0.20448900
0.68478505 0.50205998 0.20592228
0.70642567 0.50349209 0.20735438
0.72804931 0.50492308 0.20878537
0.74965664 0.50635299 0.21021528
0.77124829 0.50778185 0.21164415
0.79282482 0.50920972 0.21307202
0.81438676 0.51063663 0.21449892
0.83593461 0.51206260 0.21592489
0.85746883 0.51348766 0.21734996
0.15967055 0.49223976 0.17571128
0.18317270 0.49379506 0.17726658
0.20604033 0.49530837 0.17877989
0.22867444 0.49680623 0.18027774
0.25115821 0.49829413 0.18176565
0.27353086 0.49977469 0.18324620
0.29581534 0.50124940 0.18472092
0.31802677 0.50271929 0.18619080
0.34017586 0.50418505 0.18765656
0.36227059 0.50564721 0.18911872
0.38431713 0.50710618 0.19057770
0.40632041 0.50856229 0.19203381
0.42828445 0.51001580 0.19348732
0.45021259 0.51146694 0.19493846
0.47210764 0.51291589 0.19638740
0.49397203 0.51436280 0.19783432
0.51580783 0.51580783 0.19927935
0.53761687 0.51725109 0.20072260
0.55940076 0.51869268 0.20216419
0.58116092 0.52013270 0.20360421
0.60289862 0.52157123 0.20504275
0.62461501 0.52300836 0.20647987
0.64631113 0.52444414 0.20791565
0.66798791 0.52587864 0.20935016
0.68964621 0.52731192 0.21078344
0.71128683 0.52874403 0.21221555
0.73291047 0.53017502 0.21364653
0.75451780 0.53160492 0.21507644
0.77610945 0.53303379 0.21650531
0.79768598 0.53446166 0.21793318
0.81924792 0.53588856 0.21936008
0.84079577 0.53731453 0.22078605
0.86232999 0.53873960 0.22221112
0.16452575 0.51746075 0.18056648
0.18802790 0.51901605 0.18212178
0.21089554 0.52052936 0.18363509
0.23352964 0.52202721 0.18513295
0.25601342 0.52351512 0.18662085
0.27838606 0.52499567 0.18810141
0.30067054 0.52647039 0.18957612
0.32288198 0.52794028 0.19104601
0.34503107 0.52940604 0.19251177
0.36712579 0.53086820 0.19397393
0.38917233 0.53232717 0.19543290
0.41117561 0.53378328 0.19688901
0.43313965 0.53523679 0.19834252
0.45506779 0.53668793 0.19979366
0.47696285 0.53813688 0.20124261
0.49882723 0.53958379 0.20268952
0.52066303 0.54102882 0.20413455
0.54247208 0.54247208 0.20557781
0.56425596 0.54391367 0.20701940
0.58601612 0.54535369 0.20845942
0.60775382 0.54679222 0.20989795
0.62947021 0.54822934 0.21133508
0.65116633 0.54966513 0.21277086
0.67284311 0.55109963 0.21420536
0.69450142 0.55253291 0.21563864
0.71614203 0.55396502 0.21707075
0.73776567 0.55539601 0.21850174
0.75937301 0.55682591 0.21993164
0.78096465 0.55825478 0.22136051
0.80254118 0.55968265 0.22278838
0.82410312 0.56110955 0.22421528
0.84565097 0.56253552 0.22564125
0.86718519 0.56396059 0.22706632
0.16937535 0.54265265 0.18541608
0.19287751 0.54420795 0.18697138
0.21574514 0.54572126 0.18848469
0.23837925 0.54721911 0.18998255
0.26086302 0.54870702 0.19147046
0.28323567 0.55018757 0.19295101
0.30552015 0.55166229 0.19442573
0.32773158 0.55313218 0.19589561
0.34988067 0.55459794 0.19736137
0.37197539 0.55606010 0.19882353
0.39402193 0.55751907 0.20028250
0.41602522 0.55897518 0.20173861
0.43798926 0.56042869 0.20319213
0.45991739 0.56187983 0.20464326
0.48181245 0.56332878 0.20609221
0.50367684 0.56477569 0.20753913
0.52551264 0.56622072 0.20898415
0.54732168 0.56766397 0.21042741
0.56910557 0.56910557 0.21186900
0.59086572 0.57054559 0.21330902
0.61260343 0.57198412 0.21474755
0.63431982 0.57342124 0.21618468
0.65601593 0.57485703 0.21762046
0.67769272 0.57629153 0.21905496
0.69935102 0.57772481 0.22048824
0.72099163 0.57915692 0.22192035
0.74261527 0.58058790 0.22335134
0.76422261 0.58201781 0.22478125
0.78581426 0.58344668 0.22621011
0.80739078 0.58487455 0.22763798
0.82895272 0.58630145 0.22906489
0.85050058 0.58772742 0.23049086
0.87203480 0.58915249 0.23191593
0.17421968 0.56781711 0.19026040
0.19772183 0.56937241 0.19181570
0.22058946 0.57088572 0.19332901
0.24322357 0.57238357 0.19482687
0.26570734 0.57387148 0.19631478
0.28807999 0.57535203 0.19779533
0.31036447 0.57682675 0.19927005
0.33257590 0.57829663 0.20073993
0.35472499 0.57976239 0.20220569
0.37681971 0.58122455 0.20366785
0.39886626 0.58268353 0.20512682
0.42086954 0.58413964 0.20658293
0.44283358 0.58559315 0.20803645
0.46476171 0.58704429 0.20948758
0.48665677 0.58849323 0.21093653
0.50852116 0.58994015 0.21238345
0.53035696 0.59138518 0.21382847
0.55216600 0.59282843 0.21527173
0.57394989 0.59427002 0.21671332
0.59571004 0.59571004 0.21815334
0.61744775 0.59714858 0.21959188
0.63916414 0.59858570 0.22102900
0.66086026 0.60002148 0.22246478
0.68253704 0.60145599 0.22389928
0.70419534 0.60288927 0.22533256
0.72583595 0.60432138 0.22676467
0.74745959 0.60575236 0.22819566
0.76906693 0.60718227 0.22962557
0.79065858 0.60861114 0.23105444
0.81223510 0.61003901 0.23248230
0.83379705 0.61146591 0.23390921
0.85534490 0.61289188 0.23533518
0.87687912 0.61431695 0.23676025
0.17905900 0.59295560 0.19509973
0.20256115 0.59451090 0.19665503
0.22542878 0.59602421 0.19816834
0.24806289 0.59752206 0.19966619
0.27054666 0.59900997 0.20115410
0.29291931 0.60049052 0.20263465
0.31520379 0.60196524 0.20410937
0.33741522 0.60343512 0.20557925
0.35956431 0.60490088 0.20704501
0.38165904 0.60636304 0.20850717
0.40370558 0.60782202 0.20996615
0.42570886 0.60927813 0.21142226
0.44767290 0.61073164 0.21287577
0.46960104 0.61218278 0.21432690
0.49149609 0.61363172 0.21577585
0.51336048 0.61507864 0.21722277
0.53519628 0.61652367 0.21866780
0.55700532 0.61796692 0.22011105
0.57878921 0.61940851 0.22155264
0.60054937 0.62084853 0.22299266
0.62228707 0.62228707 0.22443120
0.64400346 0.62372419 0.22586832
0.66569958 0.62515997 0.22730410
0.68737636 0.62659448 0.22873861
0.70903466 0.62802776 0.23017189
0.73067528 0.62945987 0.23160400
0.75229892 0.63089085 0.23303498
0.77390625 0.63232076 0.23446489
0.79549790 0.63374963 0.23589376
0.81707443 0.63517750 0.23732163
0.83863637 0.63660440 0.23874853
0.86018422 0.63803037 0.24017450
0.88171844 0.63945544 0.24159957
0.18389357 0.61806944 0.19993430
0.20739573 0.61962474 0.20148960
0.23026336 0.62113805 0.20300291
0.25289747 0.62263591 0.20450077
0.27538124 0.62412381 0.20598868
0.29775389 0.62560437 0.20746923
0.32003837 0.62707909 0.20894395
0.34224980 0.62854897 0.21041383
0.36439889 0.63001473 0.21187959
0.38649361 0.63147689 0.21334175
0.40854015 0.63293586 0.21480072
0.43054344 0.63439197 0.21625683
0.45250748 0.63584548 0.21771035
0.47443561 0.63729662 0.21916148
0.49633067 0.63874557 0.22061043
0.51819506 0.64019249 0.22205735
0.54003086 0.64163751 0.22350237
0.56183990 0.64308077 0.22494563
0.58362379 0.64452236 0.22638722
0.60538394 0.64596238 0.22782724
0.62712165 0.64740091 0.22926577
0.64883804 0.64883804 0.23070290
0.67053415 0.65027382 0.23213868
0.69221094 0.65170832 0.23357318
0.71386924 0.65314160 0.23500646
0.73550985 0.65457371 0.23643857
0.75713349 0.65600470 0.23786956
0.77874083 0.65743461 0.23929947
0.80033248 0.65886347 0.24072833
0.82190900 0.66029134 0.24215620
0.84347094 0.66171825 0.24358311
