luts/cubes/matte_fade.cube
TITLE "matte_fade"
LUT_3D_SIZE 5
DOMAIN_MIN 0.0 0.0 0.0
DOMAIN_MAX 1.0 1.0 1.0
0.08038605 0.08038605 0.09642678
0.26089136 0.09233133 0.10837206
0.43652333 0.10395412 0.11999485
0.61036171 0.11545821 0.13149894
0.78304549 0.12688589 0.14292662
0.12057076 0.28913079 0.13661149
0.30107607 0.30107607 0.14855677
0.47670804 0.31269886 0.16017956
0.65054642 0.32420295 0.17168365
0.82323020 0.33563063 0.18311133
0.15967055 0.49223976 0.17571128
0.34017586 0.50418505 0.18765656
0.51580783 0.51580783 0.19927935
0.68964621 0.52731192 0.21078344
0.86232999 0.53873960 0.22221112
0.19837104 0.69327455 0.21441177
0.37887636 0.70521984 0.22635706
0.55450833 0.71684262 0.23797984
0.72834671 0.72834671 0.24948393
0.90103049 0.73977439 0.26091161
0.23681450 0.89297410 0.25285523
0.41731981 0.90491939 0.26480051
0.59295178 0.91654217 0.27642330
0.76679016 0.92804626 0.28792739
0.93947394 0.93947394 0.29935507
0.08463120 0.08463120 0.27706343
0.26513652 0.09657649 0.28900872
0.44076849 0.10819927 0.30063150
0.61460687 0.11970336 0.31213559
0.78729065 0.13113104 0.32356328
0.12481591 0.29337594 0.31724814
0.30532123 0.30532123 0.32919343
0.48095320 0.31694401 0.34081622
0.65479158 0.32844810 0.35232031
0.82747536 0.33987578 0.36374799
0.16391570 0.49648492 0.35634793
0.34442102 0.50843020 0.36829322
0.52005299 0.52005299 0.37991601
0.69389137 0.53155708 0.39142010
0.86657515 0.54298476 0.40284778
0.20261620 0.69751971 0.39504843
0.38312151 0.70946499 0.40699372
0.55875348 0.72108778 0.41861650
0.73259187 0.73259187 0.43012059
0.90527564 0.74401955 0.44154827
0.24105965 0.89721925 0.43349188
0.42156497 0.90916454 0.44543717
0.59719694 0.92078732 0.45705995
0.77103532 0.93229141 0.46856404
0.94371910 0.94371910 0.47999173
0.08869126 0.08869126 0.44982375
0.26919657 0.10063654 0.46176904
0.44482854 0.11225933 0.47339182
0.61866692 0.12376342 0.48489591
0.79135070 0.13519110 0.49632359
0.12887597 0.29743599 0.49000846
0.30938128 0.30938128 0.50195375
0.48501325 0.32100407 0.51357653
0.65885163 0.33250816 0.52508062
0.83153541 0.34393584 0.53650830
0.16797576 0.50054497 0.52910825
0.34848107 0.51249026 0.54105354
0.52411304 0.52411304 0.55267632
0.69795142 0.53561713 0.56418041
0.87063520 0.54704481 0.57560809
0.20667625 0.70157976 0.56780875
0.38718157 0.71352505 0.57975403
0.56281354 0.72514783 0.59137682
0.73665192 0.73665192 0.60288091
0.90933570 0.74807960 0.61430859
0.24511971 0.90127931 0.60625220
0.42562502 0.91322459 0.61819749
0.60125699 0.92484738 0.62982027
0.77509537 0.93635147 0.64132436
0.94777915 0.94777915 0.65275204
0.09267378 0.09267378 0.61928535
0.27317910 0.10461907 0.63123063
0.44881107 0.11624186 0.64285342
0.62264945 0.12774595 0.65435751
0.79533323 0.13917363 0.66578519
0.13285850 0.30141852 0.65947006
0.31336381 0.31336381 0.67141535
0.48899578 0.32498659 0.68303813
0.66283416 0.33649068 0.69454222
0.83551794 0.34791837 0.70596990
0.17195829 0.50452750 0.69856985
0.35246360 0.51647278 0.71051514
0.52809557 0.52809557 0.72213792
0.70193395 0.53959966 0.73364201
0.87461773 0.55102734 0.74506969
0.21065878 0.70556229 0.73727034
0.39116410 0.71750758 0.74921563
0.56679606 0.72913036 0.76083842
0.74063445 0.74063445 0.77234251
0.91331823 0.75206213 0.78377019
0.24910224 0.90526184 0.77571380
0.42960755 0.91720712 0.78765908
0.60523952 0.92882991 0.79928187
0.77907790 0.94033400 0.81078596
0.95176168 0.95176168 0.82221364
0.09660600 0.09660600 0.78660600
0.27711131 0.10855129 0.79855129
0.45274328 0.12017407 0.81017407
0.62658167 0.13167816 0.82167816
0.79926544 0.14310584 0.83310584
0.13679071 0.30535074 0.82679071
0.31729603 0.31729603 0.83873600
0.49292799 0.32891881 0.85035878
0.66676638 0.34042290 0.86186287
0.83945015 0.35185058 0.87329055
0.17589050 0.50845971 0.86589050
0.35639582 0.52040500 0.87783579
0.53202778 0.53202778 0.88945857
0.70586617 0.54353187 0.90096266
0.87854994 0.55495956 0.91239034
0.21459100 0.70949450 0.90459100
0.39509631 0.72143979 0.91653628
0.57072828 0.73306257 0.92815907
0.74456666 0.74456666 0.93966316
0.91725044 0.75599435 0.95109084
0.25303445 0.90919405 0.94303445
0.43353977 0.92113934 0.95497974
0.60917173 0.93276212 0.96660252
0.78301012 0.94426621 0.97810661
0.95569389 0.95569389 0.98953429
