luts/cubes/matte_fade.cube
TITLE "matte_fade"
LUT_3D_SIZE 9
DOMAIN_MIN 0.0 0.0 0.0
DOMAIN_MAX 1.0 1.0 1.0
0.08038605 0.08038605 0.09642678
0.17187371 0.08644042 0.10248115
0.26089136 0.09233133 0.10837206
0.34899995 0.09816209 0.11420282
0.43652333 0.10395412 0.11999485
0.52361412 0.10971752 0.12575825
0.61036171 0.11545821 0.13149894
0.69682495 0.12118008 0.13722081
0.78304549 0.12688589 0.14292662
0.10075334 0.18618664 0.11679407
0.19224101 0.19224101 0.12284845
0.28125866 0.19813192 0.12873936
0.36936724 0.20396268 0.13457011
0.45689063 0.20975471 0.14036214
0.54398141 0.21551811 0.14612554
0.63072901 0.22125880 0.15186623
0.71719225 0.22698067 0.15758810
0.80341279 0.23268648 0.16329391
0.12057076 0.28913079 0.13661149
0.21205842 0.29518516 0.14266586
0.30107607 0.30107607 0.14855677
0.38918466 0.30690683 0.15438753
0.47670804 0.31269886 0.16017956
0.56379883 0.31846226 0.16594296
0.65054642 0.32420295 0.17168365
0.73700966 0.32992482 0.17740552
0.82323020 0.33563063 0.18311133
0.14018579 0.39102365 0.15622652
0.23167346 0.39707802 0.16228089
0.32069111 0.40296894 0.16817181
0.40879969 0.40879969 0.17400256
0.49632308 0.41459172 0.17979459
0.58341386 0.42035512 0.18555799
0.67016146 0.42609581 0.19129868
0.75662469 0.43181768 0.19702055
0.84284524 0.43752349 0.20272636
0.15967055 0.49223976 0.17571128
0.25115821 0.49829413 0.18176565
0.34017586 0.50418505 0.18765656
0.42828445 0.51001580 0.19348732
0.51580783 0.51580783 0.19927935
0.60289862 0.52157123 0.20504275
0.68964621 0.52731192 0.21078344
0.77610945 0.53303379 0.21650531
0.86232999 0.53873960 0.22221112
0.17905900 0.59295560 0.19509973
0.27054666 0.59900997 0.20115410
0.35956431 0.60490088 0.20704501
0.44767290 0.61073164 0.21287577
0.53519628 0.61652367 0.21866780
0.62228707 0.62228707 0.22443120
0.70903466 0.62802776 0.23017189
0.79549790 0.63374963 0.23589376
0.88171844 0.63945544 0.24159957
0.19837104 0.69327455 0.21441177
0.28985871 0.69932892 0.22046614
0.37887636 0.70521984 0.22635706
0.46698494 0.71105059 0.23218781
0.55450833 0.71684262 0.23797984
0.64159911 0.72260602 0.24374324
0.72834671 0.72834671 0.24948393
0.81480994 0.73406858 0.25520580
0.90103049 0.73977439 0.26091161
0.21761979 0.79326465 0.23366051
0.30910745 0.79931903 0.23971489
0.39812510 0.80520994 0.24560580
0.48623369 0.81104070 0.25143656
0.57375707 0.81683272 0.25722858
0.66084786 0.82259613 0.26299198
0.74759545 0.82833681 0.26873267
0.83405869 0.83405869 0.27445455
0.92027923 0.83976450 0.28016036
0.23681450 0.89297410 0.25285523
0.32830216 0.89902847 0.25890960
0.41731981 0.90491939 0.26480051
0.50542840 0.91075014 0.27063127
0.59295178 0.91654217 0.27642330
0.68004257 0.92230557 0.28218670
0.76679016 0.92804626 0.28792739
0.85325340 0.93376813 0.29364926
0.93947394 0.93947394 0.29935507
0.08255050 0.08255050 0.18852699
0.17403817 0.08860487 0.19458136
0.26305582 0.09449579 0.20047228
0.35116440 0.10032654 0.20630303
0.43868778 0.10611857 0.21209506
0.52577857 0.11188197 0.21785846
0.61252617 0.11762266 0.22359915
0.69898940 0.12334453 0.22932102
0.78520994 0.12905034 0.23502683
0.10291780 0.18835109 0.20889429
0.19440546 0.19440546 0.21494866
0.28342311 0.20029638 0.22083958
0.37153170 0.20612713 0.22667033
0.45905508 0.21191916 0.23246236
0.54614587 0.21768256 0.23822576
0.63289347 0.22342325 0.24396645
0.71935670 0.22914512 0.24968832
0.80557724 0.23485093 0.25539413
0.12273521 0.29129524 0.22871170
0.21422288 0.29734961 0.23476608
0.30324053 0.30324053 0.24065699
0.39134911 0.30907128 0.24648775
0.47887249 0.31486331 0.25227977
0.56596328 0.32062671 0.25804317
0.65271088 0.32636740 0.26378386
0.73917411 0.33208927 0.26950574
0.82539466 0.33779508 0.27521155
0.14235025 0.39318811 0.24832674
0.23383791 0.39924248 0.25438111
0.32285556 0.40513339 0.26027203
0.41096415 0.41096415 0.26610278
0.49848753 0.41675618 0.27189481
0.58557832 0.42251958 0.27765821
0.67232591 0.42826027 0.28339890
0.75878915 0.43398214 0.28912077
0.84500969 0.43968795 0.29482658
0.16183500 0.49440421 0.26781149
0.25332267 0.50045859 0.27386587
0.34234032 0.50634950 0.27975678
0.43044890 0.51218026 0.28558754
0.51797228 0.51797228 0.29137956
0.60506307 0.52373569 0.29714296
0.69181067 0.52947637 0.30288365
0.77827390 0.53519825 0.30860552
0.86449445 0.54090406 0.31431134
0.18122345 0.59512005 0.28719994
0.27271112 0.60117442 0.29325432
0.36172877 0.60706534 0.29914523
0.44983735 0.61289609 0.30497598
0.53736073 0.61868812 0.31076801
0.62445152 0.62445152 0.31653141
0.71119912 0.63019221 0.32227210
0.79766235 0.63591408 0.32799397
0.88388289 0.64161989 0.33369978
0.20053550 0.69543900 0.30651199
0.29202316 0.70149338 0.31256636
0.38104081 0.70738429 0.31845728
0.46914940 0.71321505 0.32428803
0.55667278 0.71900707 0.33008006
0.64376357 0.72477048 0.33584346
0.73051116 0.73051116 0.34158415
0.81697440 0.73623304 0.34730602
0.90319494 0.74193885 0.35301183
0.21978424 0.79542911 0.32576073
0.31127190 0.80148348 0.33181510
0.40028955 0.80737440 0.33770602
0.48839814 0.81320515 0.34353677
0.57592152 0.81899718 0.34932880
0.66301231 0.82476058 0.35509220
0.74975991 0.83050127 0.36083289
0.83622314 0.83622314 0.36655476
0.92244368 0.84192895 0.37226057
0.23897895 0.89513855 0.34495544
0.33046662 0.90119293 0.35100982
0.41948427 0.90708384 0.35690073
0.50759285 0.91291460 0.36273149
0.59511623 0.91870662 0.36852351
0.68220702 0.92447002 0.37428691
0.76895462 0.93021071 0.38002760
0.85541785 0.93593258 0.38574947
0.94163839 0.94163839 0.39145528
0.08463120 0.08463120 0.27706343
0.17611887 0.09068557 0.28311781
0.26513652 0.09657649 0.28900872
0.35324510 0.10240724 0.29483948
0.44076849 0.10819927 0.30063150
0.52785927 0.11396267 0.30639491
0.61460687 0.11970336 0.31213559
0.70107010 0.12542523 0.31785747
0.78729065 0.13113104 0.32356328
0.10499850 0.19043179 0.29743073
0.19648617 0.19648617 0.30348510
0.28550381 0.20237708 0.30937602
0.37361240 0.20820784 0.31520677
0.46113578 0.21399986 0.32099880
0.54822657 0.21976326 0.32676220
0.63497417 0.22550395 0.33250289
0.72143740 0.23122582 0.33822476
0.80765794 0.23693164 0.34393057
0.12481591 0.29337594 0.31724814
0.21630358 0.29943031 0.32330252
0.30532123 0.30532123 0.32919343
0.39342981 0.31115198 0.33502419
0.48095320 0.31694401 0.34081622
0.56804398 0.32270741 0.34657962
0.65479158 0.32844810 0.35232031
0.74125481 0.33416997 0.35804218
0.82747536 0.33987578 0.36374799
0.14443095 0.39526881 0.33686318
0.23591861 0.40132318 0.34291755
0.32493626 0.40721409 0.34880847
0.41304485 0.41304485 0.35463922
0.50056823 0.41883688 0.36043125
0.58765902 0.42460028 0.36619465
0.67440662 0.43034097 0.37193534
0.76086985 0.43606284 0.37765721
0.84709039 0.44176865 0.38336302
0.16391570 0.49648492 0.35634793
0.25540337 0.50253929 0.36240231
0.34442102 0.50843020 0.36829322
0.43252960 0.51426096 0.37412398
0.52005299 0.52005299 0.37991601
0.60714377 0.52581639 0.38567941
0.69389137 0.53155708 0.39142010
0.78035460 0.53727895 0.39714197
0.86657515 0.54298476 0.40284778
0.18330415 0.59720075 0.37573638
0.27479182 0.60325512 0.38179076
0.36380947 0.60914604 0.38768167
0.45191805 0.61497679 0.39351243
0.53944144 0.62076882 0.39930445
0.62653222 0.62653222 0.40506786
0.71327982 0.63227291 0.41080854
0.79974305 0.63799478 0.41653042
0.88596360 0.64370059 0.42223623
0.20261620 0.69751971 0.39504843
0.29410387 0.70357408 0.40110280
0.38312151 0.70946499 0.40699372
0.47123010 0.71529575 0.41282447
0.55875348 0.72108778 0.41861650
0.64584427 0.72685118 0.42437990
0.73259187 0.73259187 0.43012059
0.81905510 0.73831374 0.43584246
0.90527564 0.74401955 0.44154827
0.22186494 0.79750981 0.41429717
0.31335261 0.80356418 0.42035154
0.40237026 0.80945510 0.42624246
0.49047884 0.81528585 0.43207321
0.57800222 0.82107788 0.43786524
0.66509301 0.82684128 0.44362864
0.75184061 0.83258197 0.44936933
0.83830384 0.83830384 0.45509120
0.92452438 0.84400965 0.46079701
0.24105965 0.89721925 0.43349188
0.33254732 0.90327363 0.43954626
0.42156497 0.90916454 0.44543717
0.50967355 0.91499530 0.45126793
0.59719694 0.92078732 0.45705995
0.68428772 0.92655073 0.46282336
0.77103532 0.93229141 0.46856404
0.85749855 0.93801329 0.47428592
0.94371910 0.94371910 0.47999173
0.08667379 0.08667379 0.36397802
0.17816145 0.09272816 0.37003240
0.26717910 0.09861908 0.37592331
0.35528769 0.10444983 0.38175407
0.44281107 0.11024186 0.38754609
0.52990186 0.11600526 0.39330949
0.61664946 0.12174595 0.39905018
0.70311269 0.12746782 0.40477205
0.78933323 0.13317363 0.41047787
0.10704109 0.19247438 0.38434532
0.19852875 0.19852875 0.39039969
0.28754640 0.20441967 0.39629061
0.37565499 0.21025042 0.40212136
0.46317837 0.21604245 0.40791339
0.55026916 0.22180585 0.41367679
0.63701675 0.22754654 0.41941748
0.72347999 0.23326841 0.42513935
0.80970053 0.23897422 0.43084516
0.12685850 0.29541853 0.40416273
0.21834617 0.30147290 0.41021711
0.30736381 0.30736381 0.41610802
0.39547240 0.31319457 0.42193878
0.48299578 0.31898660 0.42773080
0.57008657 0.32475000 0.43349421
0.65683417 0.33049069 0.43923489
0.74329740 0.33621256 0.44495677
0.82951794 0.34191837 0.45066258
0.14647353 0.39731139 0.42377777
0.23796120 0.40336577 0.42983214
0.32697885 0.40925668 0.43572306
0.41508744 0.41508744 0.44155381
0.50261082 0.42087946 0.44734584
0.58970161 0.42664286 0.45310924
0.67644920 0.43238355 0.45884993
0.76291244 0.43810542 0.46457180
0.84913298 0.44381123 0.47027761
0.16595829 0.49852750 0.44326252
0.25744596 0.50458187 0.44931690
0.34646360 0.51047279 0.45520781
0.43457219 0.51630354 0.46103857
0.52209557 0.52209557 0.46683059
0.60918636 0.52785897 0.47259400
0.69593396 0.53359966 0.47833468
0.78239719 0.53932153 0.48405656
0.86861773 0.54502734 0.48976237
0.18534674 0.59924334 0.46265097
0.27683440 0.60529771 0.46870535
0.36585205 0.61118862 0.47459626
0.45396064 0.61701938 0.48042702
0.54148402 0.62281141 0.48621904
0.62857481 0.62857481 0.49198244
0.71532241 0.63431550 0.49772313
0.80178564 0.64003737 0.50344500
0.88800618 0.64574318 0.50915082
0.20465879 0.69956229 0.48196302
0.29614645 0.70561666 0.48801739
0.38516410 0.71150758 0.49390831
0.47327269 0.71733833 0.49973906
0.56079607 0.72313036 0.50553109
0.64788686 0.72889376 0.51129449
0.73463445 0.73463445 0.51703518
0.82109769 0.74035632 0.52275705
0.90731823 0.74606213 0.52846286
0.22390753 0.79955240 0.50121176
0.31539519 0.80560677 0.50726613
0.40441284 0.81149768 0.51315705
0.49252143 0.81732844 0.51898780
0.58004481 0.82312047 0.52477983
0.66713560 0.82888387 0.53054323
0.75388319 0.83462456 0.53628392
0.84034643 0.84034643 0.54200579
0.92656697 0.84605224 0.54771160
0.24310224 0.89926184 0.52040647
0.33458990 0.90531621 0.52646085
0.42360755 0.91120713 0.53235176
0.51171614 0.91703788 0.53818252
0.59923952 0.92282991 0.54397454
0.68633031 0.92859331 0.54973794
0.77307791 0.93433400 0.55547863
0.85954114 0.94005587 0.56120051
0.94576168 0.94576168 0.56690632
0.08869126 0.08869126 0.44982375
0.18017892 0.09474563 0.45587812
0.26919657 0.10063654 0.46176904
0.35730516 0.10646730 0.46759979
0.44482854 0.11225933 0.47339182
0.53191933 0.11802273 0.47915522
0.61866692 0.12376342 0.48489591
0.70513016 0.12948529 0.49061778
0.79135070 0.13519110 0.49632359
0.10905855 0.19449185 0.47019105
0.20054622 0.20054622 0.47624542
0.28956387 0.20643713 0.48213633
0.37767245 0.21226789 0.48796709
0.46519584 0.21805992 0.49375912
0.55228662 0.22382332 0.49952252
0.63903422 0.22956401 0.50526321
0.72549745 0.23528588 0.51098508
0.81171800 0.24099169 0.51669089
0.12887597 0.29743599 0.49000846
0.22036363 0.30349037 0.49606283
0.30938128 0.30938128 0.50195375
0.39748987 0.31521204 0.50778450
0.48501325 0.32100407 0.51357653
0.57210404 0.32676747 0.51933993
0.65885163 0.33250816 0.52508062
0.74531487 0.33823003 0.53080249
0.83153541 0.34393584 0.53650830
0.14849100 0.39932886 0.50962350
0.23997867 0.40538323 0.51567787
0.32899632 0.41127415 0.52156878
0.41710490 0.41710490 0.52739954
0.50462828 0.42289693 0.53319157
0.59171907 0.42866033 0.53895497
0.67846667 0.43440102 0.54469566
0.76492990 0.44012289 0.55041753
0.85115044 0.44582870 0.55612334
0.16797576 0.50054497 0.52910825
0.25946342 0.50659934 0.53516262
0.34848107 0.51249026 0.54105354
0.43658966 0.51832101 0.54688429
0.52411304 0.52411304 0.55267632
0.61120383 0.52987644 0.55843972
0.69795142 0.53561713 0.56418041
0.78441466 0.54133900 0.56990228
0.87063520 0.54704481 0.57560809
0.18736421 0.60126080 0.54849670
0.27885187 0.60731518 0.55455107
0.36786952 0.61320609 0.56044199
0.45597811 0.61903685 0.56627274
0.54350149 0.62482888 0.57206477
0.63059228 0.63059228 0.57782817
0.71733987 0.63633297 0.58356886
0.80380311 0.64205484 0.58929073
0.89002365 0.64776065 0.59499654
0.20667625 0.70157976 0.56780875
0.29816392 0.70763413 0.57386312
0.38718157 0.71352505 0.57975403
0.47529015 0.71935580 0.58558479
0.56281354 0.72514783 0.59137682
0.64990432 0.73091123 0.59714022
0.73665192 0.73665192 0.60288091
0.82311515 0.74237379 0.60860278
0.90933570 0.74807960 0.61430859
0.22592499 0.80156986 0.58705749
0.31741266 0.80762424 0.59311186
0.40643031 0.81351515 0.59900277
0.49453889 0.81934591 0.60483353
0.58206228 0.82513793 0.61062556
0.66915306 0.83090133 0.61638896
0.75590066 0.83664202 0.62212965
0.84236389 0.84236389 0.62785152
0.92858444 0.84806970 0.63355733
0.24511971 0.90127931 0.60625220
0.33660737 0.90733368 0.61230657
0.42562502 0.91322459 0.61819749
0.51373361 0.91905535 0.62402824
0.60125699 0.92484738 0.62982027
0.68834778 0.93061078 0.63558367
0.77509537 0.93635147 0.64132436
0.86155861 0.94207334 0.64704623
0.94777915 0.94777915 0.65275204
0.09068998 0.09068998 0.53487217
0.18217765 0.09674436 0.54092654
0.27119530 0.10263527 0.54681746
0.35930389 0.10846603 0.55264821
0.44682727 0.11425806 0.55844024
0.53391806 0.12002146 0.56420364
0.62066565 0.12576215 0.56994433
0.70712889 0.13148402 0.57566620
0.79334943 0.13718983 0.58137201
0.11105728 0.19649058 0.55523947
0.20254495 0.20254495 0.56129384
0.29156260 0.20843586 0.56718476
0.37967118 0.21426662 0.57301551
0.46719456 0.22005865 0.57880754
0.55428535 0.22582205 0.58457094
0.64103295 0.23156274 0.59031163
0.72749618 0.23728461 0.59603350
0.81371673 0.24299042 0.60173931
0.13087470 0.29943472 0.57505688
0.22236236 0.30548910 0.58111126
0.31138001 0.31138001 0.58700217
0.39948860 0.31721077 0.59283293
0.48701198 0.32300279 0.59862495
0.57410277 0.32876620 0.60438835
0.66085036 0.33450688 0.61012904
0.74731360 0.34022876 0.61585092
0.83353414 0.34593457 0.62155673
0.15048973 0.40132759 0.59467192
0.24197740 0.40738196 0.60072629
0.33099505 0.41327288 0.60661721
0.41910363 0.41910363 0.61244796
0.50662701 0.42489566 0.61823999
0.59371780 0.43065906 0.62400339
0.68046540 0.43639975 0.62974408
0.76692863 0.44212162 0.63546595
0.85314917 0.44782743 0.64117176
0.16997449 0.50254370 0.61415667
0.26146215 0.50859807 0.62021105
0.35047980 0.51448898 0.62610196
0.43858839 0.52031974 0.63193272
0.52611177 0.52611177 0.63772474
0.61320256 0.53187517 0.64348814
0.69995015 0.53761586 0.64922883
0.78641339 0.54333773 0.65495070
0.87263393 0.54904354 0.66065652
0.18936293 0.60325953 0.63354512
0.28085060 0.60931391 0.63959950
0.36986825 0.61520482 0.64549041
0.45797684 0.62103558 0.65132116
0.54550022 0.62682760 0.65711319
0.63259101 0.63259101 0.66287659
0.71933860 0.63833169 0.66861728
0.80580184 0.64405357 0.67433915
0.89202238 0.64975938 0.68004496
0.20867498 0.70357849 0.65285717
0.30016265 0.70963286 0.65891154
0.38918030 0.71552377 0.66480246
0.47728888 0.72135453 0.67063321
0.56481226 0.72714656 0.67642524
0.65190305 0.73290996 0.68218864
0.73865065 0.73865065 0.68792933
0.82511388 0.74437252 0.69365120
0.91133443 0.75007833 0.69935701
0.22792372 0.80356859 0.67210591
0.31941139 0.80962296 0.67816028
0.40842904 0.81551388 0.68405120
0.49653762 0.82134463 0.68988195
0.58406101 0.82713666 0.69567398
0.67115179 0.83290006 0.70143738
0.75789939 0.83864075 0.70717807
0.84436262 0.84436262 0.71289994
0.93058317 0.85006843 0.71860575
0.24711844 0.90327804 0.69130062
0.33860610 0.90933241 0.69735500
0.42762375 0.91522332 0.70324591
0.51573234 0.92105408 0.70907667
0.60325572 0.92684611 0.71486869
0.69034651 0.93260951 0.72063209
0.77709410 0.93835020 0.72637278
0.86355734 0.94407207 0.73209465
0.94977788 0.94977788 0.73780046
0.09267378 0.09267378 0.61928535
0.18416145 0.09872816 0.62533972
0.27317910 0.10461907 0.63123063
0.36128769 0.11044983 0.63706139
0.44881107 0.11624186 0.64285342
0.53590186 0.12200526 0.64861682
0.62264945 0.12774595 0.65435751
0.70911269 0.13346782 0.66007938
0.79533323 0.13917363 0.66578519
0.11304108 0.19847438 0.63965264
0.20452875 0.20452875 0.64570702
0.29354640 0.21041966 0.65159793
0.38165498 0.21625042 0.65742869
0.46917836 0.22204245 0.66322072
0.55626915 0.22780585 0.66898412
0.64301675 0.23354654 0.67472481
0.72947998 0.23926841 0.68044668
0.81570053 0.24497422 0.68615249
0.13285850 0.30141852 0.65947006
0.22434616 0.30747290 0.66552443
0.31336381 0.31336381 0.67141535
0.40147240 0.31919457 0.67724610
0.48899578 0.32498659 0.68303813
0.57608657 0.33075000 0.68880153
0.66283416 0.33649068 0.69454222
0.74929740 0.34221256 0.70026409
0.83551794 0.34791837 0.70596990
0.15247353 0.40331139 0.67908509
0.24396120 0.40936576 0.68513947
0.33297885 0.41525668 0.69103038
0.42108743 0.42108743 0.69686114
0.50861081 0.42687946 0.70265316
0.59570160 0.43264286 0.70841656
0.68244920 0.43838355 0.71415725
0.76891243 0.44410542 0.71987913
0.85513297 0.44981123 0.72558494
0.17195829 0.50452750 0.69856985
0.26344595 0.51058187 0.70462422
0.35246360 0.51647278 0.71051514
0.44057219 0.52230354 0.71634589
0.52809557 0.52809557 0.72213792
0.61518636 0.53385897 0.72790132
0.70193395 0.53959966 0.73364201
0.78839719 0.54532153 0.73936388
0.87461773 0.55102734 0.74506969
0.19134674 0.60524333 0.71795830
0.28283440 0.61129771 0.72401267
0.37185205 0.61718862 0.72990358
0.45996064 0.62301938 0.73573434
0.54748402 0.62881141 0.74152637
0.63457481 0.63457481 0.74728977
0.72132240 0.64031550 0.75303046
0.80778564 0.64603737 0.75875233
0.89400618 0.65174318 0.76445814
0.21065878 0.70556229 0.73727034
0.30214645 0.71161666 0.74332472
0.39116410 0.71750758 0.74921563
0.47927268 0.72333833 0.75504639
0.56679606 0.72913036 0.76083842
0.65388685 0.73489376 0.76660182
0.74063445 0.74063445 0.77234251
0.82709768 0.74635632 0.77806438
0.91331823 0.75206213 0.78377019
0.22990752 0.80555239 0.75651909
0.32139519 0.81160676 0.76257346
0.41041284 0.81749768 0.76846437
0.49852142 0.82332843 0.77429513
0.58604481 0.82912046 0.78008716
0.67313559 0.83488386 0.78585056
0.75988319 0.84062455 0.79159125
0.84634642 0.84634642 0.79731312
0.93256697 0.85205223 0.80301893
0.24910224 0.90526184 0.77571380
0.34058990 0.91131621 0.78176817
0.42960755 0.91720712 0.78765908
0.51771614 0.92303788 0.79348984
0.60523952 0.92882991 0.79928187
0.69233031 0.93459331 0.80504527
0.77907790 0.94033400 0.81078596
0.86554114 0.94605587 0.81650783
0.95176168 0.95176168 0.82221364
0.09464519 0.09464519 0.70317102
0.18613285 0.10069956 0.70922539
0.27515050 0.10659048 0.71511631
0.36325909 0.11242123 0.72094706
0.45078247 0.11821326 0.72673909
0.53787326 0.12397666 0.73250249
0.62462086 0.12971735 0.73824318
0.71108409 0.13543922 0.74396505
0.79730463 0.14114503 0.74967086
0.11501249 0.20044578 0.72353832
0.20650015 0.20650015 0.72959269
0.29551780 0.21239107 0.73548360
0.38362639 0.21822182 0.74131436
0.47114977 0.22401385 0.74710639
0.55824056 0.22977725 0.75286979
0.64498815 0.23551794 0.75861048
0.73145139 0.24123981 0.76433235
0.81767193 0.24694562 0.77003816
0.13482990 0.30338993 0.74335573
0.22631757 0.30944430 0.74941010
0.31533521 0.31533521 0.75530102
0.40344380 0.32116597 0.76113177
0.49096718 0.32695800 0.76692380
0.57805797 0.33272140 0.77268720
0.66480557 0.33846209 0.77842789
0.75126880 0.34418396 0.78414976
0.83748934 0.34988977 0.78985557
0.15444493 0.40528279 0.76297077
0.24593260 0.41133717 0.76902514
0.33495025 0.41722808 0.77491605
0.42305883 0.42305883 0.78074681
0.51058222 0.42885086 0.78653884
0.59767300 0.43461426 0.79230224
0.68442060 0.44035495 0.79804293
0.77088384 0.44607682 0.80376480
0.85710438 0.45178263 0.80947061
0.17392969 0.50649890 0.78245552
0.26541736 0.51255327 0.78850989
0.35443500 0.51844419 0.79440081
0.44254359 0.52427494 0.80023156
0.53006697 0.53006697 0.80602359
0.61715776 0.53583037 0.81178699
0.70390536 0.54157106 0.81752768
0.79036859 0.54729293 0.82324955
0.87658913 0.55299874 0.82895536
0.19331814 0.60721474 0.80184397
0.28480580 0.61326911 0.80789834
0.37382345 0.61916002 0.81378926
0.46193204 0.62499078 0.81962001
0.54945542 0.63078281 0.82541204
0.63654621 0.63654621 0.83117544
0.72329381 0.64228690 0.83691613
0.80975704 0.64800877 0.84263800
0.89597758 0.65371458 0.84834381
0.21263019 0.70753369 0.82115602
0.30411785 0.71358806 0.82721039
0.39313550 0.71947898 0.83310130
0.48124409 0.72530973 0.83893206
0.56876747 0.73110176 0.84472409
0.65585826 0.73686516 0.85048749
0.74260585 0.74260585 0.85622818
0.82906909 0.74832772 0.86195005
0.91528963 0.75403353 0.86765586
0.23187893 0.80752380 0.84040476
0.32336659 0.81357817 0.84645913
0.41238424 0.81946908 0.85235005
0.50049283 0.82529984 0.85818080
0.58801621 0.83109187 0.86397283
0.67510700 0.83685527 0.86973623
0.76185459 0.84259596 0.87547692
0.84831783 0.84831783 0.88119879
0.93453837 0.85402364 0.88690460
0.25107364 0.90723324 0.85959947
0.34256130 0.91328761 0.86565384
0.43157895 0.91917853 0.87154476
0.51968754 0.92500928 0.87737551
0.60721092 0.93080131 0.88316754
0.69430171 0.93656471 0.88893094
0.78104931 0.94230540 0.89467163
0.86751254 0.94802727 0.90039350
0.95373308 0.95373308 0.90609931
0.09660600 0.09660600 0.78660600
0.18809367 0.10266037 0.79266037
0.27711131 0.10855129 0.79855129
0.36521990 0.11438204 0.80438204
0.45274328 0.12017407 0.81017407
0.53983407 0.12593747 0.81593747
0.62658167 0.13167816 0.82167816
0.71304490 0.13740003 0.82740003
0.79926544 0.14310584 0.83310584
0.11697330 0.20240659 0.80697330
0.20846096 0.20846096 0.81302767
0.29747861 0.21435188 0.81891858
0.38558720 0.22018263 0.82474934
0.47311058 0.22597466 0.83054137
0.56020137 0.23173806 0.83630477
0.64694896 0.23747875 0.84204546
0.73341220 0.24320062 0.84776733
0.81963274 0.24890643 0.85347314
0.13679071 0.30535074 0.82679071
0.22827838 0.31140511 0.83284508
0.31729603 0.31729603 0.83873600
0.40540461 0.32312678 0.84456675
0.49292799 0.32891881 0.85035878
0.58001878 0.33468221 0.85612218
0.66676638 0.34042290 0.86186287
0.75322961 0.34614477 0.86758474
0.83945015 0.35185058 0.87329055
0.15640575 0.40724360 0.84640575
0.24789341 0.41329798 0.85246012
0.33691106 0.41918889 0.85835103
0.42501965 0.42501965 0.86418179
0.51254303 0.43081167 0.86997382
0.59963382 0.43657508 0.87573722
0.68638141 0.44231576 0.88147791
0.77284465 0.44803764 0.88719978
0.85906519 0.45374345 0.89290559
0.17589050 0.50845971 0.86589050
0.26737817 0.51451409 0.87194487
0.35639582 0.52040500 0.87783579
0.44450440 0.52623576 0.88366654
0.53202778 0.53202778 0.88945857
0.61911857 0.53779118 0.89522197
0.70586617 0.54353187 0.90096266
0.79232940 0.54925374 0.90668453
0.87854994 0.55495956 0.91239034
0.19527895 0.60917555 0.88527895
0.28676662 0.61522992 0.89133332
0.37578427 0.62112084 0.89722424
0.46389285 0.62695159 0.90305499
0.55141623 0.63274362 0.90884702
0.63850702 0.63850702 0.91461042
0.72525462 0.64424771 0.92035111
0.81171785 0.64996958 0.92607298
0.89793839 0.65567539 0.93177879
0.21459100 0.70949450 0.90459100
0.30607866 0.71554888 0.91064537
0.39509631 0.72143979 0.91653628
0.48320490 0.72727055 0.92236704
0.57072828 0.73306257 0.92815907
0.65781907 0.73882597 0.93392247
0.74456666 0.74456666 0.93966316
0.83102990 0.75028853 0.94538503
0.91725044 0.75599435 0.95109084
0.23383974 0.80948461 0.92383974
0.32532740 0.81553898 0.92989411
0.41434505 0.82142989 0.93578503
0.50245364 0.82726065 0.94161578
0.58997702 0.83305268 0.94740781
0.67706781 0.83881608 0.95317121
0.76381541 0.84455677 0.95891190
0.85027864 0.85027864 0.96463377
0.93649918 0.85598445 0.97033958
0.25303445 0.90919405 0.94303445
0.34452212 0.91524842 0.94908882
0.43353977 0.92113934 0.95497974
0.52164835 0.92697009 0.96081049
0.60917173 0.93276212 0.96660252
0.69626252 0.93852552 0.97236592
0.78301012 0.94426621 0.97810661
0.86947335 0.94998808 0.98382848
0.95569389 0.95569389 0.98953429
