luts/cubes/moody_dark.cube
TITLE "moody_dark"
LUT_3D_SIZE 33
DOMAIN_MIN 0.0 0.0 0.0
DOMAIN_MAX 1.0 1.0 1.0
0.16618544 0.17535970 0.19742238
0.16618544 0.17535970 0.19742238
0.16785029 0.17537885 0.19741891
0.17432162 0.17545217 0.19740615
0.18153431 0.17553195 0.19739320
0.18930071 0.17561573 0.19738063
0.19756560 0.17570266 0.19736866
0.20630600 0.17579232 0.19735742
0.21551160 0.17588443 0.19734702
0.22517785 0.17597882 0.19733752
0.23530291 0.17607537 0.19732897
0.24588604 0.17617398 0.19732144
0.25692654 0.17627459 0.19731494
0.26842311 0.17637714 0.19730954
0.28037334 0.17648160 0.19730524
0.29277336 0.17658791 0.19730209
0.30561743 0.17669607 0.19730010
0.31889776 0.17680604 0.19729930
0.33260425 0.17691782 0.19729972
0.34672430 0.17703138 0.19730137
0.36124272 0.17714671 0.19730426
0.37614149 0.17726380 0.19730843
0.39139984 0.17738266 0.19731388
0.40699413 0.17750326 0.19732063
0.42289789 0.17762561 0.19732870
0.43908193 0.17774970 0.19733809
0.45551441 0.17787552 0.19734883
0.47216099 0.17800309 0.19736093
0.48898519 0.17813240 0.19737439
0.50594844 0.17826344 0.19738924
0.52301055 0.17839621 0.19740547
0.54012998 0.17853073 0.19742311
0.55726424 0.17866699 0.19744217
0.16628264 0.17675079 0.19741328
0.16628264 0.17675079 0.19741328
0.16794993 0.17677065 0.19740994
0.17443083 0.17684672 0.19739768
0.18165431 0.17692946 0.19738527
0.18943246 0.17701633 0.19737326
0.19770997 0.17710644 0.19736187
0.20646384 0.17719935 0.19735122
0.21568373 0.17729477 0.19734142
0.22536506 0.17739253 0.19733252
0.23550598 0.17749250 0.19732459
0.24610572 0.17759457 0.19731768
0.25716354 0.17769869 0.19731181
0.26867812 0.17780478 0.19730703
0.28064697 0.17791281 0.19730338
0.29306617 0.17802274 0.19730086
0.30592992 0.17813455 0.19729952
0.31923036 0.17824820 0.19729937
0.33295728 0.17836369 0.19730044
0.34709798 0.17848099 0.19730275
0.36163715 0.17860009 0.19730630
0.37655668 0.17872099 0.19731113
0.39183565 0.17884367 0.19731725
0.40745028 0.17896813 0.19732467
0.42337397 0.17909436 0.19733341
0.43957738 0.17922235 0.19734348
0.45602851 0.17935212 0.19735489
0.47269287 0.17948364 0.19736767
0.48953385 0.17961693 0.19738181
0.50651273 0.17975199 0.19739734
0.52358918 0.17988880 0.19741427
0.54072153 0.18002738 0.19743260
0.55786718 0.18016772 0.19745234
0.16683614 0.18479521 0.19736857
0.16683614 0.18479521 0.19736857
0.16851725 0.18481927 0.19736598
0.17505228 0.18491135 0.19735654
0.18233681 0.18501137 0.19734718
0.19018141 0.18511624 0.19733833
0.19853035 0.18522489 0.19733018
0.20736040 0.18533677 0.19732285
0.21666109 0.18545152 0.19731642
0.22642772 0.18556893 0.19731093
0.23665832 0.18568883 0.19730646
0.24735194 0.18581110 0.19730304
0.25850767 0.18593565 0.19730070
0.27012394 0.18606241 0.19729947
0.28219798 0.18619133 0.19729940
0.29472553 0.18632235 0.19730049
0.30770038 0.18645544 0.19730278
0.32111422 0.18659057 0.19730629
0.33495633 0.18672771 0.19731103
0.34921342 0.18686684 0.19731702
0.36386956 0.18700794 0.19732429
0.37890594 0.18715101 0.19733285
0.39430089 0.18729602 0.19734272
0.41002988 0.18744297 0.19735390
0.42606549 0.18759185 0.19736642
0.44237753 0.18774265 0.19738029
0.45893317 0.18789537 0.19739551
0.47569707 0.18805000 0.19741211
0.49263179 0.18820655 0.19743009
0.50969781 0.18836500 0.19744948
0.52685404 0.18852535 0.19747026
0.54405810 0.18868761 0.19749247
0.56126676 0.18885178 0.19751611
0.16743078 0.19366938 0.19733349
0.16743078 0.19366938 0.19733349
0.16912658 0.19369814 0.19733167
0.17571914 0.19380812 0.19732520
0.18306854 0.19392747 0.19731904
0.19098375 0.19405249 0.19731352
0.19940856 0.19418188 0.19730879
0.20831953 0.19431497 0.19730495
0.21770602 0.19445135 0.19730205
0.22756321 0.19459073 0.19730017
0.23788897 0.19473293 0.19729933
0.24868219 0.19487779 0.19729958
0.25994175 0.19502521 0.19730095
0.27166580 0.19517509 0.19730347
0.28385128 0.19532737 0.19730716
0.29649354 0.19548197 0.19731205
0.30958596 0.19563887 0.19731816
0.32311970 0.19579802 0.19732551
0.33708350 0.19595938 0.19733412
0.35146345 0.19612293 0.19734401
0.36624291 0.19628865 0.19735518
0.38140235 0.19645651 0.19736767
0.39691931 0.19662650 0.19738148
0.41276842 0.19679861 0.19739663
0.42892138 0.19697282 0.19741313
0.44534713 0.19714913 0.19743099
0.46201194 0.19732752 0.19745023
0.47887956 0.19750799 0.19747085
0.49591168 0.19769054 0.19749288
0.51306794 0.19787516 0.19751631
0.53030644 0.19806184 0.19754117
0.54758408 0.19825059 0.19756746
0.56485698 0.19844140 0.19759520
0.16805335 0.20321480 0.19731025
0.16805335 0.20321480 0.19731025
0.16976436 0.20324868 0.19730923
0.17641650 0.20337816 0.19730581
0.18383306 0.20351857 0.19730292
0.19182138 0.20366553 0.19730081
0.20032473 0.20381751 0.19729959
0.20931944 0.20397371 0.19729931
0.21879470 0.20413364 0.19730005
0.22874555 0.20429696 0.19730185
0.23916971 0.20446345 0.19730474
0.25006588 0.20463292 0.19730876
0.26143271 0.20480524 0.19731393
0.27326807 0.20498030 0.19732028
0.28556856 0.20515801 0.19732784
0.29832914 0.20533831 0.19733662
0.31154273 0.20552114 0.19734665
0.32519997 0.20570644 0.19735794
0.33928899 0.20589418 0.19737052
0.35379523 0.20608432 0.19738439
0.36870134 0.20627683 0.19739958
0.38398700 0.20647170 0.19741609
0.39962893 0.20666889 0.19743395
0.41560088 0.20686839 0.19745316
0.43187365 0.20707018 0.19747374
0.44841527 0.20727426 0.19749570
0.46519105 0.20748060 0.19751906
0.48216384 0.20768921 0.19754381
0.49929442 0.20790007 0.19756999
0.51654156 0.20811317 0.19759758
0.53386256 0.20832852 0.19762662
0.55121357 0.20854610 0.19765710
0.56855004 0.20876591 0.19768904
0.16870000 0.21340103 0.19729982
0.16870000 0.21340103 0.19729982
0.17042664 0.21344043 0.19729962
0.17714000 0.21359094 0.19729929
0.18462557 0.21375407 0.19729974
0.19268898 0.21392470 0.19730110
0.20127299 0.21410104 0.19730343
0.21035367 0.21428217 0.19730679
0.21992006 0.21446750 0.19731122
0.22996703 0.21465664 0.19731677
0.24049212 0.21484932 0.19732345
0.25149386 0.21504533 0.19733130
0.26297063 0.21524450 0.19734034
0.27492001 0.21544672 0.19735059
0.28733826 0.21565187 0.19736208
0.30021990 0.21585987 0.19737482
0.31355738 0.21607065 0.19738884
0.32734077 0.21628416 0.19740414
0.34155760 0.21650034 0.19742075
0.35619261 0.21671915 0.19743868
0.37122771 0.21694056 0.19745794
0.38664176 0.21716453 0.19747856
0.40241061 0.21739104 0.19750053
0.41850713 0.21762007 0.19752388
0.43490118 0.21785160 0.19754861
0.45155983 0.21808561 0.19757475
0.46844744 0.21832208 0.19760229
0.48552592 0.21856100 0.19763125
0.50275512 0.21880237 0.19766164
0.52009294 0.21904618 0.19769348
0.53749585 0.21929241 0.19772676
0.55491927 0.21954106 0.19776151
0.57231800 0.21979213 0.19779773
0.16936896 0.22422407 0.19730283
0.16936896 0.22422407 0.19730283
0.17111161 0.22426938 0.19730345
0.17788762 0.22444244 0.19730626
0.18544381 0.22462991 0.19731009
0.19358405 0.22482591 0.19731496
0.20225057 0.22502837 0.19732089
0.21141918 0.22523621 0.19732794
0.22107873 0.22544876 0.19733611
0.23122394 0.22566557 0.19734545
0.24185218 0.22588632 0.19735597
0.25296172 0.22611076 0.19736770
0.26455072 0.22633871 0.19738066
0.27661644 0.22657002 0.19739486
0.28915476 0.22680456 0.19741034
0.30215976 0.22704224 0.19742709
0.31562338 0.22728297 0.19744515
0.32953512 0.22752669 0.19746451
0.34388185 0.22777333 0.19748521
0.35864761 0.22802285 0.19750725
0.37381350 0.22827520 0.19753065
0.38935757 0.22853035 0.19755542
0.40525479 0.22878826 0.19758156
0.42147706 0.22904891 0.19760910
0.43799331 0.22931227 0.19763805
0.45476962 0.22957833 0.19766841
0.47176939 0.22984706 0.19770020
0.48895355 0.23011844 0.19773342
0.50628103 0.23039247 0.19776810
0.52370884 0.23066914 0.19780422
0.54119263 0.23094842 0.19784182
0.55868708 0.23123033 0.19788089
0.57614634 0.23151484 0.19792145
0.17005928 0.23568917 0.19731975
0.17005928 0.23568917 0.19731975
0.17181826 0.23574079 0.19732120
0.17865825 0.23593789 0.19732717
0.18628653 0.23615132 0.19733441
0.19450520 0.23637436 0.19734283
0.20325593 0.23660466 0.19735241
0.21251426 0.23684097 0.19736317
0.22226884 0.23708254 0.19737513
0.23251422 0.23732884 0.19738830
0.24324758 0.23757950 0.19740270
0.25446697 0.23783425 0.19741836
0.26617025 0.23809287 0.19743528
0.27835438 0.23835517 0.19745348
0.29101482 0.23862103 0.19747297
0.30414521 0.23889033 0.19749378
0.31773694 0.23916297 0.19751592
0.33177891 0.23943887 0.19753940
0.34625733 0.23971796 0.19756423
0.36115548 0.24000019 0.19759043
0.37645366 0.24028549 0.19761801
0.39212905 0.24057384 0.19764697
0.40815570 0.24086519 0.19767734
0.42450456 0.24115951 0.19770912
0.44114358 0.24145677 0.19774233
0.45803783 0.24175694 0.19777696
0.47514973 0.24206001 0.19781305
0.49243922 0.24236594 0.19785058
0.50986429 0.24267474 0.19788958
0.52738106 0.24298638 0.19793006
0.54494437 0.24330084 0.19797201
0.56250816 0.24361812 0.19801546
0.58002593 0.24393821 0.19806041
0.17077039 0.24780500 0.19735093
0.17077039 0.24780500 0.19735093
0.17254603 0.24786331 0.19735322
0.17945125 0.24808591 0.19736239
0.18715302 0.24832688 0.19737307
0.19545162 0.24857862 0.19738507
0.20428816 0.24883844 0.19739833
0.21363788 0.24910496 0.19741284
0.22348924 0.24937730 0.19742861
0.23383660 0.24965488 0.19744565
0.24467693 0.24993727 0.19746397
0.25600805 0.25022415 0.19748359
0.26782752 0.25051527 0.19750450
0.28013196 0.25081044 0.19752673
0.29291640 0.25110950 0.19755030
0.30617401 0.25141232 0.19757520
0.31989563 0.25171877 0.19760146
0.33406952 0.25202878 0.19762909
0.34868119 0.25234226 0.19765809
0.36371315 0.25265915 0.19768848
0.37914487 0.25297937 0.19772028
0.39495263 0.25330289 0.19775349
0.41110953 0.25362966 0.19778812
0.42758556 0.25395964 0.19782418
0.44434765 0.25429280 0.19786168
0.46135985 0.25462910 0.19790064
0.47858357 0.25496853 0.19794106
0.49597777 0.25531104 0.19798295
0.51349948 0.25565664 0.19802632
0.53110394 0.25600529 0.19807118
0.54874516 0.25635699 0.19811754
0.56637635 0.25671172 0.19816541
0.58395042 0.25706946 0.19821480
0.17150198 0.26058083 0.19739669
0.17150198 0.26058083 0.19739669
0.17329459 0.26064621 0.19739982
0.18026624 0.26089574 0.19741221
0.18804285 0.26116578 0.19742636
0.19642282 0.26144781 0.19744197
0.20534669 0.26173880 0.19745893
0.21478940 0.26203720 0.19747723
0.22473921 0.26234202 0.19749685
0.23519027 0.26265260 0.19751779
0.24613933 0.26296846 0.19754006
0.25758396 0.26328924 0.19756366
0.26952142 0.26361466 0.19758861
0.28194794 0.26394451 0.19761490
0.29485814 0.26427858 0.19764256
0.30824467 0.26461674 0.19767160
0.32209780 0.26495886 0.19770201
0.33640514 0.26530483 0.19773382
0.35115145 0.26565456 0.19776703
0.36631847 0.26600798 0.19780166
0.38188479 0.26636501 0.19783771
0.39782578 0.26672560 0.19787520
0.41411356 0.26708969 0.19791412
0.43071712 0.26745724 0.19795451
0.44760236 0.26782822 0.19799635
0.46473231 0.26820258 0.19803966
0.48206733 0.26858029 0.19808446
0.49956540 0.26896133 0.19813074
0.51718258 0.26934568 0.19817853
0.53487324 0.26973330 0.19822782
0.55259055 0.27012419 0.19827862
0.57028704 0.27051833 0.19833095
0.58791499 0.27091569 0.19838481
0.17225388 0.27402492 0.19745728
0.17225388 0.27402492 0.19745728
0.17406376 0.27409772 0.19746127
0.18110300 0.27437555 0.19747690
0.18895575 0.27467613 0.19749455
0.19741850 0.27498996 0.19751378
0.20643118 0.27531370 0.19753448
0.21596844 0.27564557 0.19755659
0.22601830 0.27598449 0.19758008
0.23657471 0.27632972 0.19760496
0.24763419 0.27668072 0.19763120
0.25919403 0.27703709 0.19765883
0.27125119 0.27739851 0.19768783
0.28380148 0.27776473 0.19771822
0.29683910 0.27813554 0.19775001
0.31035615 0.27851078 0.19778320
0.32434230 0.27889031 0.19781781
0.33878448 0.27927400 0.19785383
0.35366671 0.27966174 0.19789129
0.36896988 0.28005346 0.19793018
0.38467172 0.28044908 0.19797052
0.40074663 0.28084852 0.19801232
0.41716575 0.28125173 0.19805558
0.43389704 0.28165866 0.19810031
0.45090534 0.28206925 0.19814653
0.46815264 0.28248348 0.19819424
0.48559826 0.28290130 0.19824344
0.50319916 0.28332269 0.19829416
0.52091047 0.28374760 0.19834639
0.53868564 0.28417603 0.19840014
0.55647707 0.28460794 0.19845543
0.57423657 0.28504332 0.19851225
0.59191583 0.28548214 0.19857063
0.17302602 0.28814337 0.19753295
0.17302602 0.28814337 0.19753295
0.17485346 0.28822393 0.19753780
0.18196144 0.28853132 0.19755669
0.18989161 0.28886382 0.19757786
0.19843850 0.28921089 0.19760075
0.20754144 0.28956882 0.19762521
0.21717476 0.28993566 0.19765115
0.22732624 0.29031020 0.19767855
0.23798961 0.29069161 0.19770738
0.24916114 0.29107930 0.19773763
0.26083785 0.29147282 0.19776930
0.27301634 0.29187181 0.19780239
0.28569203 0.29227599 0.19783691
0.29885863 0.29268515 0.19787286
0.31250771 0.29309907 0.19791024
0.32662829 0.29351762 0.19794906
0.34120661 0.29394064 0.19798933
0.35622591 0.29436804 0.19803106
0.37166622 0.29479969 0.19807425
0.38750436 0.29523553 0.19811891
0.40371375 0.29567546 0.19816505
0.42026452 0.29611944 0.19821267
0.43712357 0.29656738 0.19826179
0.45425469 0.29701926 0.19831241
0.47161878 0.29747501 0.19836455
0.48917413 0.29793459 0.19841820
0.50687668 0.29839798 0.19847338
0.52468060 0.29886513 0.19853009
0.54253845 0.29933601 0.19858834
0.56040185 0.29981061 0.19864814
0.57822190 0.30028889 0.19870950
0.59594977 0.30077084 0.19877243
0.17381839 0.30293912 0.19762391
0.17381839 0.30293912 0.19762391
0.17566368 0.30302775 0.19762962
0.18284154 0.30336587 0.19765180
0.19085038 0.30373153 0.19767651
0.19948276 0.30411314 0.19770308
0.20867739 0.30450660 0.19773132
0.21840824 0.30490976 0.19776112
0.22866287 0.30532128 0.19779244
0.23943477 0.30574026 0.19782525
0.25071995 0.30616604 0.19785954
0.26251513 0.30659811 0.19789528
0.27481654 0.30703609 0.19793249
0.28761919 0.30747967 0.19797116
0.30091629 0.30792859 0.19801129
0.31469883 0.30838265 0.19805289
0.32895517 0.30884165 0.19809596
0.34367084 0.30930547 0.19814051
0.35882826 0.30977395 0.19818653
0.37440659 0.31024700 0.19823405
0.39038169 0.31072451 0.19828306
0.40672600 0.31120639 0.19833357
0.42340860 0.31169259 0.19838559
0.44039532 0.31218301 0.19843913
0.45764886 0.31267762 0.19849419
0.47512905 0.31317635 0.19855078
0.49279310 0.31367915 0.19860891
0.51059595 0.31418599 0.19866858
0.52849080 0.31469682 0.19872981
0.54642935 0.31521162 0.19879260
0.56436242 0.31573035 0.19885695
0.58224047 0.31625299 0.19892288
0.60001410 0.31677950 0.19899038
0.17463103 0.31841121 0.19773036
0.17463103 0.31841121 0.19773036
0.17649446 0.31850817 0.19773694
0.18374331 0.31887804 0.19776242
0.19183207 0.31927795 0.19779068
0.20055128 0.31969522 0.19782096
0.20983900 0.32012537 0.19785300
0.21966886 0.32056602 0.19788669
0.23002815 0.32101572 0.19792196
0.24091012 0.32147347 0.19795878
0.25231051 0.32193854 0.19799712
0.26422572 0.32241039 0.19803697
0.27665160 0.32288859 0.19807831
0.28958272 0.32337278 0.19812116
0.30301176 0.32386270 0.19816551
0.31692912 0.32435811 0.19821135
0.33132250 0.32485881 0.19825869
0.34617664 0.32536464 0.19830754
0.36147315 0.32587545 0.19835790
0.37719026 0.32639111 0.19840977
0.39330290 0.32691152 0.19846316
0.40978245 0.32743659 0.19851807
0.42659694 0.32796622 0.19857452
0.44371110 0.32850035 0.19863250
0.46108654 0.32903890 0.19869203
0.47868198 0.32958182 0.19875311
0.49645358 0.33012905 0.19881575
0.51435524 0.33068055 0.19887995
0.53233922 0.33123627 0.19894572
0.55035634 0.33179617 0.19901307
0.56835666 0.33236022 0.19908201
0.58629000 0.33292838 0.19915254
0.60410644 0.33350063 0.19922466
0.17546402 0.33455395 0.19785248
0.17546402 0.33455395 0.19785248
0.17734588 0.33465946 0.19785993
0.18466684 0.33506191 0.19788873
0.19283676 0.33549698 0.19792058
0.20164412 0.33595085 0.19795458
0.21102631 0.33641862 0.19799045
0.22095663 0.33689773 0.19802804
0.23142208 0.33738658 0.19806729
0.24241564 0.33788408 0.19810813
0.25393277 0.33838942 0.19815055
0.26596954 0.33890202 0.19819452
0.27852139 0.33942141 0.19824004
0.29158245 0.33994721 0.19828709
0.30514483 0.34047910 0.19833567
0.31919833 0.34101684 0.19838578
0.33372993 0.34156021 0.19843743
0.34872361 0.34210903 0.19849061
0.36416008 0.34266312 0.19854532
0.38001668 0.34322237 0.19860157
0.39626731 0.34378664 0.19865937
0.41288232 0.34435583 0.19871872
0.42982864 0.34492985 0.19877962
0.44706991 0.34550861 0.19884208
0.46456660 0.34609204 0.19890610
0.48227632 0.34668007 0.19897170
0.50015417 0.34727264 0.19903888
0.51815303 0.34786969 0.19910764
0.53622419 0.34847119 0.19917799
0.55431763 0.34907707 0.19924994
0.57238265 0.34968731 0.19932348
0.59036845 0.35030187 0.19939864
0.60822463 0.35092071 0.19947542
0.17631748 0.35135635 0.19799044
0.17631748 0.35135635 0.19799044
0.17821806 0.35147058 0.19799877
0.18561224 0.35190625 0.19803091
0.19386455 0.35237715 0.19806636
0.20276137 0.35286829 0.19810411
0.21223944 0.35337440 0.19814382
0.22227164 0.35389267 0.19818534
0.23284472 0.35442137 0.19822858
0.24395137 0.35495932 0.19827348
0.25558676 0.35550565 0.19832001
0.26774659 0.35605970 0.19836813
0.28042590 0.35662098 0.19841783
0.29361831 0.35718907 0.19846911
0.30731540 0.35776363 0.19852196
0.32150629 0.35834438 0.19857637
0.33617725 0.35893109 0.19863234
0.35131144 0.35952355 0.19868987
0.36688869 0.36012159 0.19874897
0.38288538 0.36072506 0.19880963
0.39927437 0.36133382 0.19887187
0.41602496 0.36194776 0.19893567
0.43310296 0.36256678 0.19900105
0.45047087 0.36319077 0.19906802
0.46808804 0.36381967 0.19913657
0.48591096 0.36445338 0.19920672
0.50389364 0.36509186 0.19927846
0.52198793 0.36573502 0.19935181
0.54014421 0.36638283 0.19942677
0.55831159 0.36703523 0.19950334
0.57643865 0.36769217 0.19958154
0.59447398 0.36835361 0.19966136
0.61236673 0.36901951 0.19974282
0.17719155 0.36880140 0.19814442
0.17719155 0.36880140 0.19814442
0.17911112 0.36892445 0.19815362
0.18657963 0.36939373 0.19818912
0.19491557 0.36990085 0.19822819
0.20390318 0.37042970 0.19826970
0.21347848 0.37097455 0.19831329
0.22361400 0.37153239 0.19835876
0.23429617 0.37210134 0.19840602
0.24551741 0.37268014 0.19845499
0.25727254 0.37326784 0.19850564
0.26955691 0.37386373 0.19855794
0.28236512 0.37446727 0.19861186
0.29569029 0.37507801 0.19866739
0.30952339 0.37569558 0.19872453
0.32385289 0.37631968 0.19878326
0.33866428 0.37695005 0.19884358
0.35393990 0.37758647 0.19890550
0.36965867 0.37822875 0.19896901
0.38579596 0.37887672 0.19903411
0.40232361 0.37953025 0.19910080
0.41920979 0.38018919 0.19916909
0.43641921 0.38085344 0.19923899
0.45391320 0.38152289 0.19931049
0.47164995 0.38219745 0.19938360
0.48958486 0.38287704 0.19945832
0.50767082 0.38356158 0.19953466
0.52585869 0.38425101 0.19961263
0.54409789 0.38494526 0.19969222
0.56233671 0.38564428 0.19977346
0.58052303 0.38634801 0.19985633
0.59860485 0.38705642 0.19994085
0.61653091 0.38776944 0.20002702
0.17808637 0.38686562 0.19831456
0.17808637 0.38686562 0.19831456
0.18002523 0.38699752 0.19832465
0.18756919 0.38750050 0.19836353
0.19598997 0.38804396 0.19840623
0.20506968 0.38861059 0.19845153
0.21474360 0.38919427 0.19849901
0.22498386 0.38979175 0.19854845
0.23577658 0.39040103 0.19859975
0.24711387 0.39102072 0.19865282
0.25899023 0.39164982 0.19870762
0.27140059 0.39228756 0.19876412
0.28433912 0.39293337 0.19882228
0.29779840 0.39358674 0.19888209
0.31176879 0.39424729 0.19894353
0.32623805 0.39491468 0.19900661
0.34119091 0.39558865 0.19907132
0.35660883 0.39626894 0.19913764
0.37246977 0.39695535 0.19920558
0.38874812 0.39764771 0.19927515
0.40541461 0.39834584 0.19934633
0.42243632 0.39904962 0.19941914
0.43977678 0.39975891 0.19949357
0.45739617 0.40047361 0.19956964
0.47525152 0.40119361 0.19964733
0.49329708 0.40191882 0.19972666
0.51148467 0.40264916 0.19980763
0.52976412 0.40338456 0.19989024
0.54808394 0.40412493 0.19997451
0.56639159 0.40487024 0.20006043
0.58463426 0.40562040 0.20014801
0.60275943 0.40637537 0.20023725
0.62071544 0.40713511 0.20032817
0.17900212 0.40551857 0.19850102
0.17900212 0.40551857 0.19850102
0.18096056 0.40565927 0.19851200
0.18858107 0.40619575 0.19855427
0.19708795 0.40677532 0.19860064
0.20626106 0.40737948 0.19864974
0.21603497 0.40800171 0.19870113
0.22638139 0.40863854 0.19875457
0.23728611 0.40928781 0.19880993
0.24874092 0.40994805 0.19886712
0.26073995 0.41061818 0.19892610
0.27327775 0.41129740 0.19898681
0.28634800 0.41198505 0.19904924
0.29994272 0.41268063 0.19911335
0.31405162 0.41338370 0.19917914
0.32866177 0.41409391 0.19924659
0.34375707 0.41481097 0.19931569
0.35931807 0.41553461 0.19938645
0.37532180 0.41626461 0.19945886
0.39174156 0.41700077 0.19953292
0.40854701 0.41774292 0.19960862
0.42570407 0.41849091 0.19968597
0.44317512 0.41924460 0.19976497
0.46091913 0.42000386 0.19984562
0.47889196 0.42076860 0.19992793
0.49704673 0.42153871 0.20001189
0.51533417 0.42231409 0.20009752
0.53370310 0.42309466 0.20018481
0.55210111 0.42388036 0.20027377
0.57047486 0.42467110 0.20036441
0.58877091 0.42546683 0.20045673
0.60693619 0.42626748 0.20055073
0.62491870 0.42707300 0.20064642
0.17993898 0.42472258 0.19870395
0.17993898 0.42472258 0.19870395
0.18191728 0.42487194 0.19871583
0.18961548 0.42544138 0.19876151
0.19820968 0.42605644 0.19881156
0.20747751 0.42669751 0.19886449
0.21735279 0.42735761 0.19891981
0.22780678 0.42803307 0.19897726
0.23882494 0.42872160 0.19903671
0.25039872 0.42942163 0.19909805
0.26252188 0.43013201 0.19916122
0.27518854 0.43085186 0.19922618
0.28839187 0.43158052 0.19929289
0.30212332 0.43231742 0.19936133
0.31637195 0.43306210 0.19943148
0.33112405 0.43381420 0.19950333
0.34636270 0.43457337 0.19957686
0.36206754 0.43533936 0.19965208
0.37821456 0.43611192 0.19972898
0.39477603 0.43689082 0.19980756
0.41172047 0.43767590 0.19988780
0.42901264 0.43846699 0.19996972
0.44661370 0.43926392 0.20005332
0.46448144 0.44006659 0.20013859
0.48257055 0.44087485 0.20022554
0.50083297 0.44168861 0.20031417
0.51921837 0.44250776 0.20040448
0.53767455 0.44333221 0.20049648
0.55614821 0.44416188 0.20059017
0.57458525 0.44499670 0.20068556
0.59293157 0.44583659 0.20078264
0.61113363 0.44668148 0.20088144
0.62913911 0.44753132 0.20098194
0.18089716 0.44443262 0.19892350
0.18089716 0.44443262 0.19892350
0.18289562 0.44459041 0.19893628
0.19067261 0.44519190 0.19898539
0.19935538 0.44584147 0.19903914
0.20871926 0.44651838 0.19909591
0.21869727 0.44721527 0.19915519
0.22926025 0.44792823 0.19921668
0.24039329 0.44865484 0.19928023
0.25208748 0.44939344 0.19934574
0.26433620 0.45014280 0.19941313
0.27713312 0.45090202 0.19948236
0.29047088 0.45167035 0.19955338
0.30434033 0.45244721 0.19962617
0.31872985 0.45323211 0.19970071
0.33362494 0.45402466 0.19977698
0.34900781 0.45482450 0.19985498
0.36485715 0.45563134 0.19993469
0.38114794 0.45644492 0.20001610
0.39785133 0.45726501 0.20009922
0.41493471 0.45809141 0.20018404
0.43236162 0.45892395 0.20027056
0.45009204 0.45976247 0.20035877
0.46808252 0.46060682 0.20044869
0.48628657 0.46145687 0.20054031
0.50465499 0.46231250 0.20063364
0.52313634 0.46317361 0.20072866
0.54167745 0.46404009 0.20082540
0.56022412 0.46491185 0.20092385
0.57872151 0.46578882 0.20102402
0.59711490 0.46667091 0.20112591
0.61535033 0.46755805 0.20122952
0.63337518 0.46845017 0.20133486
0.18187687 0.46459621 0.19915981
0.18187687 0.46459621 0.19915981
0.18389577 0.46476208 0.19917349
0.19175269 0.46539434 0.19922606
0.20052528 0.46607703 0.19928352
0.20998651 0.46678830 0.19934416
0.22006863 0.46752043 0.19940741
0.23074202 0.46826930 0.19947296
0.24199137 0.46903236 0.19954065
0.25380742 0.46980784 0.19961035
0.26618312 0.47059447 0.19968199
0.27911168 0.47139126 0.19975550
0.29258520 0.47219746 0.19983086
0.30659389 0.47301243 0.19990803
0.32112542 0.47383566 0.19998699
0.33616448 0.47466672 0.20006771
0.35169239 0.47550525 0.20015018
0.36768686 0.47635093 0.20023441
0.38412181 0.47720348 0.20032036
0.40096726 0.47806266 0.20040805
0.41818943 0.47892826 0.20049747
0.43575065 0.47980009 0.20058862
0.45360966 0.48067797 0.20068149
0.47172180 0.48156176 0.20077608
0.49003936 0.48245130 0.20087240
0.50851199 0.48334648 0.20097045
0.52708718 0.48424718 0.20107023
0.54571078 0.48515328 0.20117173
0.56432772 0.48606469 0.20127497
0.58288242 0.48698132 0.20137995
0.60131960 0.48790308 0.20148667
