luts/cubes/moody_dark.cube
TITLE "moody_dark"
LUT_3D_SIZE 5
DOMAIN_MIN 0.0 0.0 0.0
DOMAIN_MAX 1.0 1.0 1.0
0.16618544 0.17535970 0.19742238
0.21551160 0.17588443 0.19734702
0.30561743 0.17669607 0.19730010
0.42289789 0.17762561 0.19732870
0.55726424 0.17866699 0.19744217
0.17077039 0.24780500 0.19735093
0.22348924 0.24937730 0.19742861
0.31989563 0.25171877 0.19760146
0.44434765 0.25429280 0.19786168
0.58395042 0.25706946 0.19821480
0.17719155 0.36880140 0.19814442
0.23429617 0.37210134 0.19840602
0.33866428 0.37695005 0.19884358
0.47164995 0.38219745 0.19938360
0.61653091 0.38776944 0.20002702
0.18494734 0.52717782 0.19997072
0.24696644 0.53217296 0.20042469
0.35998321 0.53942803 0.20113981
0.50101666 0.54685808 0.20320561
0.64519532 0.55357789 0.20917002
0.19742439 0.69129086 0.20906239
0.26534210 0.69456211 0.21293261
0.38430690 0.69919129 0.21855280
0.52477308 0.70398006 0.22454968
0.66424270 0.70883343 0.23082470
0.16680160 0.17568491 0.30462446
0.21660022 0.17623054 0.30570719
0.30759032 0.17707245 0.30734749
0.42589845 0.17803421 0.30918473
0.56105623 0.17910928 0.31120136
0.17148611 0.24878550 0.30971726
0.22471216 0.25038799 0.31101696
0.32205023 0.25277336 0.31297102
0.44753220 0.25539435 0.31514159
0.58782976 0.25822032 0.31750572
0.17803442 0.37086361 0.31706789
0.23569079 0.37420354 0.31863499
0.34104476 0.37910997 0.32097600
0.47504366 0.38441849 0.32355799
0.62047464 0.39005391 0.32635135
0.18593167 0.53030492 0.32611640
0.24855132 0.53533066 0.32796888
0.36260382 0.54262826 0.33072305
0.50377201 0.54956809 0.33648505
0.64743130 0.55625896 0.34388286
0.19962888 0.69334698 0.34375010
0.26789575 0.69659427 0.34850634
0.38713096 0.70118922 0.35535141
0.52744519 0.70594215 0.36257637
0.66635312 0.71075877 0.37005145
0.16739796 0.17600495 0.43230060
0.21764847 0.17657046 0.43485283
0.30948231 0.17744116 0.43861775
0.42876467 0.17843359 0.44271034
0.56466043 0.17954073 0.44707454
0.17217753 0.24973146 0.44387494
0.22588866 0.25136272 0.44668050
0.32411522 0.25378994 0.45080951
0.45057183 0.25645571 0.45528569
0.59151287 0.25932869 0.46004596
0.17884730 0.37283963 0.45917272
0.23703129 0.37621754 0.46228183
0.34332459 0.38117877 0.46684626
0.47827966 0.38654530 0.47178009
0.62421358 0.39224088 0.47701158
0.18687974 0.53328408 0.47657553
0.25007351 0.53833833 0.47999485
0.36513578 0.54560078 0.48512171
0.50637311 0.55212385 0.49235190
0.64953555 0.55878702 0.49976645
0.20172836 0.69528028 0.49963412
0.27032206 0.69850493 0.50435927
0.38980475 0.70306753 0.51110200
0.52996625 0.70778662 0.51814672
0.66833847 0.71256854 0.52535903
0.16799249 0.17632886 0.56793525
0.21868850 0.17691386 0.57174794
0.31135219 0.17781281 0.57730042
0.43158669 0.17883533 0.58324434
0.56819188 0.17997395 0.58948359
0.17286561 0.25067166 0.58491907
0.22705496 0.25233119 0.58892431
0.32615490 0.25479955 0.59474634
0.45356230 0.25750932 0.60096480
0.59511776 0.26042851 0.60747689
0.17965499 0.37479100 0.60628986
0.23835904 0.37820610 0.61050107
0.34557490 0.38322096 0.61660880
0.48146023 0.38864424 0.62311472
0.62786809 0.39439866 0.62990848
0.18782062 0.53620971 0.62934623
0.25158011 0.54129139 0.63373605
0.36774572 0.54811221 0.63977160
0.50890527 0.55460950 0.64569945
0.65157794 0.56124536 0.65172445
0.20378953 0.69715519 0.65161739
0.27269873 0.70035779 0.65542960
0.39241498 0.70488888 0.66083249
0.53241914 0.70957499 0.66643158
0.67026478 0.71432313 0.67211634
0.16858958 0.17665875 0.69351615
0.21972828 0.17726302 0.69788474
0.31321462 0.17818990 0.70417415
0.43438695 0.17924219 0.71081367
0.57167938 0.18041196 0.71768187
0.17355551 0.25161320 0.71266728
0.22822004 0.25330074 0.71707037
0.32818528 0.25580984 0.72339639
0.45652751 0.25856321 0.73005784
0.59867397 0.26152819 0.73693061
0.18046362 0.37673302 0.73568561
0.23968434 0.38018481 0.74008701
0.34781342 0.38525259 0.74639471
0.48461089 0.39073183 0.75301650
0.63146838 0.39654426 0.75982639
0.18876153 0.53910541 0.75926681
0.25308286 0.54421365 0.76361660
0.37031582 0.55057494 0.76782928
0.51139029 0.55704660 0.77185906
0.65357653 0.56365534 0.77593048
0.20582913 0.69898841 0.77585834
0.27504531 0.70216934 0.77842221
0.39498363 0.70666947 0.78203948
0.53482507 0.71132322 0.78576811
0.67214912 0.71603818 0.78953333
