luts/cubes/moody_dark.cube
TITLE "moody_dark"
LUT_3D_SIZE 9
DOMAIN_MIN 0.0 0.0 0.0
DOMAIN_MAX 1.0 1.0 1.0
0.16618544 0.17535970 0.19742238
0.18153431 0.17553195 0.19739320
0.21551160 0.17588443 0.19734702
0.25692654 0.17627459 0.19731494
0.30561743 0.17669607 0.19730010
0.36124272 0.17714671 0.19730426
0.42289789 0.17762561 0.19732870
0.48898519 0.17813240 0.19737439
0.55726424 0.17866699 0.19744217
0.16805335 0.20321480 0.19731025
0.18383306 0.20351857 0.19730292
0.21879470 0.20413364 0.19730005
0.26143271 0.20480524 0.19731393
0.31154273 0.20552114 0.19734665
0.36870134 0.20627683 0.19739958
0.43187365 0.20707018 0.19747374
0.49929442 0.20790007 0.19756999
0.56855004 0.20876591 0.19768904
0.17077039 0.24780500 0.19735093
0.18715302 0.24832688 0.19737307
0.22348924 0.24937730 0.19742861
0.26782752 0.25051527 0.19750450
0.31989563 0.25171877 0.19760146
0.37914487 0.25297937 0.19772028
0.44434765 0.25429280 0.19786168
0.51349948 0.25565664 0.19802632
0.58395042 0.25706946 0.19821480
0.17381839 0.30293912 0.19762391
0.19085038 0.30373153 0.19767651
0.22866287 0.30532128 0.19779244
0.27481654 0.30703609 0.19793249
0.32895517 0.30884165 0.19809596
0.39038169 0.31072451 0.19828306
0.45764886 0.31267762 0.19849419
0.52849080 0.31469682 0.19872981
0.60001410 0.31677950 0.19899038
0.17719155 0.36880140 0.19814442
0.19491557 0.36990085 0.19822819
0.23429617 0.37210134 0.19840602
0.28236512 0.37446727 0.19861186
0.33866428 0.37695005 0.19884358
0.40232361 0.37953025 0.19910080
0.47164995 0.38219745 0.19938360
0.54409789 0.38494526 0.19969222
0.61653091 0.38776944 0.20002702
0.18089716 0.44443262 0.19892350
0.19935538 0.44584147 0.19903914
0.24039329 0.44865484 0.19928023
0.29047088 0.45167035 0.19955338
0.34900781 0.45482450 0.19985498
0.41493471 0.45809141 0.20018404
0.48628657 0.46145687 0.20054031
0.56022412 0.46491185 0.20092385
0.63337518 0.46845017 0.20133486
0.18494734 0.52717782 0.19997072
0.20418249 0.52884732 0.20011892
0.24696644 0.53217296 0.20042469
0.29914181 0.53572547 0.20076668
0.35998321 0.53942803 0.20113981
0.42819384 0.54324873 0.20154246
0.50101666 0.54685808 0.20320561
0.57439363 0.55020464 0.20615647
0.64519532 0.55357789 0.20917002
0.18935684 0.61265780 0.20129517
0.20941263 0.61448421 0.20147665
0.25425198 0.61785488 0.20237996
0.30913495 0.62059987 0.20505914
0.37192189 0.62342250 0.20785265
0.44073884 0.62629538 0.21073667
0.51293894 0.62920275 0.21369796
0.58536106 0.63213423 0.21672797
0.65481915 0.63508238 0.21982075
0.19742439 0.69129086 0.20906239
0.21867487 0.69239204 0.21035600
0.26534210 0.69456211 0.21293261
0.32105054 0.69684646 0.21568469
0.38430690 0.69919129 0.21855280
0.45311341 0.70157356 0.22151238
0.52477308 0.70398006 0.22454968
0.59616860 0.70640208 0.22765586
0.66424270 0.70883343 0.23082470
0.16649914 0.17552456 0.24826266
0.18192143 0.17570038 0.24840715
0.21606657 0.17605997 0.24870746
0.25769039 0.17645772 0.24904639
0.30662424 0.17688709 0.24941927
0.36251308 0.17734587 0.24982477
0.42443065 0.17783311 0.25026247
0.49075088 0.17834842 0.25073237
0.55920370 0.17889171 0.25123462
0.16838836 0.20350558 0.24912342
0.18424383 0.20381353 0.24929405
0.21937838 0.20443694 0.24964629
0.26223077 0.20511745 0.25004047
0.31258866 0.20584263 0.25047073
0.37001353 0.20660791 0.25093522
0.43344694 0.20741111 0.25143327
0.50109386 0.20825107 0.25196469
0.57051053 0.20912721 0.25252953
0.17113496 0.24830461 0.25051479
0.18759664 0.24883165 0.25072100
0.22411282 0.24989234 0.25114392
0.26867301 0.25104129 0.25161334
0.32099534 0.25225625 0.25212175
0.38051381 0.25352868 0.25266665
0.44597472 0.25485428 0.25324699
0.51534191 0.25623058 0.25386235
0.58593511 0.25765614 0.25451264
0.17421453 0.30369774 0.25223007
0.19132912 0.30449631 0.25247343
0.22932909 0.30609833 0.25297016
0.27571246 0.30782624 0.25351820
0.33011153 0.30964546 0.25410832
0.39180937 0.31154240 0.25473733
0.45933000 0.31350997 0.25540379
0.53037414 0.31554397 0.25610705
0.60201841 0.31764173 0.25684685
0.17762107 0.36985401 0.25427537
0.19543149 0.37096031 0.25455714
0.23500747 0.37317441 0.25513023
0.28331406 0.37555482 0.25575964
0.33987950 0.37805264 0.25643438
0.40381112 0.38064831 0.25715053
0.47338432 0.38333131 0.25790626
0.54601887 0.38609523 0.25870067
0.61854926 0.38893576 0.25953336
0.18136188 0.44578149 0.25666022
0.19991051 0.44719706 0.25698158
0.24115201 0.45002371 0.25763343
0.29147521 0.45305327 0.25834680
0.35028371 0.45622191 0.25910889
0.41648251 0.45950360 0.25991502
0.48807249 0.46288403 0.26076299
0.56217857 0.46635415 0.26165163
0.63540130 0.46990769 0.26258037
0.18544911 0.52877629 0.25939522
0.20477888 0.53045110 0.25975737
0.24777493 0.53378715 0.26049035
0.30020377 0.53735051 0.26129025
0.36132127 0.54106409 0.26214241
0.42980183 0.54489585 0.26304138
0.50242835 0.54824688 0.26617164
0.57569647 0.55158616 0.26955290
0.64634181 0.55495192 0.27299610
0.18989759 0.61440657 0.26249163
0.21005243 0.61623553 0.26289579
0.25553746 0.61910667 0.26522382
0.31052089 0.62184346 0.26829664
0.37336765 0.62465758 0.27149213
0.44218863 0.62752169 0.27478219
0.51433023 0.63042010 0.27815097
0.58663569 0.63334245 0.28158816
0.65593363 0.63628134 0.28508645
0.19855135 0.69234536 0.27287329
0.21986650 0.69344242 0.27434844
0.26664833 0.69560433 0.27728121
0.32244791 0.69788006 0.28040579
0.38575272 0.70021598 0.28365349
0.45455145 0.70258914 0.28699559
0.52614231 0.70498639 0.29041589
0.59741408 0.70739905 0.29390381
0.66532491 0.70982093 0.29745182
0.16680160 0.17568491 0.30462446
0.18229425 0.17586415 0.30498206
0.21660022 0.17623054 0.30570719
0.25842405 0.17663553 0.30650043
0.30759032 0.17707245 0.30734749
0.36373089 0.17753900 0.30824310
0.42589845 0.17803421 0.30918473
0.49243972 0.17855767 0.31017105
0.56105623 0.17910928 0.31120136
0.16871121 0.20378652 0.30667746
0.18463929 0.20409848 0.30706575
0.21993951 0.20472986 0.30785189
0.26299718 0.20541888 0.30871013
0.31359213 0.20615294 0.30962476
0.37127125 0.20692739 0.31058994
0.43495330 0.20774000 0.31160282
0.50281462 0.20858961 0.31266185
0.57238270 0.20947560 0.31376621
0.17148611 0.24878550 0.30971726
0.18802356 0.24931747 0.31014747
0.22471216 0.25038799 0.31101696
0.26948479 0.25154745 0.31196403
0.32205023 0.25277336 0.31297102
0.38182566 0.25405712 0.31403130
0.44753220 0.25539435 0.31514159
0.51710329 0.25678258 0.31630007
0.58782976 0.25822032 0.31750572
0.17459591 0.30442646 0.31318327
0.19178967 0.30523092 0.31365741
0.22996925 0.30684466 0.31461425
0.27657251 0.30858510 0.31565441
0.33122056 0.31041737 0.31675824
0.39317724 0.31232778 0.31791825
0.46093884 0.31430918 0.31913071
0.53217409 0.31635732 0.32039353
0.60393111 0.31846952 0.32170546
0.17803442 0.37086361 0.31706789
0.19592764 0.37197645 0.31758757
0.23569079 0.37420354 0.31863499
0.28422483 0.37659779 0.31977172
0.34104476 0.37910997 0.32097600
0.40523600 0.38172039 0.32223949
0.47504366 0.38441849 0.32355799
0.54785420 0.38719776 0.32492909
0.62047464 0.39005391 0.32635135
0.18180895 0.44707341 0.32137600
0.20044422 0.44849538 0.32194271
0.24188075 0.45133469 0.32308366
0.29243898 0.45437762 0.32432012
0.35150691 0.45756004 0.32562816
0.41796480 0.46085578 0.32699855
0.48978068 0.46425046 0.32842659
0.56404526 0.46773496 0.32990957
0.63733335 0.47130297 0.33144584
0.18593167 0.53030492 0.32611640
0.20535213 0.53198476 0.32673156
0.24855132 0.53533066 0.32796888
0.30122266 0.53890427 0.32930810
0.36260382 0.54262826 0.33072305
0.43122009 0.54627041 0.33287912
0.50377201 0.54956809 0.33648505
0.57693548 0.55290038 0.34015571
0.64743130 0.55625896 0.34388286
0.19041750 0.61607604 0.33129963
0.21087519 0.61770843 0.33231379
0.25676532 0.62029659 0.33545422
0.31184353 0.62302555 0.33879315
0.37474608 0.62583153 0.34225619
0.44356959 0.62868728 0.34581199
0.51565428 0.63157714 0.34944276
0.58784772 0.63449078 0.35313680
0.65699260 0.63742082 0.35688574
0.19962888 0.69334698 0.34375010
0.22100540 0.69444012 0.34534377
0.26789575 0.69659427 0.34850634
0.32378118 0.69886178 0.35186726
0.38713096 0.70118922 0.35535141
0.45592100 0.70355372 0.35892712
0.52744519 0.70594215 0.36257637
0.59859823 0.70834589 0.36628731
0.66635312 0.71075877 0.37005145
0.16710048 0.17584468 0.36642344
0.18266227 0.17602727 0.36702275
0.21712622 0.17640031 0.36822903
0.25914640 0.17681241 0.36953578
0.30854064 0.17725671 0.37091761
0.36492771 0.17773088 0.37236468
0.42733948 0.17823390 0.37387191
0.49409585 0.17876536 0.37543635
0.56287048 0.17932511 0.37705617
0.16903010 0.20406469 0.36982570
0.18502953 0.20438057 0.37045949
0.22049249 0.20501977 0.37173428
0.26375168 0.20571715 0.37311398
0.31457910 0.20645991 0.37457160
0.37250712 0.20724335 0.37609662
0.43643195 0.20806519 0.37768362
0.50450173 0.20892425 0.37932939
0.57421576 0.20981991 0.38103193
0.17183279 0.24925996 0.37471831
0.18844469 0.24979677 0.37539911
0.22530264 0.25087692 0.37676729
0.27028381 0.25204668 0.37824645
0.32308759 0.25328334 0.37980737
0.38311449 0.25457821 0.38143865
0.44906070 0.25592685 0.38313435
0.51882975 0.25732677 0.38489094
0.58968424 0.25877647 0.38670620
0.17497226 0.30514402 0.38013491
0.19224382 0.30595425 0.38086479
0.23059982 0.30757950 0.38233051
0.27741888 0.30933222 0.38391349
0.33231097 0.31117729 0.38558226
0.39452083 0.31310090 0.38732446
0.46251736 0.31509585 0.38913361
0.53393784 0.31715785 0.39100584
0.60580261 0.31928419 0.39293867
0.17844217 0.37185633 0.38604845
0.19641675 0.37297557 0.38682898
0.23636373 0.37521539 0.38839534
0.28512096 0.37762317 0.39008545
0.34219025 0.38014941 0.39186547
0.40663529 0.38277428 0.39372205
0.47667130 0.38548713 0.39564816
0.54965207 0.38828144 0.39763958
0.62235788 0.39115285 0.39969356
0.18224979 0.44834200 0.39245441
0.20097021 0.44977021 0.39328692
0.24259827 0.45262186 0.39495653
0.29338708 0.45567784 0.39675651
0.35270914 0.45887371 0.39865060
0.41942015 0.46218316 0.40062444
0.49145578 0.46559174 0.40267041
0.56587325 0.46909026 0.40478393
0.63877994 0.47267528 0.40730881
0.18640737 0.53180370 0.39935506
0.20591693 0.53348842 0.40024070
0.24931561 0.53684386 0.40201582
0.30222482 0.54042742 0.40392806
0.36386412 0.54416150 0.40593865
0.43257831 0.54756600 0.40916975
0.50508347 0.55085700 0.41289337
0.57814380 0.55418242 0.41667321
0.64849305 0.55753395 0.42050037
0.19108824 0.61756745 0.40694742
0.21196616 0.61887558 0.40858503
0.25796782 0.62145653 0.41182995
0.31313774 0.62417783 0.41527137
0.37609368 0.62697585 0.41883139
0.44491845 0.62982341 0.42247700
0.51694641 0.63270490 0.42618932
0.58902959 0.63561002 0.42995589
0.65802451 0.63853139 0.43376776
0.20068518 0.69432267 0.42036424
0.22212145 0.69541199 0.42199752
0.26911719 0.69755856 0.42523285
0.32508556 0.69981804 0.42866261
0.38847812 0.70213720 0.43220897
0.45725847 0.70449323 0.43583892
0.52871647 0.70687307 0.43953357
0.59975279 0.70926810 0.44328044
0.66735497 0.71167219 0.44707056
0.16739796 0.17600495 0.43230060
0.18302819 0.17619084 0.43314998
0.21764847 0.17657046 0.43485283
0.25986285 0.17698957 0.43668780
0.30948231 0.17744116 0.43861775
0.36611256 0.17792285 0.44062789
0.42876467 0.17843359 0.44271034
0.49573190 0.17897293 0.44486028
0.56466043 0.17954073 0.44707454
0.16934737 0.20434208 0.43709358
0.18541742 0.20466184 0.43797906
0.22104142 0.20530876 0.43975353
0.26449989 0.20601438 0.44166456
0.31555698 0.20676574 0.44367331
0.37373047 0.20755806 0.44576427
0.43789412 0.20838903 0.44792915
0.50616807 0.20925743 0.45016286
0.57602385 0.21016262 0.45246202
0.17217753 0.24973146 0.44387494
0.18886312 0.25027304 0.44480923
0.22588866 0.25136272 0.44668050
0.27107603 0.25254266 0.44869432
0.32411522 0.25378994 0.45080951
0.38439002 0.25509578 0.45300958
0.45057183 0.25645571 0.45528569
0.52053450 0.25786718 0.45763236
0.59151287 0.25932869 0.46004596
0.17534634 0.30585577 0.45125210
0.19269491 0.30667171 0.45223682
0.23122548 0.30830831 0.45420805
0.27825790 0.31007316 0.45632794
0.33339096 0.31193087 0.45855290
0.39585029 0.31386752 0.46086544
0.46407756 0.31587585 0.46325612
0.53567891 0.31795154 0.46571907
0.60764741 0.32009184 0.46825036
0.17884730 0.37283963 0.45917272
0.19690243 0.37396518 0.46020881
0.23703129 0.37621754 0.46228183
0.28600916 0.37863867 0.46450966
0.34332459 0.38117877 0.46684626
0.40801959 0.38381788 0.46927309
0.47827966 0.38654530 0.47178009
0.55142627 0.38935442 0.47436100
0.62421358 0.39224088 0.47701158
0.18268767 0.44959686 0.46761722
0.20149236 0.45103121 0.46870524
0.24330992 0.45389500 0.47088110
0.29432663 0.45696381 0.47321790
0.35389944 0.46017289 0.47566711
0.42085958 0.46349582 0.47820912
0.49311059 0.46691805 0.48083324
0.56767659 0.47043034 0.48353281
0.63985150 0.47402912 0.48688315
0.18687974 0.53328408 0.47657553
0.20647749 0.53497356 0.47771573
0.25007351 0.53833833 0.47999485
0.30321776 0.54193161 0.48244096
0.36513578 0.54560078 0.48512171
0.43391509 0.54883945 0.48870792
0.50637311 0.55212385 0.49235190
0.57933106 0.55544247 0.49604109
0.64953555 0.55878702 0.49976645
0.19210465 0.61871735 0.48652851
0.21304337 0.62002191 0.48813482
0.25915424 0.62259577 0.49131221
0.31441357 0.62530950 0.49467401
0.37742096 0.62809967 0.49814310
0.44624579 0.63093916 0.50168660
0.51821686 0.63381240 0.50528567
0.59019072 0.63670911 0.50892786
0.65903761 0.63962195 0.51260420
0.20172836 0.69528028 0.49963412
0.22322322 0.69636582 0.50122106
0.27032206 0.69850493 0.50435927
0.32637118 0.70075653 0.50767836
0.38980475 0.70306753 0.51110200
0.45857441 0.70541524 0.51459768
0.52996625 0.70778662 0.51814672
0.60088695 0.71017309 0.52173680
0.66833847 0.71256854 0.52535903
0.16769509 0.17616625 0.50025094
0.18339330 0.17635541 0.50133334
0.21816885 0.17674154 0.50349719
0.26057600 0.17716758 0.50581997
0.31041881 0.17762641 0.50825323
0.36728984 0.17811555 0.51077731
0.43017936 0.17863393 0.51338146
0.49735406 0.17918109 0.51605891
0.56643288 0.17975687 0.51880500
0.16966414 0.20461964 0.50633240
0.18580435 0.20494325 0.50744907
0.22158829 0.20559782 0.50968067
0.26524456 0.20631162 0.51207504
0.31652936 0.20707151 0.51458208
0.37494584 0.20787263 0.51718141
0.43934528 0.20871264 0.51986184
0.50781993 0.20959030 0.52261631
0.57781386 0.21050497 0.52543995
0.17252156 0.25020169 0.51483318
0.18928037 0.25074802 0.51599546
0.22647235 0.25184714 0.51831716
0.27186436 0.25303717 0.52080666
0.32513690 0.25429499 0.52341164
0.38565700 0.25561171 0.52611073
0.45207124 0.25698282 0.52889219
0.52222400 0.25840575 0.53174855
0.59332266 0.25987898 0.53467465
0.17571950 0.30656431 0.52395546
0.19314458 0.30738590 0.52516388
0.23184851 0.30903376 0.52757665
0.27909266 0.31081063 0.53016221
0.33446452 0.31268086 0.53286594
0.39717059 0.31463044 0.53566550
0.46562531 0.31665204 0.53854854
0.53740391 0.31874129 0.54150719
0.60947259 0.32089543 0.54453598
0.17925129 0.37381713 0.53361734
0.19738643 0.37494894 0.53487167
0.23769591 0.37721372 0.53737495
0.28689269 0.37964806 0.54005582
0.34445197 0.38220187 0.54285740
0.40939405 0.38485508 0.54575634
0.47987477 0.38759689 0.54873969
0.55318357 0.39042068 0.55179917
0.62604891 0.39332202 0.55492898
0.18312418 0.45084267 0.54377953
0.20201259 0.45228309 0.54507900
0.24401831 0.45515885 0.54767121
0.29526108 0.45824032 0.55044557
0.35508224 0.46146244 0.55334296
0.42228849 0.46479866 0.55633902
0.49475134 0.46823435 0.55942019
0.56946219 0.47176022 0.56257778
0.64090769 0.47536597 0.56607454
0.18735048 0.53475164 0.55441493
0.20703585 0.53644581 0.55575838
0.25082779 0.53981973 0.55843705
0.30420514 0.54342253 0.56130216
0.36644667 0.54686352 0.56443535
0.43523567 0.55009583 0.56777064
0.50764602 0.55337367 0.57115160
0.58050199 0.55668554 0.57456629
0.65056300 0.56002316 0.57800613
0.19311230 0.61985102 0.56574467
0.21411090 0.62115204 0.56723818
0.26032912 0.62371887 0.57018778
0.31567594 0.62642512 0.57330190
0.37873309 0.62920752 0.57650822
0.44755683 0.63203902 0.57977587
0.51947066 0.63490409 0.58308710
0.59133575 0.63779249 0.58643020
0.66003601 0.64069689 0.58979673
0.20276236 0.69622367 0.57788408
0.22431489 0.69730549 0.57934700
0.27151500 0.69943724 0.58223552
0.32764300 0.70168104 0.58528418
0.39111601 0.70398400 0.58842208
0.45987399 0.70632349 0.59161892
0.53119948 0.70868652 0.59485732
0.60200527 0.71106454 0.59812576
0.66930761 0.71345145 0.60141600
0.16799249 0.17632886 0.56793525
0.18375839 0.17652127 0.56920861
0.21868850 0.17691386 0.57174794
0.26128740 0.17734680 0.57446458
0.31135219 0.17781281 0.57730042
0.36846215 0.17830935 0.58023147
0.43158669 0.17883533 0.58324434
0.49896596 0.17939025 0.58633041
0.56819188 0.17997395 0.58948359
0.16998107 0.20489795 0.57506263
0.18619113 0.20522537 0.57636432
0.22213428 0.20588754 0.57895932
0.26598731 0.20660947 0.58173428
0.31749838 0.20737783 0.58462964
0.37615593 0.20818770 0.58762077
0.44078867 0.20903670 0.59069390
0.50946105 0.20992357 0.59384010
0.57958990 0.21084764 0.59705309
0.17286561 0.25067166 0.58491907
0.18969731 0.25122269 0.58625742
0.22705496 0.25233119 0.58892431
0.27265052 0.25353126 0.59177443
0.32615490 0.25479955 0.59474634
0.38691824 0.25612709 0.59781456
0.45356230 0.25750932 0.60096480
0.52390206 0.25894364 0.60418777
0.59511776 0.26042851 0.60747689
0.17609252 0.30727117 0.59536544
0.19359379 0.30809837 0.59673950
0.23247026 0.30975742 0.59947631
0.27992497 0.31154623 0.60239933
0.33553402 0.31342890 0.60544527
0.39848464 0.31539132 0.60858781
0.46716407 0.31742610 0.61181213
0.53911674 0.31952882 0.61510858
0.61128234 0.32169671 0.61847028
0.17965499 0.37479100 0.60628986
0.19786980 0.37592900 0.60769789
0.23835904 0.37820610 0.61050107
0.28777348 0.38065354 0.61349307
0.34557490 0.38322096 0.61660880
0.41076174 0.38588814 0.61982113
0.48146023 0.38864424 0.62311472
0.55492795 0.39148256 0.62647956
0.62786809 0.39439866 0.62990848
0.18356023 0.45208221 0.61763190
0.20253200 0.45352862 0.61907162
0.24472497 0.45641623 0.62193654
0.29619248 0.45951021 0.62499245
0.35626014 0.46274522 0.62817256
0.42371004 0.46609458 0.63144894
0.49638172 0.46954357 0.63480576
0.57071241 0.47308644 0.63811629
0.64195111 0.47668901 0.64122061
0.18782062 0.53620971 0.62934623
0.20759322 0.53790848 0.63081492
0.25158011 0.54129139 0.63373605
0.30518915 0.54490355 0.63684984
0.36774572 0.54811221 0.63977160
0.43654318 0.55133819 0.64271841
0.50890527 0.55460950 0.64569945
0.58165945 0.55791464 0.64870402
0.65157794 0.56124536 0.65172445
0.19411347 0.62097122 0.64092913
0.21517119 0.62226873 0.64224837
0.26149516 0.62482858 0.64485026
0.31692777 0.62752741 0.64759221
0.38003315 0.63030210 0.65040995
0.44885470 0.63312567 0.65327597
0.52071082 0.63598265 0.65617450
0.59246748 0.63886281 0.65909510
0.66102216 0.64175883 0.66203032
0.20378953 0.69715519 0.65161739
0.22539895 0.69823333 0.65290014
0.27269873 0.70035779 0.65542960
0.32890398 0.70259388 0.65809457
0.39241498 0.70488888 0.66083249
0.46116031 0.70722023 0.66361662
0.53241914 0.70957499 0.66643158
0.60311048 0.71194465 0.66926723
0.67026478 0.71432313 0.67211634
0.16829056 0.17649298 0.63302304
0.18412396 0.17668862 0.63442640
0.21920813 0.17708764 0.63721837
0.26199809 0.17752744 0.64019564
0.31228381 0.17800059 0.64329299
0.36963121 0.17850449 0.64648313
0.43298873 0.17903802 0.64975058
0.50057001 0.17960066 0.65308516
0.56994009 0.18019224 0.65647957
0.17029859 0.20517735 0.64084973
0.18657831 0.20550857 0.64227176
0.22268016 0.20617831 0.64509993
0.26672920 0.20690832 0.64811441
0.31846545 0.20768512 0.65124895
0.37736249 0.20850370 0.65447578
0.44222641 0.20936164 0.65777909
0.51109386 0.21025767 0.66114852
0.58135464 0.21119111 0.66457657
0.17321014 0.25114201 0.65156169
0.19011454 0.25169773 0.65300642
0.22763732 0.25281557 0.65587843
0.27343564 0.25402563 0.65893770
0.32717067 0.25530433 0.66211673
0.38817558 0.25664264 0.66538711
0.45504721 0.25803594 0.66873268
0.52557119 0.25948161 0.67214275
0.59690088 0.26097807 0.67560963
0.17646593 0.30797735 0.66277758
0.19404316 0.30881015 0.66424256
0.23309162 0.31048032 0.66715343
0.28075604 0.31228101 0.67025207
0.33660101 0.31417607 0.67346979
0.39979438 0.31615126 0.67677761
0.46869612 0.31819914 0.68015899
0.54081998 0.32031527 0.68360301
0.61307944 0.32249684 0.68710173
0.18005896 0.37576263 0.67435998
0.19835322 0.37690679 0.67584211
0.23902162 0.37919612 0.67878559
0.28865281 0.38165659 0.68191682
0.34669499 0.38423752 0.68516606
0.41212466 0.38691858 0.68850383
0.48303838 0.38968886 0.69191325
0.55666204 0.39254162 0.69538313
0.62967392 0.39547237 0.69890537
0.18399645 0.45331729 0.68623044
0.20305134 0.45476964 0.68772616
0.24543092 0.45766899 0.69069512
0.29712219 0.46077536 0.69385125
0.35743486 0.46402314 0.69712394
0.42512633 0.46738550 0.70048324
0.49800416 0.47084766 0.70391199
0.57188298 0.47440182 0.70678183
0.64298348 0.47800036 0.70940018
0.18829081 0.53766045 0.69832876
0.20815038 0.53936375 0.69983416
0.25233154 0.54275551 0.70282079
0.30637142 0.54619166 0.70573375
0.36903496 0.54934886 0.70817858
0.43783968 0.55256854 0.71066185
0.51015288 0.55583333 0.71316975
0.58280533 0.55913177 0.71569320
0.65258205 0.56245562 0.71822568
0.19510968 0.62207980 0.70915452
0.21622584 0.62337382 0.71026603
0.26265412 0.62592674 0.71245577
0.31817100 0.62861819 0.71475992
0.38132317 0.63138522 0.71712406
0.45014144 0.63420093 0.71952489
0.52193936 0.63704986 0.72194906
0.59358776 0.63992183 0.72438777
0.66199770 0.64280954 0.72683473
0.20481142 0.69807640 0.71813599
0.22647705 0.69915088 0.71921028
0.27387508 0.70126812 0.72132645
0.33015606 0.70349656 0.72355277
0.39370370 0.70578367 0.72583663
0.46243541 0.70810696 0.72815551
0.53362720 0.71045354 0.73049649
0.60420438 0.71281491 0.73285106
0.67121157 0.71518502 0.73521315
0.16858958 0.17665875 0.69351615
0.18449036 0.17685761 0.69497974
0.21972828 0.17726302 0.69788474
0.26270877 0.17770965 0.70097259
0.31321462 0.17818990 0.70417415
0.37079823 0.17870114 0.70746011
0.43438695 0.17924219 0.71081367
0.50216790 0.17981253 0.71422363
0.57167938 0.18041196 0.71768187
0.17061701 0.20545811 0.70164960
0.18696627 0.20579312 0.70311977
0.22322648 0.20647040 0.70603679
0.26747099 0.20720847 0.70913590
0.31943157 0.20799366 0.71234747
0.37856679 0.20882092 0.71564197
0.44366001 0.20968778 0.71900239
0.51272010 0.21059294 0.72241742
0.58310998 0.21153570 0.72587884
0.17355551 0.25161320 0.71266728
0.19053247 0.25217359 0.71414326
0.22822004 0.25330074 0.71707037
0.27422052 0.25452075 0.72017812
0.32818528 0.25580984 0.72339639
0.38943034 0.25715888 0.72669536
0.45652751 0.25856321 0.73005784
0.52723316 0.26002018 0.73347238
0.59867397 0.26152819 0.73693061
0.17684010 0.30868358 0.72406398
0.19449315 0.30952194 0.72554216
0.23371322 0.31120319 0.72847216
0.28158673 0.31301572 0.73158082
0.33766659 0.31492310 0.73479767
0.40110118 0.31691102 0.73809269
0.47022307 0.31897195 0.74144852
0.54251545 0.32110143 0.74485361
0.61486583 0.32329661 0.74829949
0.18046362 0.37673302 0.73568561
0.19883718 0.37788332 0.73716203
0.23968434 0.38018481 0.74008701
0.28953159 0.38265823 0.74318811
0.34781342 0.38525259 0.74639471
0.41348424 0.38794745 0.74967665
0.48461089 0.39073183 0.75301650
0.55838770 0.39359894 0.75640259
0.63146838 0.39654426 0.75982639
0.18443328 0.45454920 0.74744261
0.20357113 0.45600744 0.74891308
0.24613688 0.45891843 0.75182468
0.29805116 0.46203709 0.75490932
0.35860763 0.46529752 0.75809642
0.42653885 0.46867276 0.76135580
0.49955475 0.47214909 0.76458792
0.57304323 0.47570705 0.76669968
0.64400605 0.47930153 0.76881655
0.18876153 0.53910541 0.75926681
0.20870791 0.54081317 0.76072698
0.25308286 0.54421365 0.76361660
0.30759688 0.54742381 0.76585153
0.37031582 0.55057494 0.76782928
0.43912667 0.55378831 0.76983554
0.51139029 0.55704660 0.77185906
0.58394098 0.56033835 0.77389246
0.65357653 0.56365534 0.77593048
0.19610197 0.62317808 0.76861807
0.21727596 0.62446863 0.76951592
0.26380727 0.62701466 0.77128325
0.31940699 0.62969877 0.77314073
0.38260460 0.63245819 0.77504427
0.45141853 0.63526607 0.77697499
0.52315769 0.63810700 0.77892205
0.59469791 0.64097083 0.78087836
0.66296380 0.64385028 0.78283885
0.20582913 0.69898841 0.77585834
0.22755034 0.70005927 0.77672212
0.27504531 0.70216934 0.77842221
0.33140064 0.70439019 0.78020880
0.39498363 0.70666947 0.78203948
0.46370075 0.70898476 0.78389605
0.53482507 0.71132322 0.78576811
0.60528828 0.71367637 0.78764883
0.67214912 0.71603818 0.78953333
