luts/cubes/romance.cube
TITLE "romance"
LUT_3D_SIZE 5
DOMAIN_MIN 0.0 0.0 0.0
DOMAIN_MAX 1.0 1.0 1.0
0.08222607 0.04444175 0.04444175
0.33437837 0.04472167 0.04472167
0.57796636 0.04510829 0.04510829
0.82072973 0.04560019 0.04560019
0.91477878 0.04581799 0.04581799
0.07743740 0.26320031 0.04557527
0.33790987 0.26621725 0.04623053
0.58936086 0.26919050 0.04697188
0.83980052 0.27220761 0.04781008
0.93678254 0.27339024 0.04816019
0.07370930 0.49636550 0.04776935
0.34250194 0.50211946 0.04879996
0.60181593 0.50767934 0.04989604
0.86068481 0.51777769 0.06454204
0.95819886 0.52177906 0.07062472
0.08620040 0.74404040 0.06381399
0.37073047 0.75239254 0.08102241
0.63301324 0.76013315 0.09713267
0.88286857 0.76754689 0.11271732
0.97671641 0.77034222 0.11863460
0.13330602 0.96895188 0.10860996
0.40817886 0.97412717 0.12538272
0.66133504 0.97886547 0.14108125
0.90228050 0.98334820 0.15626394
0.99272404 0.98502364 0.16202764
0.08169452 0.04450806 0.25613371
0.33468675 0.04482586 0.25881319
0.57906851 0.04524829 0.26146753
0.82260681 0.04577515 0.26417329
0.91695195 0.04600630 0.26523697
0.07701292 0.26404733 0.26404733
0.33832531 0.26710215 0.26710215
0.59057008 0.27011122 0.27011122
0.84178467 0.27316328 0.27316328
0.93906278 0.27435927 0.27435927
0.07339188 0.49799323 0.27302151
0.34302445 0.50378507 0.27645168
0.60450240 0.51049051 0.28199111
0.86298444 0.52101706 0.29524130
0.96012838 0.52500174 0.30026663
0.09137699 0.74643971 0.29463956
0.37485714 0.75474449 0.30884853
0.63614769 0.76244033 0.32212414
0.88503437 0.76981037 0.33494145
0.97851210 0.77258901 0.33980139
0.13835833 0.97044502 0.33156587
0.41218127 0.97557294 0.34533917
0.66434523 0.98026648 0.35820305
0.90432203 0.98470551 0.37061841
0.99439546 0.98636426 0.37532477
0.08117378 0.04458516 0.46918378
0.33500593 0.04494086 0.47426282
0.58018148 0.04539910 0.47918488
0.82449470 0.04596092 0.48410451
0.91913593 0.04620543 0.48601406
0.07659924 0.26490515 0.48387749
0.33875156 0.26799787 0.48933188
0.59179011 0.27104274 0.49460866
0.84377963 0.27412976 0.49987459
0.94135382 0.27533911 0.50191646
0.07308527 0.49963176 0.49963176
0.34355776 0.50546150 0.50546150
0.60775718 0.51376007 0.51376007
0.86527056 0.52424292 0.52424292
0.96204439 0.52821090 0.52821090
0.09654006 0.74882550 0.52376750
0.37897031 0.75708292 0.53497701
0.63926864 0.76473401 0.54541798
0.88718665 0.77206035 0.55546796
0.98029428 0.77482228 0.55927054
0.14339714 0.97192464 0.55282415
0.41617016 0.97700520 0.56359799
0.66734190 0.98165398 0.57362723
0.90635004 0.98604930 0.58327526
0.99605337 0.98769136 0.58692427
0.08066385 0.04467308 0.68359192
0.33533593 0.04506667 0.69107053
0.58130525 0.04556072 0.69826030
0.82639340 0.04615750 0.70539380
0.92133071 0.04641537 0.70814923
0.07619638 0.26577378 0.70506573
0.33918863 0.26890439 0.71291968
0.59302095 0.27198507 0.72046418
0.84578539 0.27510705 0.72794398
0.94365567 0.27632976 0.73083173
0.07278947 0.50128111 0.72760010
0.34410189 0.50714874 0.73582940
0.61099845 0.51701612 0.74383137
0.86754316 0.52745527 0.75154689
0.96394689 0.53140656 0.75445753
0.10168963 0.75119779 0.75119779
0.38306997 0.75940784 0.75940784
0.64237608 0.76701417 0.76701417
0.88932543 0.77429681 0.77429681
0.98206295 0.77704205 0.77704205
0.14842243 0.97339075 0.77238478
0.42014555 0.97842394 0.78015917
0.67032507 0.98302796 0.78735376
0.90836455 0.98737959 0.79423445
0.99769777 0.98900495 0.79682611
0.08020002 0.04476440 0.88389886
0.33565203 0.04519317 0.89360561
0.58235842 0.04572047 0.90290109
0.82816614 0.04634971 0.91209030
0.92337838 0.04661998 0.91563118
0.07583197 0.26659003 0.91166839
0.33960414 0.26975583 0.92175049
0.59417353 0.27286976 0.93140070
0.84765754 0.27602421 0.94093621
0.94580275 0.27725932 0.94460940
0.07252448 0.50282230 0.94049850
0.34578254 0.50922942 0.95052884
0.61399606 0.52002746 0.95594642
0.86964132 0.53042604 0.96109231
0.96570138 0.53436182 0.96302113
0.10645921 0.75338851 0.96086050
0.38686465 0.76155458 0.96628537
0.64524942 0.76911934 0.97125956
0.89129931 0.77636140 0.97597256
0.98369317 0.77909114 0.97773599
0.15307662 0.97474003 0.97474003
0.42382484 0.97972924 0.97972924
0.67308302 0.98429170 0.98429170
0.91022304 0.98860275 0.98860275
0.99921260 0.99021260 0.99021260
