luts/cubes/romance.cube
TITLE "romance"
LUT_3D_SIZE 9
DOMAIN_MIN 0.0 0.0 0.0
DOMAIN_MAX 1.0 1.0 1.0
0.08222607 0.04444175 0.04444175
0.21077387 0.04456866 0.04456866
0.33437837 0.04472167 0.04472167
0.45647048 0.04490164 0.04490164
0.57796636 0.04510829 0.04510829
0.69930174 0.04534125 0.04534125
0.82072973 0.04560019 0.04560019
0.91477878 0.04581799 0.04581799
0.91477878 0.04581799 0.04581799
0.07969916 0.15202020 0.04487594
0.21037964 0.15284868 0.04509906
0.33601155 0.15366863 0.04534353
0.46008459 0.15450026 0.04561287
0.58353104 0.15534857 0.04590751
0.70679445 0.15621577 0.04622745
0.83013255 0.15710307 0.04657256
0.92564809 0.15780328 0.04685652
0.92564809 0.15780328 0.04685652
0.07743740 0.26320031 0.04557527
0.21025057 0.26473036 0.04589460
0.33790987 0.26621725 0.04623053
0.46396384 0.26770053 0.04658924
0.58936086 0.26919050 0.04697188
0.71455229 0.27069196 0.04737880
0.83980052 0.27220761 0.04781008
0.93678254 0.27339024 0.04816019
0.93678254 0.27339024 0.04816019
0.07544078 0.37798206 0.04653974
0.21038663 0.38021369 0.04695528
0.34007333 0.38236751 0.04738268
0.46810824 0.38450244 0.04783075
0.59545583 0.38663408 0.04830139
0.72257528 0.38876978 0.04879528
0.84973363 0.39091379 0.04931273
0.94818214 0.39257884 0.04972901
0.94818214 0.39257884 0.04972901
0.07370930 0.49636550 0.04776935
0.21078783 0.49929869 0.04828110
0.34250194 0.50211946 0.04879996
0.47251778 0.50490604 0.04933740
0.60181593 0.50767934 0.04989604
0.73233015 0.51253488 0.05658831
0.86068481 0.51777769 0.06454204
0.95819886 0.52177906 0.07062472
0.95819886 0.52177906 0.07062472
0.07224296 0.61835060 0.04926411
0.21145418 0.62198536 0.04987207
0.35009225 0.62656410 0.05666235
0.48552598 0.63129741 0.06490995
0.61728939 0.63592136 0.07299432
0.74597540 0.64045599 0.08094938
0.87194241 0.64491335 0.08879540
0.96762335 0.64831170 0.09479538
0.96762335 0.64831170 0.09479538
0.08620040 0.74404040 0.06381399
0.23296474 0.74834290 0.07265670
0.37073047 0.75239254 0.08102241
0.50368804 0.75631128 0.08915830
0.63301324 0.76013315 0.09713267
0.75928921 0.76387498 0.10497901
0.88286857 0.76754689 0.11271732
0.97671641 0.77034222 0.11863460
0.97671641 0.77034222 0.11863460
0.11170731 0.86707746 0.08807723
0.25580579 0.87050300 0.09679967
0.39103727 0.87371897 0.10505106
0.52151867 0.87682314 0.11307523
0.64840566 0.87984293 0.12093961
0.77227161 0.88279195 0.12867723
0.89346331 0.88567841 0.13630782
0.98547805 0.88787072 0.14214241
0.98547805 0.88787072 0.14214241
0.13330602 0.96895188 0.10860996
0.27511954 0.97162575 0.11722933
0.40817886 0.97412717 0.12538272
0.53653789 0.97653315 0.13331114
0.66133504 0.97886547 0.14108125
0.78313530 0.98113496 0.14872567
0.90228050 0.98334820 0.15626394
0.99272404 0.98502364 0.16202764
0.99272404 0.98502364 0.16202764
0.08195894 0.04447355 0.15011797
0.21072204 0.04461017 0.15085995
0.33453120 0.04477241 0.15159767
0.45682329 0.04496141 0.15234895
0.57851609 0.04517694 0.15311815
0.70004610 0.04541868 0.15390716
0.82166692 0.04568632 0.15471698
0.91586402 0.04591079 0.15535772
0.91586402 0.04591079 0.15535772
0.07945880 0.15224718 0.15224718
0.21035458 0.15308537 0.15308537
0.33619115 0.15391455 0.15391455
0.46046417 0.15475520 0.15475520
0.58410753 0.15561240 0.15561240
0.70756557 0.15648838 0.15648838
0.83109651 0.15738438 0.15738438
0.92676009 0.15809127 0.15809127
0.92676009 0.15809127 0.15809127
0.07722381 0.26362247 0.15464154
0.21025227 0.26516223 0.15557594
0.33811624 0.26665835 0.15649658
0.46437019 0.26815065 0.15742659
0.58996412 0.26964951 0.15837179
0.71535019 0.27115974 0.15933475
0.84079124 0.27268409 0.16031692
0.93792131 0.27387341 0.16108997
0.93792131 0.27387341 0.16108997
0.07525395 0.37859940 0.15730103
0.21041510 0.38084073 0.15833164
0.34030647 0.38300379 0.15934375
0.46854136 0.38514774 0.16036313
0.59608585 0.38728826 0.16139632
0.72339994 0.38943275 0.16244626
0.85075112 0.39158545 0.16351460
0.94934767 0.39325719 0.16435381
0.94934767 0.39325719 0.16435381
0.07354924 0.49717801 0.16022567
0.21084307 0.50012092 0.16135249
0.34276184 0.50295091 0.16245606
0.47297766 0.50574652 0.16356481
0.60286995 0.50885066 0.16547002
0.73372269 0.51416713 0.17283874
0.86183631 0.51939906 0.18010388
0.95916531 0.52339209 0.18565788
0.95916531 0.52339209 0.18565788
0.07210967 0.61935829 0.16341544
0.21214659 0.62311396 0.16515724
0.35219073 0.62798574 0.17290640
0.48737450 0.63270776 0.18043985
0.61889177 0.63732061 0.18782103
0.74733448 0.64184427 0.19508103
0.87306045 0.64629076 0.20223845
0.96855634 0.64968076 0.20770976
0.96855634 0.64968076 0.20770976
0.08879038 0.74524174 0.17943898
0.23528560 0.74953210 0.18751285
0.37279549 0.75357020 0.19514767
0.50550309 0.75747766 0.20256942
0.63458215 0.76128843 0.20984061
0.76061484 0.76501928 0.21699189
0.88395316 0.76868032 0.22404159
0.97761594 0.77146730 0.22943020
0.97761594 0.77146730 0.22943020
0.11426383 0.86803483 0.20158344
0.25809319 0.87144823 0.20953704
0.39306884 0.87465266 0.21705754
0.52330027 0.87774555 0.22436758
0.64994112 0.88075424 0.23152877
0.77356377 0.88369228 0.23857132
0.89451444 0.88656787 0.24551331
0.98634412 0.88875183 0.25081922
0.98634412 0.88875183 0.25081922
0.13583386 0.96970014 0.22030012
0.27737827 0.97236187 0.22815064
0.41018175 0.97485174 0.23557315
0.53829081 0.97724645 0.24278744
0.66284182 0.97956766 0.24985435
0.78439879 0.98182617 0.25680372
0.90330295 0.98402854 0.26365338
0.99356144 0.98569564 0.26888841
0.99356144 0.98569564 0.26888841
0.08169452 0.04450806 0.25613371
0.21067291 0.04465438 0.25749076
0.33468675 0.04482586 0.25881319
0.45717881 0.04502388 0.26013578
0.57906851 0.04524829 0.26146753
0.70079317 0.04549881 0.26281259
0.82260681 0.04577515 0.26417329
0.91695195 0.04600630 0.26523697
0.91695195 0.04600630 0.26523697
0.07922115 0.15247686 0.25995795
0.21033222 0.15332476 0.26141121
0.33637346 0.15416318 0.26282510
0.46084645 0.15501285 0.26423706
0.58468673 0.15587893 0.26565680
0.70833940 0.15676369 0.26708884
0.83206317 0.15766839 0.26853572
0.92787479 0.15838196 0.26966555
0.92787479 0.15838196 0.26966555
0.07701292 0.26404733 0.26404733
0.21025668 0.26559680 0.26559680
0.33832531 0.26710215 0.26710215
0.46477924 0.26860348 0.26860348
0.59057008 0.27011122 0.27011122
0.71615078 0.27163023 0.27163023
0.84178467 0.27316328 0.27316328
0.93906278 0.27435927 0.27435927
0.93906278 0.27435927 0.27435927
0.07506983 0.37921944 0.26840184
0.21044627 0.38147048 0.27004753
0.34054231 0.38364277 0.27164434
0.46897717 0.38579575 0.27323503
0.59671858 0.38794515 0.27483077
0.72422730 0.39009841 0.27643677
0.85177131 0.39225982 0.27805599
0.95043938 0.39445497 0.28000210
0.95043938 0.39445497 0.28000210
0.07339188 0.49799323 0.27302151
0.21090101 0.50094585 0.27476340
0.34302445 0.50378507 0.27645168
0.47344024 0.50658970 0.27813174
0.60450240 0.51049051 0.28199111
0.73511185 0.51579600 0.28866477
0.86298444 0.52101706 0.29524130
0.96012838 0.52500174 0.30026663
0.96012838 0.52500174 0.30026663
0.07197908 0.62036868 0.27790631
0.21449753 0.62454376 0.28170776
0.35428584 0.62940399 0.28872603
0.48921963 0.63411474 0.29554535
0.62049077 0.63871648 0.30222334
0.74869018 0.64322917 0.30878828
0.87417512 0.64766478 0.31525709
0.96948595 0.65104644 0.32019972
0.96948595 0.65104644 0.32019972
0.09137699 0.74643971 0.29463956
0.23760309 0.75071793 0.30194459
0.37485714 0.75474449 0.30884853
0.50731477 0.75864067 0.31555614
0.63614769 0.76244033 0.32212414
0.76193708 0.76616021 0.32858036
0.88503437 0.76981037 0.33494145
0.97851210 0.77258901 0.33980139
0.97851210 0.77258901 0.33980139
0.11681698 0.86898882 0.31466524
0.26037722 0.87239008 0.32185000
0.39509703 0.87558297 0.32863961
0.52507849 0.87866458 0.33523552
0.65147320 0.88166217 0.34169352
0.77485256 0.88458923 0.34804101
0.89556219 0.88745395 0.35429439
0.98720682 0.88962956 0.35907163
0.98720682 0.88962956 0.35907163
0.13835833 0.97044502 0.33156587
0.27963362 0.97309461 0.33864755
0.41218127 0.97557294 0.34533917
0.54004035 0.97795637 0.35183933
0.66434523 0.98026648 0.35820305
0.78565890 0.98251401 0.36445736
0.90432203 0.98470551 0.37061841
0.99439546 0.98636426 0.37532477
0.99439546 0.98636426 0.37532477
0.08143280 0.04454526 0.36248897
0.21062648 0.04470130 0.36446109
0.33484499 0.04488201 0.36636823
0.45753703 0.04508905 0.36826213
0.57962364 0.04532235 0.37015643
0.70154293 0.04558165 0.37205753
0.82354941 0.04586668 0.37396913
0.91804259 0.04610452 0.37545574
0.91804259 0.04610452 0.37545574
0.07898619 0.15270924 0.36800823
0.21031256 0.15356686 0.37007657
0.33655847 0.15441450 0.37207516
0.46123144 0.15527320 0.37405843
0.58526862 0.15614816 0.37604072
0.70911594 0.15704171 0.37802881
0.83303253 0.15795510 0.38002657
0.92899220 0.15867535 0.38157935
0.92899220 0.15867535 0.38157935
0.07680473 0.26447489 0.37379263
0.21026378 0.26603407 0.37595718
0.33853709 0.26754866 0.37804724
0.46519099 0.26905900 0.38011987
0.59117875 0.27057563 0.38219016
0.71695408 0.27210342 0.38426523
0.84278080 0.27364517 0.38634916
0.94020695 0.27484784 0.38796809
0.94020695 0.27484784 0.38796809
0.07488841 0.37984217 0.37984217
0.21048015 0.38210293 0.38210293
0.34078085 0.38428446 0.38428446
0.46941569 0.38644645 0.38644645
0.59735401 0.38860474 0.38860474
0.72505737 0.39076678 0.39076678
0.85279420 0.39293689 0.39293689
0.95143253 0.39630521 0.39630521
0.95143253 0.39630521 0.39630521
0.07323723 0.49881114 0.38615686
0.21096165 0.50177348 0.38851383
0.34328975 0.50462194 0.39078681
0.47390553 0.50743559 0.39303818
0.60613148 0.51212698 0.39808778
0.73649763 0.51742150 0.40406638
0.86412919 0.52263168 0.40995430
0.96108807 0.52660801 0.41445096
0.96108807 0.52660801 0.41445096
0.07185119 0.62138177 0.39273669
0.21684510 0.62597018 0.39783386
0.35637757 0.63081887 0.40412124
0.49106139 0.63551834 0.41022643
0.62208639 0.64010898 0.41620123
0.75004251 0.64461069 0.42207111
0.87528641 0.64903543 0.42785132
0.97041219 0.65240873 0.43226527
0.97041219 0.65240873 0.43226527
0.09396021 0.74763429 0.40941573
0.23991719 0.75190038 0.41595191
0.37691542 0.75591539 0.42212496
0.50912307 0.75980030 0.42811844
0.63770986 0.76358886 0.43398325
0.76325595 0.76729776 0.43974441
0.88611220 0.77093705 0.44541690
0.97940488 0.77370733 0.44974816
0.97940488 0.77370733 0.44974816
0.11936675 0.86993944 0.42732262
0.26265787 0.87332855 0.43373854
0.39712184 0.87650990 0.43979726
0.52685333 0.87958024 0.44567903
0.65300191 0.88256672 0.45143385
0.77613797 0.88548281 0.45708628
0.89660657 0.88833665 0.46265106
0.98806614 0.89050392 0.46689962
0.98806614 0.89050392 0.46689962
0.14087942 0.97118652 0.44240720
0.28188559 0.97382397 0.44872004
0.41417740 0.97629075 0.45468077
0.54178652 0.97866291 0.46046680
0.66584525 0.98096192 0.46612734
0.78691563 0.98319847 0.47168658
0.90533772 0.98537909 0.47715903
0.99522611 0.98702950 0.48133671
0.99522611 0.98702950 0.48133671
0.08117378 0.04458516 0.46918378
0.21058276 0.04475092 0.47177097
0.33500593 0.04494086 0.47426282
0.45789795 0.04515692 0.47672803
0.58018148 0.04539910 0.47918488
0.70229540 0.04566719 0.48164203
0.82449470 0.04596092 0.48410451
0.91913593 0.04620543 0.48601406
0.91913593 0.04620543 0.48601406
0.07875394 0.15294433 0.47639806
0.21029561 0.15381165 0.47908147
0.33674618 0.15466853 0.48166478
0.46161913 0.15553625 0.48421935
0.58585322 0.15642009 0.48676420
0.70989517 0.15732242 0.48930833
0.83400459 0.15824451 0.49185698
0.93011230 0.15897144 0.49383269
0.93011230 0.15897144 0.49383269
0.07659924 0.26490515 0.48387749
0.21027359 0.26647405 0.48665711
0.33875156 0.26799787 0.48933188
0.46560545 0.26951723 0.49197582
0.59179011 0.27104274 0.49460866
0.71776008 0.27257932 0.49723977
0.84377963 0.27412976 0.49987459
0.94135382 0.27533911 0.50191646
0.94135382 0.27533911 0.50191646
0.07470969 0.38046761 0.49162205
0.21051672 0.38273809 0.49449789
0.34102209 0.38492884 0.49726412
0.46985691 0.38709986 0.49999742
0.59799214 0.38926703 0.50271826
0.72589014 0.39143786 0.50543635
0.85381980 0.39361666 0.50815734
0.95242230 0.39815208 0.51218394
0.95242230 0.39815208 0.51218394
0.07308527 0.49963176 0.49963176
0.21102499 0.50260381 0.50260381
0.34355776 0.50546150 0.50546150
0.47454012 0.50837845 0.50837845
0.60775718 0.51376007 0.51376007
0.73788004 0.51904361 0.51904361
0.86527056 0.52424292 0.52424292
0.96204439 0.52821090 0.52821090
0.96204439 0.52821090 0.52821090
0.07172600 0.62239757 0.50790661
0.21918929 0.62739322 0.51353558
0.35846592 0.63223037 0.51909207
0.49289977 0.63691857 0.52448312
0.62367863 0.64149810 0.52975474
0.75139146 0.64598883 0.53492956
0.87639432 0.65040270 0.54002116
0.97133505 0.65376766 0.54390644
0.97133505 0.65376766 0.54390644
0.09654006 0.74882550 0.52376750
0.24222792 0.75307944 0.52953485
0.37897031 0.75708292 0.53497701
0.51092799 0.76095655 0.54025636
0.63926864 0.76473401 0.54541798
0.76457144 0.76843193 0.55048408
0.88718665 0.77206035 0.55546796
0.98029428 0.77482228 0.55927054
0.98029428 0.77482228 0.55927054
0.12191314 0.87088667 0.53955562
0.26493514 0.87426365 0.54520270
0.39914328 0.87743345 0.55053053
0.52862480 0.88049251 0.55569817
0.65452723 0.88346789 0.56074980
0.77742000 0.88637301 0.56570717
0.89764756 0.88921598 0.57058334
0.98892209 0.89137489 0.57430323
0.98892209 0.89137489 0.57430323
0.14339714 0.97192464 0.55282415
0.28413418 0.97454995 0.55836815
0.41617016 0.97700520 0.56359799
0.54352930 0.97936608 0.56866988
0.66734190 0.98165398 0.57362723
0.78816898 0.98387956 0.57849141
0.90635004 0.98604930 0.58327526
0.99605337 0.98769136 0.58692427
0.99605337 0.98769136 0.58692427
0.08091746 0.04462777 0.57621811
0.21054174 0.04480324 0.57942038
0.33516958 0.04500241 0.58249693
0.45826157 0.04522750 0.58553345
0.58074201 0.04547856 0.58855285
0.70305057 0.04575543 0.59156605
0.82544270 0.04605786 0.59457941
0.92023197 0.04630905 0.59691191
0.92023197 0.04630905 0.59691191
0.07852439 0.15318211 0.58512742
0.21028135 0.15405915 0.58842590
0.33693659 0.15492527 0.59159392
0.46200952 0.15580200 0.59471980
0.58644053 0.15669473 0.59782719
0.71067711 0.15760584 0.60092738
0.83497936 0.15853663 0.60402691
0.93123511 0.15927024 0.60642556
0.93123511 0.15927024 0.60642556
0.07639646 0.26533811 0.59430187
0.21028610 0.26691672 0.59769656
0.33896874 0.26844978 0.60095604
0.46602261 0.26997816 0.60417129
0.59240418 0.27151256 0.60736668
0.71856879 0.27305791 0.61055384
0.84478116 0.27461706 0.61373955
0.94250339 0.27583309 0.61620436
0.94250339 0.27583309 0.61620436
0.07453367 0.38109576 0.60374146
0.21055600 0.38337594 0.60723236
0.34126604 0.38557593 0.61058330
0.47030083 0.38775597 0.61388792
0.59863297 0.38993202 0.61717131
0.72672561 0.39211163 0.62044545
0.85498682 0.39543291 0.62411626
0.95340870 0.39999557 0.62763826
0.95340870 0.39999557 0.62763826
0.07293602 0.50045508 0.61344619
0.21109104 0.50343684 0.61703331
0.34382848 0.50630377 0.62047571
0.47640858 0.51001927 0.62432952
0.60937950 0.51538978 0.62900795
0.73925907 0.52066235 0.63359643
0.86640855 0.52585079 0.63810714
0.96299733 0.52981042 0.64154644
0.96299733 0.52981042 0.64154644
0.07344550 0.62369412 0.62369412
0.22153010 0.62881289 0.62881289
0.36055090 0.63363850 0.63363850
0.49473478 0.63831541 0.63831541
0.62526749 0.64288384 0.64288384
0.75273703 0.64736360 0.64736360
0.87749886 0.65176659 0.65176659
0.97225453 0.65512320 0.65512320
0.97225453 0.65512320 0.65512320
0.09911654 0.75001334 0.63769488
0.24453527 0.75425514 0.64269338
0.38102183 0.75824707 0.64740466
0.51272954 0.76210942 0.65196987
0.64082405 0.76587577 0.65642830
0.76588355 0.76956272 0.66079934
0.88825773 0.77318027 0.66509461
0.98118030 0.77593385 0.66836852
0.98118030 0.77593385 0.66836852
0.12445615 0.87183053 0.65136421
0.26720903 0.87519537 0.65624245
0.40116134 0.87835363 0.66083940
0.53039288 0.88140141 0.66529290
0.65604918 0.88436569 0.66964134
0.77869865 0.88725983 0.67390365
0.89868518 0.89009192 0.67809121
0.98977465 0.89224249 0.68128243
0.98977465 0.89224249 0.68128243
0.14591147 0.97265939 0.66281669
0.28637940 0.97527256 0.66759185
0.41815954 0.97771626 0.67209081
0.54526872 0.98006586 0.67644856
0.66883517 0.98234266 0.68070272
0.78941896 0.98455727 0.68487184
0.90735898 0.98671614 0.68896708
0.99687726 0.98834984 0.69208742
0.99687726 0.98834984 0.69208742
0.08066385 0.04467308 0.68359192
0.21050342 0.04485826 0.68740926
0.33533593 0.04506667 0.69107053
0.45862790 0.04530077 0.69467835
0.58130525 0.04556072 0.69826030
0.70380845 0.04584637 0.70182955
0.82639340 0.04615750 0.70539380
0.92133071 0.04641537 0.70814923
0.92133071 0.04641537 0.70814923
0.07829754 0.15342260 0.69419625
0.21026980 0.15430935 0.69810981
0.33712971 0.15518470 0.70186253
0.46240261 0.15607046 0.70555972
0.58703053 0.15697207 0.70922967
0.71146175 0.15789196 0.71288590
0.83595683 0.15883145 0.71653632
0.93236062 0.15957174 0.71935791
0.93236062 0.15957174 0.71935791
0.07619638 0.26577378 0.70506573
0.21030132 0.26736210 0.70907549
0.33918863 0.26890439 0.71291968
0.46644246 0.27044180 0.71670624
0.59302095 0.27198507 0.72046418
0.71938019 0.27353921 0.72420739
0.84578539 0.27510705 0.72794398
0.94365567 0.27632976 0.73083173
0.94365567 0.27632976 0.73083173
0.07436035 0.38172660 0.71620034
0.21059798 0.38401650 0.72030632
0.34151269 0.38622572 0.72424197
0.47074746 0.38841478 0.72811789
0.59927651 0.39059972 0.73196383
0.72756378 0.39278811 0.73579402
0.85615489 0.39728137 0.73967479
0.95439172 0.40183568 0.74266812
0.95439172 0.40183568 0.74266812
0.07278947 0.50128111 0.72760010
0.21115978 0.50427258 0.73180229
0.34410189 0.50714874 0.73582940
0.47827366 0.51165671 0.73985613
0.61099845 0.51701612 0.74383137
0.74063472 0.52227771 0.74772479
0.86754316 0.52745527 0.75154689
0.96394689 0.53140656 0.75445753
0.96394689 0.53140656 0.75445753
0.07605205 0.62512255 0.73931582
0.22386753 0.63022917 0.74366574
0.36263250 0.63504324 0.74776046
0.49656640 0.63970888 0.75172324
0.62685298 0.64426621 0.75558849
0.75407922 0.64873499 0.75937318
0.87860001 0.65312710 0.76308757
0.97317064 0.65647537 0.76591550
0.97317064 0.65647537 0.76591550
0.10168963 0.75119779 0.75119779
0.24683925 0.75542745 0.75542745
0.38306997 0.75940784 0.75940784
0.51452771 0.76325892 0.76325892
0.64237608 0.76701417 0.76701417
0.76719228 0.77069014 0.77069014
0.88932543 0.77429681 0.77429681
0.98206295 0.77704205 0.77704205
0.98206295 0.77704205 0.77704205
0.12699579 0.87277102 0.76274834
0.26947955 0.87612371 0.76685774
0.40317602 0.87927043 0.77072380
0.53215759 0.88230694 0.77446317
0.65756775 0.88526011 0.77810842
0.77997393 0.88814327 0.78167567
0.89971942 0.89096449 0.78517463
0.99062384 0.89310671 0.78783717
0.99062384 0.89310671 0.78783717
0.14842243 0.97339075 0.77238478
0.28862124 0.97599178 0.77639109
0.42014555 0.97842394 0.78015917
0.54700475 0.98076227 0.78380278
0.67032507 0.98302796 0.78735376
0.79066556 0.98523159 0.79082782
0.90836455 0.98737959 0.79423445
0.99769777 0.98900495 0.79682611
0.99769777 0.98900495 0.79682611
0.08041293 0.04472109 0.79130530
0.21046781 0.04491599 0.79573772
0.33550498 0.04513363 0.79998369
0.45899693 0.04537675 0.80416282
0.58187119 0.04564559 0.80830733
0.70456902 0.04594001 0.81243263
0.82734680 0.04625984 0.81654776
0.92243216 0.04652439 0.81972613
0.92243216 0.04652439 0.81972613
0.07807339 0.15366579 0.80360466
0.21026095 0.15456226 0.80813329
0.33732552 0.15544684 0.81247072
0.46279841 0.15634161 0.81673922
0.58762323 0.15725211 0.82097172
0.71224909 0.15818078 0.82518400
0.83693699 0.15912897 0.82938530
0.93348883 0.15987593 0.83262983
0.93348883 0.15987593 0.83262983
0.07599900 0.26621215 0.81616916
0.21031923 0.26781018 0.82079400
0.33941121 0.26936170 0.82522290
0.46686502 0.27090813 0.82958076
0.59364042 0.27246029 0.83390125
0.72019430 0.27402321 0.83820051
0.84679233 0.27559975 0.84248799
0.94481065 0.27682914 0.84579867
0.94481065 0.27682914 0.84579867
0.07418974 0.38236015 0.82899880
0.21064266 0.38465976 0.83371985
0.34176204 0.38687821 0.83824021
0.47119678 0.38907630 0.84268744
0.59992275 0.39127012 0.84709593
0.72840465 0.39346728 0.85148216
0.85731958 0.39912646 0.85480897
0.95537136 0.40367241 0.85727363
0.95537136 0.40367241 0.85727363
0.07264562 0.50210983 0.84209358
0.21123123 0.50511101 0.84691084
0.34437801 0.50799641 0.85152267
0.48013537 0.51329078 0.85495839
0.61261402 0.51863908 0.85823044
0.74200699 0.52388970 0.86142880
0.86867440 0.52905638 0.86456229
0.96489308 0.53299932 0.86694425
0.96489308 0.53299932 0.86694425
0.07865523 0.62654760 0.85451315
0.22620158 0.63164208 0.85809423
0.36471072 0.63644461 0.86145807
0.49839465 0.64109897 0.86470672
0.62843509 0.64564519 0.86786877
0.75541803 0.65010300 0.87095841
0.87969779 0.65448424 0.87398418
0.97408336 0.65782416 0.87628345
0.97408336 0.65782416 0.87628345
0.10425934 0.75237887 0.86427635
0.24913984 0.75659639 0.86773717
0.38511473 0.76056524 0.87098667
0.51632250 0.76440504 0.87412361
0.64392473 0.76814918 0.87717567
0.76849764 0.77181418 0.88015658
0.89038975 0.77540997 0.88307465
0.98294222 0.77814686 0.88529121
0.98294222 0.77814686 0.88529121
0.12953205 0.87370812 0.87370812
0.27174669 0.87704867 0.87704867
0.40518732 0.88018385 0.88018385
0.53391893 0.88320908 0.88320908
0.65908295 0.88615115 0.88615115
0.78124583 0.88902334 0.88902334
0.90075029 0.89183368 0.89183368
0.99146965 0.89396755 0.89396755
0.99146965 0.89396755 0.89396755
0.15093001 0.97411874 0.88152851
0.29085970 0.97670763 0.88476598
0.42212817 0.97912825 0.88780316
0.54873740 0.98145530 0.89073265
0.67181158 0.98370989 0.89358043
0.79190878 0.98590255 0.89635943
0.90936673 0.98803967 0.89907746
0.99851491 0.98965668 0.90114044
0.99851491 0.98965668 0.90114044
0.08020002 0.04476440 0.88389886
0.21043943 0.04496761 0.88885847
0.33565203 0.04519317 0.89360561
0.45931538 0.04544403 0.89827442
0.58235842 0.04572047 0.90290109
0.70522307 0.04602242 0.90750299
0.82816614 0.04634971 0.91209030
0.92337838 0.04661998 0.91563118
0.92337838 0.04661998 0.91563118
0.07788342 0.15387639 0.89765106
0.21025551 0.15478117 0.90270688
0.33749551 0.15567367 0.90754548
0.46313980 0.15657618 0.91230366
0.58813340 0.15749429 0.91701832
0.71292609 0.15843049 0.92170721
0.83777927 0.15938613 0.92638068
0.93445800 0.16013882 0.92998772
0.93445800 0.16013882 0.92998772
0.07583197 0.26659003 0.91166839
0.21033674 0.26819639 0.91682043
0.33960414 0.26975583 0.92175049
0.46722936 0.27130999 0.92659803
0.59417353 0.27286976 0.93140070
0.72089424 0.27444021 0.93617656
0.84765754 0.27602421 0.94093621
0.94580275 0.27725932 0.94460940
0.94580275 0.27725932 0.94460940
0.07404565 0.38290532 0.92595087
0.21068311 0.38521326 0.93119912
0.34197791 0.38743963 0.93622064
0.47158406 0.38964544 0.94115755
0.60047880 0.39184688 0.94604821
0.72946671 0.39476241 0.95050405
0.85831518 0.40070523 0.95315503
0.95620834 0.40524403 0.95516656
0.95620834 0.40524403 0.95516656
0.07252448 0.50282230 0.94049850
0.21129462 0.50583181 0.94584295
0.34578254 0.50922942 0.95052884
0.48172839 0.51468868 0.95327709
0.61399606 0.52002746 0.95594642
0.74318050 0.52526867 0.95854903
0.86964132 0.53042604 0.96109231
0.96570138 0.53436182 0.96302113
0.96570138 0.53436182 0.96302113
0.08088377 0.62776635 0.95291335
0.22819946 0.63285043 0.95583544
0.36648931 0.63764306 0.95857282
0.49995899 0.64228776 0.96120937
0.62978846 0.64682446 0.96376871
0.75656287 0.65127286 0.96626259
0.88063603 0.65564478 0.96869815
0.97486299 0.65897754 0.97054428
0.97486299 0.65897754 0.97054428
0.10645921 0.75338851 0.96086050
0.25110904 0.75759562 0.96366233
0.38686465 0.76155458 0.96628537
0.51785816 0.76538471 0.96881021
0.64524942 0.76911934 0.97125956
0.76961380 0.77277493 0.97364472
0.89129931 0.77636140 0.97597256
0.98369317 0.77909114 0.97773599
0.98369317 0.77909114 0.97773599
0.13170324 0.87450864 0.96847622
0.27368721 0.87783879 0.97115778
0.40690856 0.88096408 0.97366650
0.53542591 0.88397964 0.97607964
0.66037896 0.88691219 0.97841898
0.78233331 0.88977497 0.98069542
0.90163117 0.89257600 0.98291555
0.99219192 0.89470271 0.98459628
0.99219192 0.89470271 0.98459628
0.15307662 0.97474003 0.97474003
0.29277564 0.97731851 0.97731851
0.42382484 0.97972924 0.97972924
0.55021981 0.98204663 0.98204663
0.67308302 0.98429170 0.98429170
0.79297169 0.98647494 0.98647494
0.91022304 0.98860275 0.98860275
0.99921260 0.99021260 0.99021260
0.99921260 0.99021260 0.99021260
