luts/cubes/romance.cube
TITLE "romance"
LUT_3D_SIZE 33
DOMAIN_MIN 0.0 0.0 0.0
DOMAIN_MAX 1.0 1.0 1.0
0.08222607 0.04444175 0.04444175
0.11545103 0.04447134 0.04447134
0.14768435 0.04450220 0.04450220
0.17939817 0.04453461 0.04453461
0.21077387 0.04456866 0.04456866
0.24190831 0.04460438 0.04460438
0.27286174 0.04464178 0.04464178
0.30367521 0.04468088 0.04468088
0.33437837 0.04472167 0.04472167
0.36499361 0.04476414 0.04476414
0.39553846 0.04480830 0.04480830
0.42602693 0.04485413 0.04485413
0.45647048 0.04490164 0.04490164
0.48687870 0.04495082 0.04495082
0.51725965 0.04500166 0.04500166
0.54762022 0.04505415 0.04505415
0.57796636 0.04510829 0.04510829
0.60830327 0.04516408 0.04516408
0.63863552 0.04522150 0.04522150
0.66896714 0.04528056 0.04528056
0.69930174 0.04534125 0.04534125
0.72964254 0.04540356 0.04540356
0.75999243 0.04546749 0.04546749
0.79035405 0.04553303 0.04553303
0.82072973 0.04560019 0.04560019
0.85112174 0.04566894 0.04566894
0.88153203 0.04573930 0.04573930
0.91196243 0.04581125 0.04581125
0.91477878 0.04581799 0.04581799
0.91477878 0.04581799 0.04581799
0.91477878 0.04581799 0.04581799
0.91477878 0.04581799 0.04581799
0.91477878 0.04581799 0.04581799
0.08156948 0.07099871 0.04452544
0.11493285 0.07107383 0.04456128
0.14730005 0.07114873 0.04459817
0.17914520 0.07122434 0.04463651
0.21065045 0.07130101 0.04467640
0.24191310 0.07137890 0.04471790
0.27299363 0.07145812 0.04476104
0.30393327 0.07153872 0.04480583
0.33476180 0.07162075 0.04485227
0.36550173 0.07170424 0.04490037
0.39617064 0.07178921 0.04495013
0.42678261 0.07187567 0.04500153
0.45734915 0.07196364 0.04505459
0.48787990 0.07205312 0.04510930
0.51838294 0.07214412 0.04516564
0.54886520 0.07223665 0.04522362
0.57933267 0.07233070 0.04528324
0.60979056 0.07242629 0.04534448
0.64024346 0.07252340 0.04540735
0.67069542 0.07262205 0.04547184
0.70115006 0.07272223 0.04553794
0.73161062 0.07282394 0.04560566
0.76208002 0.07292718 0.04567498
0.79256089 0.07303195 0.04574590
0.82305558 0.07313825 0.04581842
0.85356637 0.07324608 0.04589254
0.88409522 0.07335544 0.04596824
0.91464396 0.07346632 0.04604553
0.91747125 0.07347665 0.04605276
0.91747125 0.07347665 0.04605276
0.91747125 0.07347665 0.04605276
0.91747125 0.07347665 0.04605276
0.91747125 0.07347665 0.04605276
0.08092947 0.09778077 0.04462570
0.11443125 0.09790142 0.04466778
0.14693232 0.09802036 0.04471072
0.17890880 0.09813917 0.04475498
0.21054361 0.09825846 0.04480071
0.24193445 0.09837853 0.04484800
0.27314209 0.09849955 0.04489687
0.30420790 0.09862166 0.04494736
0.33516181 0.09874494 0.04499945
0.36602642 0.09886944 0.04505318
0.39681939 0.09899522 0.04510853
0.42755486 0.09912231 0.04516551
0.45824439 0.09925074 0.04522411
0.48889767 0.09938053 0.04528434
0.51952281 0.09951170 0.04534620
0.55012677 0.09964426 0.04540967
0.58071556 0.09977822 0.04547476
0.61129442 0.09991360 0.04554146
0.64186796 0.10005040 0.04560977
0.67244026 0.10018864 0.04567969
0.70301495 0.10032831 0.04575121
0.73359528 0.10046941 0.04582433
0.76418418 0.10061197 0.04589904
0.79478430 0.10075597 0.04597534
0.82539800 0.10090142 0.04605323
0.85602757 0.10104832 0.04613270
0.88667498 0.10119668 0.04621376
0.91734206 0.10134649 0.04629638
0.92018030 0.10136043 0.04630411
0.92018030 0.10136043 0.04630411
0.92018030 0.10136043 0.04630411
0.92018030 0.10136043 0.04630411
0.92018030 0.10136043 0.04630411
0.08030603 0.12478793 0.04474254
0.11394622 0.12495412 0.04479086
0.14658116 0.12511709 0.04483983
0.17868898 0.12527911 0.04489002
0.21045334 0.12544102 0.04494160
0.24197238 0.12560325 0.04499467
0.27330711 0.12576609 0.04504928
0.30449910 0.12592971 0.04510545
0.33557839 0.12609423 0.04516321
0.36656769 0.12625975 0.04522255
0.39748471 0.12642634 0.04528350
0.42834368 0.12659406 0.04534605
0.45915620 0.12676294 0.04541021
0.48993201 0.12693304 0.04547596
0.52067924 0.12710437 0.04554333
0.55140490 0.12727696 0.04561229
0.58211501 0.12745084 0.04568285
0.61281485 0.12762602 0.04575501
0.64350904 0.12780251 0.04582877
0.67420168 0.12798033 0.04590411
0.70489641 0.12815949 0.04598105
0.73559651 0.12833999 0.04605957
0.76630491 0.12852186 0.04613967
0.79702428 0.12870509 0.04622135
0.82775699 0.12888969 0.04630461
0.85850534 0.12907567 0.04638944
0.88927131 0.12926302 0.04647584
0.92005674 0.12945177 0.04656381
0.92290591 0.12946930 0.04657203
0.92290591 0.12946930 0.04657203
0.92290591 0.12946930 0.04657203
0.92290591 0.12946930 0.04657203
0.92290591 0.12946930 0.04657203
0.07969916 0.15202020 0.04487594
0.11347776 0.15223192 0.04493051
0.14624657 0.15243893 0.04498552
0.17848572 0.15264415 0.04504163
0.21037964 0.15284868 0.04509906
0.24202688 0.15305309 0.04515791
0.27348871 0.15325774 0.04521825
0.30480688 0.15346286 0.04528012
0.33601155 0.15366863 0.04534353
0.36712552 0.15387516 0.04540850
0.39816660 0.15408256 0.04547504
0.42914908 0.15429091 0.04554317
0.46008459 0.15450026 0.04561287
0.49098292 0.15471066 0.04568416
0.52185225 0.15492215 0.04575702
0.55269960 0.15513478 0.04583148
0.58353104 0.15534857 0.04590751
0.61435185 0.15556354 0.04598513
0.64516669 0.15577972 0.04606433
0.67597967 0.15599713 0.04614510
0.70679445 0.15621577 0.04622745
0.73761431 0.15643568 0.04631138
0.76844222 0.15665686 0.04639687
0.79928084 0.15687932 0.04648393
0.83013255 0.15710307 0.04657256
0.86099969 0.15732812 0.04666275
0.89188421 0.15755448 0.04675450
0.92278798 0.15778215 0.04684781
0.92564809 0.15780328 0.04685652
0.92564809 0.15780328 0.04685652
0.92564809 0.15780328 0.04685652
0.92564809 0.15780328 0.04685652
0.92564809 0.15780328 0.04685652
0.07910886 0.17947758 0.04502592
0.11302587 0.17973482 0.04508672
0.14592856 0.17998588 0.04514778
0.17829904 0.18023430 0.04520981
0.21032252 0.18048145 0.04527308
0.24209796 0.18072803 0.04533772
0.27368688 0.18097449 0.04540380
0.30513122 0.18122112 0.04547135
0.33646127 0.18146813 0.04554042
0.36769992 0.18171568 0.04561102
0.39886507 0.18196389 0.04568316
0.42997104 0.18221286 0.04575685
0.46102955 0.18246267 0.04583210
0.49205040 0.18271338 0.04590892
0.52304183 0.18296504 0.04598730
0.55401087 0.18321770 0.04606724
0.58496364 0.18347140 0.04614875
0.61590543 0.18372617 0.04623182
0.64684091 0.18398204 0.04631646
0.67777423 0.18423903 0.04640267
0.70870905 0.18449717 0.04649043
0.73964868 0.18475647 0.04657976
0.77059609 0.18501696 0.04667064
0.80155396 0.18527865 0.04676309
0.83252469 0.18554155 0.04685708
0.86351060 0.18580567 0.04695263
0.89451368 0.18607104 0.04704973
0.92553580 0.18633764 0.04714837
0.92840685 0.18636237 0.04715758
0.92840685 0.18636237 0.04715758
0.92840685 0.18636237 0.04715758
0.92840685 0.18636237 0.04715758
0.92840685 0.18636237 0.04715758
0.07853514 0.20716005 0.04519246
0.11259055 0.20746282 0.04525952
0.14562711 0.20775791 0.04532661
0.17812892 0.20804954 0.04539457
0.21028196 0.20833931 0.04546368
0.24218560 0.20862806 0.04553410
0.27390162 0.20891633 0.04560591
0.30547214 0.20920447 0.04567916
0.33692756 0.20949272 0.04575389
0.36829090 0.20978129 0.04583011
0.39958010 0.21007031 0.04590785
0.43080958 0.21035991 0.04598711
0.46199107 0.21065018 0.04606791
0.49313445 0.21094119 0.04615025
0.52424798 0.21123302 0.04623414
0.55533872 0.21152571 0.04631957
0.58641281 0.21181932 0.04640655
0.61747557 0.21211389 0.04649509
0.64853171 0.21240944 0.04658517
0.67958536 0.21270602 0.04667680
0.71064023 0.21300365 0.04676998
0.74169962 0.21330236 0.04686471
0.77276654 0.21360216 0.04696099
0.80384366 0.21390307 0.04705881
0.83493339 0.21420512 0.04715817
0.86603808 0.21450832 0.04725908
0.89715972 0.21481268 0.04736153
0.92830019 0.21511822 0.04746551
0.93118218 0.21514655 0.04747521
0.93118218 0.21514655 0.04747521
0.93118218 0.21514655 0.04747521
0.93118218 0.21514655 0.04747521
0.93118218 0.21514655 0.04747521
0.07797798 0.23506763 0.04537558
0.11217180 0.23541593 0.04544888
0.14534224 0.23575507 0.04552201
0.17797538 0.23608990 0.04559589
0.21025798 0.23642228 0.04567086
0.24228982 0.23675321 0.04574706
0.27413294 0.23708329 0.04582460
0.30582963 0.23741293 0.04590354
0.33741043 0.23774243 0.04598392
0.36889845 0.23807201 0.04606577
0.40031171 0.23840185 0.04614910
0.43166469 0.23873207 0.04623394
0.46296917 0.23906280 0.04632029
0.49423508 0.23939412 0.04640816
0.52547070 0.23972611 0.04649755
0.55668314 0.24005884 0.04658847
0.58787855 0.24039236 0.04668093
0.61906229 0.24072672 0.04677492
0.65023907 0.24106197 0.04687045
0.68141306 0.24139813 0.04696751
0.71258797 0.24173525 0.04706610
0.74376714 0.24207336 0.04716624
0.77495355 0.24241247 0.04726790
0.80614993 0.24275261 0.04737111
0.83735867 0.24309381 0.04747584
0.86858214 0.24343609 0.04758210
0.89982234 0.24377945 0.04768990
0.93108115 0.24412392 0.04779922
0.93397407 0.24415584 0.04780941
0.93397407 0.24415584 0.04780941
0.93397407 0.24415584 0.04780941
0.93397407 0.24415584 0.04780941
0.93397407 0.24415584 0.04780941
0.07743740 0.26320031 0.04557527
0.11176963 0.26359415 0.04565481
0.14507394 0.26397732 0.04573398
0.17783841 0.26435535 0.04581379
0.21025057 0.26473036 0.04589460
0.24241060 0.26510346 0.04597659
0.27438082 0.26547535 0.04605986
0.30620368 0.26584650 0.04614449
0.33790987 0.26621725 0.04623053
0.36952256 0.26658784 0.04631800
0.40105989 0.26695849 0.04640693
0.43253637 0.26732934 0.04649734
0.46396384 0.26770053 0.04658924
0.49535228 0.26807215 0.04668263
0.52670999 0.26844431 0.04677754
0.55804413 0.26881707 0.04687395
0.58936086 0.26919050 0.04697188
0.62066558 0.26956466 0.04707133
0.65196301 0.26993959 0.04717230
0.68325733 0.27031535 0.04727479
0.71455229 0.27069196 0.04737880
0.74585122 0.27106946 0.04748433
0.77715714 0.27144788 0.04759139
0.80847277 0.27182726 0.04769997
0.83980052 0.27220761 0.04781008
0.87114277 0.27258895 0.04792170
0.90250152 0.27297132 0.04803484
0.93387868 0.27335472 0.04814951
0.93678254 0.27339024 0.04816019
0.93678254 0.27339024 0.04816019
0.93678254 0.27339024 0.04816019
0.93678254 0.27339024 0.04816019
0.93678254 0.27339024 0.04816019
0.07691339 0.29155810 0.04579153
0.11138403 0.29199747 0.04587732
0.14482221 0.29242468 0.04596253
0.17771801 0.29284592 0.04604826
0.21025972 0.29326354 0.04613491
0.24254796 0.29367882 0.04622268
0.27464528 0.29409252 0.04631169
0.30659431 0.29450517 0.04640202
0.33842588 0.29491716 0.04649371
0.37016325 0.29532878 0.04658681
0.40182464 0.29574023 0.04668133
0.43342462 0.29615171 0.04677731
0.46497509 0.29656336 0.04687476
0.49648604 0.29697529 0.04697368
0.52796585 0.29738761 0.04707409
0.55942169 0.29780041 0.04717600
0.59085975 0.29821375 0.04727940
0.62228544 0.29862770 0.04738430
0.65370351 0.29904232 0.04749072
0.68511818 0.29945766 0.04759863
0.71653318 0.29987376 0.04770806
0.74795188 0.30029067 0.04781900
0.77937730 0.30070840 0.04793145
0.81081218 0.30112701 0.04804541
0.84225894 0.30154650 0.04816088
0.87371997 0.30196692 0.04827786
0.90519728 0.30238829 0.04839636
0.93669278 0.30281062 0.04851636
0.93960759 0.30284974 0.04852754
0.93960759 0.30284974 0.04852754
0.93960759 0.30284974 0.04852754
0.93960759 0.30284974 0.04852754
0.93960759 0.30284974 0.04852754
0.07640595 0.32014099 0.04602436
0.11101499 0.32062589 0.04611639
0.14458705 0.32109714 0.04620764
0.17761418 0.32156158 0.04629930
0.21028545 0.32202183 0.04639180
0.24270189 0.32247928 0.04648535
0.27492630 0.32293479 0.04658009
0.30700152 0.32338895 0.04667611
0.33895846 0.32384218 0.04677346
0.37082052 0.32429481 0.04687218
0.40260596 0.32474708 0.04697231
0.43432944 0.32519919 0.04707386
0.46600290 0.32565129 0.04717685
0.49763638 0.32610353 0.04728130
0.52923829 0.32655602 0.04738722
0.56081582 0.32700884 0.04749461
0.59237520 0.32746210 0.04760349
0.62392187 0.32791585 0.04771385
0.65546059 0.32837016 0.04782571
0.68699559 0.32882508 0.04793905
0.71853064 0.32928068 0.04805390
0.75006911 0.32973698 0.04817024
0.78161403 0.33019402 0.04828808
0.81316816 0.33065186 0.04840742
0.84473393 0.33111050 0.04852826
0.87631374 0.33157000 0.04865060
0.90790961 0.33203036 0.04877444
0.93952346 0.33249163 0.04889978
0.94244920 0.33253435 0.04891146
0.94244920 0.33253435 0.04891146
0.94244920 0.33253435 0.04891146
0.94244920 0.33253435 0.04891146
0.94244920 0.33253435 0.04891146
0.07591508 0.34894899 0.04627377
0.11066253 0.34947942 0.04637204
0.14436846 0.34999471 0.04646933
0.17752692 0.35050235 0.04656691
0.21032776 0.35100522 0.04666525
0.24287239 0.35150484 0.04676459
0.27522390 0.35200216 0.04686507
0.30742529 0.35249783 0.04696678
0.33950761 0.35299231 0.04706978
0.37149435 0.35348595 0.04717413
0.40340385 0.35397903 0.04727985
0.43525083 0.35447176 0.04738697
0.46704729 0.35496433 0.04749551
0.49880329 0.35545687 0.04760549
0.53052729 0.35594952 0.04771692
0.56222652 0.35644239 0.04782980
0.59390723 0.35693555 0.04794415
0.62557487 0.35742910 0.04805997
0.65723424 0.35792310 0.04817727
0.68888958 0.35841761 0.04829605
0.72054468 0.35891269 0.04841631
0.75220291 0.35940839 0.04853805
0.78386734 0.35990475 0.04866128
0.81554072 0.36040181 0.04878600
0.84722550 0.36089961 0.04891221
0.87892408 0.36139818 0.04903991
0.91063851 0.36189754 0.04916910
0.94237070 0.36239774 0.04929978
0.94530738 0.36244406 0.04931194
0.94530738 0.36244406 0.04931194
0.94530738 0.36244406 0.04931194
0.94530738 0.36244406 0.04931194
0.94530738 0.36244406 0.04931194
0.07544078 0.37798206 0.04653974
0.11032664 0.37855803 0.04664426
0.14416644 0.37911736 0.04674759
0.17745624 0.37966820 0.04685109
0.21038663 0.38021369 0.04695528
0.24305946 0.38075548 0.04706040
0.27553807 0.38129461 0.04716661
0.30786563 0.38183178 0.04727401
0.34007333 0.38236751 0.04738268
0.37218475 0.38290217 0.04749265
0.40421832 0.38343606 0.04760396
0.43618880 0.38396942 0.04771666
0.46810824 0.38450244 0.04783075
0.49998678 0.38503529 0.04794626
0.53183287 0.38556811 0.04806319
0.56365379 0.38610100 0.04818156
0.59545583 0.38663408 0.04830139
0.62724444 0.38716742 0.04842266
0.65902446 0.38770111 0.04854540
0.69080014 0.38823521 0.04866961
0.72257528 0.38876978 0.04879528
0.75435328 0.38930488 0.04892243
0.78613721 0.38984055 0.04905105
0.81792984 0.39037684 0.04918115
0.84973363 0.39091379 0.04931273
0.88155099 0.39145143 0.04944579
0.91338398 0.39198980 0.04958033
0.94523452 0.39252893 0.04971635
0.94818214 0.39257884 0.04972901
0.94818214 0.39257884 0.04972901
0.94818214 0.39257884 0.04972901
0.94818214 0.39257884 0.04972901
0.94818214 0.39257884 0.04972901
0.07498305 0.40724027 0.04682229
0.11000732 0.40786176 0.04693305
0.14398100 0.40846513 0.04704242
0.17740213 0.40905918 0.04715185
0.21046207 0.40964728 0.04726188
0.24326310 0.41023125 0.04737278
0.27586881 0.41081219 0.04748473
0.30832255 0.41139087 0.04759782
0.34065562 0.41196784 0.04771214
0.37289173 0.41254351 0.04782774
0.40504935 0.41311822 0.04794465
0.43714333 0.41369220 0.04806292
0.46918577 0.41426569 0.04818256
0.50118683 0.41483885 0.04830359
0.53315502 0.41541183 0.04842603
0.56509764 0.41598475 0.04854990
0.59702099 0.41655774 0.04867519
0.62893059 0.41713088 0.04880193
0.66083125 0.41770426 0.04893011
0.69272727 0.41827794 0.04905974
0.72462245 0.41885200 0.04919083
0.75652022 0.41942650 0.04932338
0.78842366 0.42000149 0.04945740
0.82033554 0.42057700 0.04959288
0.85225834 0.42115310 0.04972983
0.88419448 0.42172982 0.04986824
0.91614325 0.42235693 0.05011474
0.94797553 0.42379251 0.05209619
0.95091299 0.42392509 0.05227923
0.95091299 0.42392509 0.05227923
0.95091299 0.42392509 0.05227923
0.95091299 0.42392509 0.05227923
0.95091299 0.42392509 0.05227923
0.07454190 0.43672358 0.04712140
0.10970458 0.43739060 0.04723841
0.14381213 0.43803801 0.04735382
0.17736458 0.43867526 0.04746917
0.21055409 0.43930598 0.04758505
0.24348332 0.43993212 0.04770174
0.27621613 0.44055487 0.04781942
0.30879603 0.44117506 0.04793820
0.34125449 0.44179328 0.04805818
0.37361527 0.44240996 0.04817940
0.40589696 0.44302548 0.04830191
0.43811444 0.44364009 0.04842574
0.47027987 0.44425403 0.04855093
0.50240345 0.44486750 0.04867749
0.53449374 0.44548064 0.04880544
0.56655806 0.44609361 0.04893480
0.59860274 0.44670650 0.04906557
0.63063330 0.44731944 0.04919776
0.66265462 0.44793250 0.04933139
0.69467097 0.44854578 0.04946645
0.72668620 0.44915933 0.04960296
0.75870374 0.44977323 0.04974091
0.79072667 0.45038752 0.04988031
0.82278772 0.45112037 0.05029871
0.85493173 0.45252158 0.05229108
0.88691954 0.45391790 0.05427742
0.91875419 0.45530946 0.05625791
0.95043854 0.45669638 0.05823269
0.95336233 0.45682446 0.05841510
0.95336233 0.45682446 0.05841510
0.95336233 0.45682446 0.05841510
0.95336233 0.45682446 0.05841510
0.95336233 0.45682446 0.05841510
0.07411731 0.46643199 0.04743709
0.10941840 0.46714454 0.04756034
0.14365982 0.46783599 0.04768179
0.17734361 0.46851644 0.04780307
0.21066268 0.46918979 0.04792479
0.24372010 0.46985810 0.04804726
0.27658001 0.47052266 0.04817068
0.30928609 0.47118435 0.04829515
0.34186993 0.47184381 0.04842078
0.37435539 0.47250152 0.04854763
0.40676114 0.47315784 0.04867574
0.43910212 0.47381308 0.04880514
0.47139054 0.47446749 0.04893588
0.50363665 0.47512126 0.04906797
0.53584903 0.47577457 0.04920143
0.56803504 0.47642756 0.04933627
0.60020105 0.47708037 0.04947252
0.63235259 0.47773310 0.04961017
0.66449455 0.47838586 0.04974923
0.69663125 0.47903872 0.04988973
0.72886705 0.47985115 0.05044625
0.76135134 0.48121862 0.05245114
0.79366881 0.48258086 0.05444940
0.82582338 0.48393805 0.05644126
0.85781863 0.48529032 0.05842692
0.88965797 0.48663780 0.06040656
0.92134442 0.48798061 0.06238036
0.95288083 0.48931887 0.06434847
0.95579095 0.48944245 0.06453027
0.95579095 0.48944245 0.06453027
0.95579095 0.48944245 0.06453027
0.95579095 0.48944245 0.06453027
0.95579095 0.48944245 0.06453027
0.07370930 0.49636550 0.04776935
0.10914880 0.49712359 0.04789885
0.14352409 0.49785907 0.04802633
0.17733921 0.49858273 0.04815354
0.21078783 0.49929869 0.04828110
0.24397346 0.50000918 0.04840936
0.27696047 0.50071555 0.04853851
0.30979272 0.50141875 0.04866868
0.34250194 0.50211946 0.04879996
0.37511208 0.50281818 0.04893243
0.40764189 0.50351531 0.04906614
0.44010637 0.50421118 0.04920112
0.47251778 0.50490604 0.04933740
0.50488642 0.50560012 0.04947502
0.53722090 0.50629359 0.04961398
0.56952860 0.50698662 0.04975432
0.60181593 0.50767934 0.04989604
0.63428228 0.50854789 0.05055175
0.66714390 0.50988247 0.05257124
0.69982478 0.51121140 0.05458333
0.73233015 0.51253488 0.05658831
0.76466473 0.51385309 0.05858644
0.79683282 0.51516620 0.06057796
0.82883833 0.51647436 0.06256310
0.86068481 0.51777769 0.06454204
0.89237568 0.51907633 0.06651499
0.92391393 0.52037039 0.06848210
0.95530241 0.52165998 0.07044354
0.95819886 0.52177906 0.07062472
0.95819886 0.52177906 0.07062472
0.95819886 0.52177906 0.07062472
0.95819886 0.52177906 0.07062472
0.95819886 0.52177906 0.07062472
0.07331786 0.52652412 0.04811818
0.10889576 0.52732774 0.04825392
0.14340493 0.52810726 0.04838745
0.17735138 0.52887412 0.04852058
0.21092956 0.52963271 0.04865399
0.24424339 0.53038536 0.04878803
0.27735749 0.53113354 0.04892291
0.31031592 0.53187825 0.04905877
0.34315052 0.53262020 0.04919571
0.37588534 0.53335994 0.04933381
0.40853921 0.53409788 0.04947311
0.44112719 0.53483438 0.04961366
0.47366159 0.53556970 0.04975549
0.50615276 0.53630408 0.04989864
0.53889998 0.53720837 0.05060758
0.57218945 0.53851130 0.05264456
0.60527901 0.53980798 0.05467304
0.63817595 0.54109869 0.05669345
0.67088676 0.54238366 0.05870614
0.70341722 0.54366311 0.06071144
0.73577253 0.54493723 0.06270965
0.76795741 0.54620619 0.06470102
0.79997611 0.54747016 0.06668581
0.83183256 0.54872928 0.06866422
0.86353028 0.54998367 0.07063646
0.89507267 0.55123347 0.07260270
0.92646273 0.55247878 0.07456313
0.95770328 0.55371970 0.07651789
0.96058605 0.55383429 0.07669846
0.96058605 0.55383429 0.07669846
0.96058605 0.55383429 0.07669846
0.96058605 0.55383429 0.07669846
0.96058605 0.55383429 0.07669846
0.07294299 0.55690784 0.04848359
0.10865930 0.55775699 0.04862557
0.14330235 0.55858056 0.04876514
0.17738013 0.55939062 0.04890419
0.21108786 0.56019182 0.04904344
0.24452989 0.56098665 0.04918327
0.27777109 0.56177664 0.04932388
0.31085570 0.56256286 0.04946543
0.34381567 0.56334605 0.04960803
0.37667517 0.56412680 0.04975175
0.40945310 0.56490556 0.04989665
0.44253034 0.56582901 0.05060282
0.47632067 0.56710216 0.05266148
0.50988289 0.56836819 0.05471002
0.54322793 0.56962747 0.05674909
0.57636528 0.57088036 0.05877920
0.60930318 0.57212716 0.06080085
0.64204891 0.57336812 0.06281443
0.67460891 0.57460347 0.06482032
0.70698895 0.57583344 0.06681883
0.73919420 0.57705820 0.06881027
0.77122937 0.57827791 0.07079489
0.80309870 0.57949274 0.07277294
0.83480608 0.58070282 0.07474463
0.86635504 0.58190828 0.07671015
0.89774896 0.58310923 0.07866970
0.92899082 0.58430579 0.08062344
0.96008343 0.58549805 0.08257153
0.96295253 0.58560814 0.08275148
0.96295253 0.58560814 0.08275148
0.96295253 0.58560814 0.08275148
0.96295253 0.58560814 0.08275148
0.96295253 0.58560814 0.08275148
0.07258469 0.58751667 0.04886556
0.10843941 0.58841135 0.04901379
0.14321633 0.58927895 0.04915939
0.17742544 0.59013222 0.04930437
0.21126274 0.59097604 0.04944947
0.24483296 0.59181304 0.04959508
0.27820126 0.59264484 0.04974143
0.31141204 0.59347257 0.04988867
0.34488091 0.59440353 0.05052055
0.37928754 0.59565001 0.05260756
0.41342012 0.59688792 0.05468180
0.44729710 0.59811789 0.05674435
0.48093368 0.59934047 0.05879607
0.51434274 0.60055611 0.06083771
0.54753517 0.60176519 0.06286988
0.58052040 0.60296804 0.06489314
0.61330665 0.60416495 0.06690794
0.64590115 0.60535616 0.06891470
0.67831034 0.60654191 0.07091378
0.71053996 0.60772239 0.07290551
0.74259516 0.60889778 0.07489018
0.77448061 0.61006825 0.07686805
0.80620056 0.61123394 0.07883936
0.83775889 0.61239499 0.08080432
0.86915908 0.61355151 0.08276313
0.90040452 0.61470362 0.08471599
0.93149819 0.61585142 0.08666304
0.96244287 0.61699502 0.08860445
0.96529830 0.61710061 0.08878379
0.96529830 0.61710061 0.08878379
0.96529830 0.61710061 0.08878379
0.96529830 0.61710061 0.08878379
0.96529830 0.61710061 0.08878379
0.07224296 0.61835060 0.04926411
0.10823609 0.61929081 0.04941858
0.14314688 0.62020245 0.04957022
0.17748733 0.62109892 0.04972113
0.21145418 0.62198536 0.04987207
0.24544018 0.62291967 0.05033092
0.28067405 0.62414541 0.05245858
0.31554551 0.62535980 0.05456833
0.35009225 0.62656410 0.05666235
0.38434303 0.62775932 0.05874233
0.41832053 0.62894621 0.06080958
0.45204314 0.63012540 0.06286516
0.48552598 0.63129741 0.06490995
0.51878189 0.63246266 0.06694467
0.55182170 0.63362153 0.06896996
0.58465480 0.63477434 0.07098636
0.61728939 0.63592136 0.07299432
0.64973268 0.63706283 0.07499425
0.68199106 0.63819896 0.07698653
0.71407026 0.63932996 0.07897148
0.74597540 0.64045599 0.08094938
0.77771114 0.64157721 0.08292049
0.80928172 0.64269376 0.08488506
0.84069097 0.64380577 0.08684330
0.87194241 0.64491335 0.08879540
0.90303938 0.64601662 0.09074156
0.93398484 0.64711568 0.09268192
0.96478160 0.64821061 0.09461666
0.96762335 0.64831170 0.09479538
0.96762335 0.64831170 0.09479538
0.96762335 0.64831170 0.09479538
0.96762335 0.64831170 0.09479538
0.96762335 0.64831170 0.09479538
0.07191781 0.64940963 0.04967922
0.10804935 0.65039537 0.04983994
0.14309401 0.65135105 0.04999762
0.17964146 0.65256710 0.05216534
0.21561646 0.65376840 0.05433199
0.25110412 0.65495456 0.05647336
0.28617912 0.65612805 0.05859386
0.32089287 0.65729055 0.06069649
0.35528288 0.65844330 0.06278344
0.38937780 0.65958724 0.06485639
0.42320024 0.66072312 0.06691664
0.45676846 0.66185152 0.06896526
0.49009757 0.66297296 0.07100311
0.52320032 0.66408783 0.07303092
0.55608751 0.66519650 0.07504933
0.58876849 0.66629926 0.07705886
0.62125143 0.66739639 0.07905998
0.65354350 0.66848811 0.08105310
0.68565107 0.66957464 0.08303857
0.71757984 0.67065616 0.08501673
0.74933492 0.67173282 0.08698786
0.78092096 0.67280479 0.08895222
0.81234215 0.67387220 0.09091005
0.84360235 0.67493517 0.09286156
0.87470502 0.67599382 0.09480695
0.90565352 0.67704825 0.09674641
0.93645079 0.67809855 0.09868009
0.96709961 0.67914482 0.10060816
0.96992769 0.67924142 0.10078626
0.96992769 0.67924142 0.10078626
0.96992769 0.67924142 0.10078626
