luts/cubes/summer_pastel.cube
TITLE "summer_pastel"
LUT_3D_SIZE 9
DOMAIN_MIN 0.0 0.0 0.0
DOMAIN_MAX 1.0 1.0 1.0
0.05054202 0.04038121 0.04038121
0.18469322 0.04523225 0.04523225
0.31146237 0.04981634 0.04981634
0.43522002 0.05429154 0.05429154
0.55703595 0.05869652 0.05869652
0.67741945 0.06304971 0.06304971
0.79666962 0.06736191 0.06736191
0.88661440 0.07061440 0.07061440
0.88661440 0.07061440 0.07061440
0.06707054 0.18786836 0.05690973
0.20122174 0.19271940 0.06176077
0.32799089 0.19730350 0.06634486
0.45174854 0.20177869 0.07082006
0.57356447 0.20618368 0.07522504
0.69394797 0.21053686 0.07957823
0.81319814 0.21484906 0.08389043
0.90314292 0.21810155 0.08714292
0.90314292 0.21810155 0.08714292
0.08252576 0.32577823 0.07236495
0.21667696 0.33062926 0.07721598
0.34344611 0.33521336 0.08180008
0.46720376 0.33968856 0.08627528
0.58901969 0.34409354 0.09068026
0.70940319 0.34844672 0.09503344
0.82865335 0.35275892 0.09934565
0.91859814 0.35601142 0.10259814
0.91859814 0.35601142 0.10259814
0.09760020 0.46029041 0.08743939
0.23175140 0.46514145 0.09229043
0.35852056 0.46972554 0.09687453
0.48227820 0.47420074 0.10134972
0.60409414 0.47860572 0.10575471
0.72447763 0.48295891 0.11010789
0.84372780 0.48727111 0.11442009
0.93367258 0.49052360 0.11767258
0.93367258 0.49052360 0.11767258
0.11243258 0.59264258 0.10227177
0.24658378 0.59749361 0.10712281
0.37335294 0.60207771 0.11170691
0.49711058 0.60655291 0.11618210
0.61892652 0.61095789 0.12058709
0.73931001 0.61531107 0.12494027
0.85856018 0.61962327 0.12925247
0.94850496 0.62287576 0.13250496
0.94850496 0.62287576 0.13250496
0.12708752 0.72341142 0.11692672
0.26123872 0.72826246 0.12177775
0.38800788 0.73284655 0.12636185
0.51176552 0.73732175 0.13083705
0.63358146 0.74172673 0.13524203
0.75396496 0.74607992 0.13959521
0.87321512 0.75039212 0.14390741
0.96315990 0.75364461 0.14715990
0.96315990 0.75364461 0.14715990
0.14160260 0.85293220 0.13144179
0.27575380 0.85778324 0.13629283
0.40252295 0.86236733 0.14087692
0.52628060 0.86684253 0.14535212
0.64809653 0.87124751 0.14975710
0.76848003 0.87560070 0.15411029
0.88773019 0.87991290 0.15842249
0.97767498 0.88316539 0.16167498
0.97767498 0.88316539 0.16167498
0.15353082 0.95937001 0.14337001
0.28768202 0.96422105 0.14822105
0.41445117 0.96880514 0.15280514
0.53820882 0.97328034 0.15728034
0.66002475 0.97768532 0.16168532
0.78040825 0.98203851 0.16603851
0.89965842 0.98635071 0.17035071
0.98960320 0.98960320 0.17360320
0.98960320 0.98960320 0.17360320
0.15353082 0.95937001 0.14337001
0.28768202 0.96422105 0.14822105
0.41445117 0.96880514 0.15280514
0.53820882 0.97328034 0.15728034
0.66002475 0.97768532 0.16168532
0.78040825 0.98203851 0.16603851
0.89965842 0.98635071 0.17035071
0.98960320 0.98960320 0.17360320
0.98960320 0.98960320 0.17360320
0.05200501 0.04184420 0.15666809
0.18615621 0.04669524 0.16151912
0.31292536 0.05127933 0.16610322
0.43668301 0.05575453 0.17057842
0.55849894 0.06015951 0.17498340
0.67888244 0.06451270 0.17933658
0.79813261 0.06882490 0.18364878
0.88807739 0.07207739 0.18690128
0.88807739 0.07207739 0.18690128
0.06853353 0.18933135 0.17319661
0.20268473 0.19418239 0.17804764
0.32945388 0.19876649 0.18263174
0.45321153 0.20324168 0.18710694
0.57502746 0.20764667 0.19151192
0.69541096 0.21199985 0.19586510
0.81466113 0.21631205 0.20017731
0.90460591 0.21956454 0.20342980
0.90460591 0.21956454 0.20342980
0.08398875 0.32724122 0.18865182
0.21813995 0.33209226 0.19350286
0.34490910 0.33667635 0.19808696
0.46866675 0.34115155 0.20256215
0.59048268 0.34555653 0.20696714
0.71086618 0.34990971 0.21132032
0.83011634 0.35422192 0.21563252
0.92006113 0.35747441 0.21888501
0.92006113 0.35747441 0.21888501
0.09906319 0.46175340 0.20372627
0.23321439 0.46660444 0.20857731
0.35998355 0.47118853 0.21316140
0.48374120 0.47566373 0.21763660
0.60555713 0.48006871 0.22204158
0.72594063 0.48442190 0.22639477
0.84519079 0.48873410 0.23070697
0.93513558 0.49198659 0.23395946
0.93513558 0.49198659 0.23395946
0.11389557 0.59410557 0.21855865
0.24804677 0.59895660 0.22340969
0.37481593 0.60354070 0.22799378
0.49857357 0.60801590 0.23246898
0.62038951 0.61242088 0.23687396
0.74077301 0.61677406 0.24122715
0.86002317 0.62108627 0.24553935
0.94996796 0.62433876 0.24879184
0.94996796 0.62433876 0.24879184
0.12855051 0.72487441 0.23321359
0.26270172 0.72972545 0.23806463
0.38947087 0.73430955 0.24264873
0.51322852 0.73878474 0.24712392
0.63504445 0.74318972 0.25152890
0.75542795 0.74754291 0.25588209
0.87467811 0.75185511 0.26019429
0.96462290 0.75510760 0.26344678
0.96462290 0.75510760 0.26344678
0.14306559 0.85439519 0.24772866
0.27721679 0.85924623 0.25257970
0.40398594 0.86383032 0.25716380
0.52774359 0.86830552 0.26163900
0.64955952 0.87271050 0.26604398
0.76994302 0.87706369 0.27039716
0.88919319 0.88137589 0.27470936
0.97913797 0.88462838 0.27796185
0.97913797 0.88462838 0.27796185
0.15499381 0.96083300 0.25965689
0.28914501 0.96568404 0.26450792
0.41591416 0.97026814 0.26909202
0.53967181 0.97474333 0.27356722
0.66148775 0.97914831 0.27797220
0.78187124 0.98350150 0.28232538
0.90112141 0.98781370 0.28663759
0.99106619 0.99106619 0.28989008
0.99106619 0.99106619 0.28989008
0.15499381 0.96083300 0.25965689
0.28914501 0.96568404 0.26450792
0.41591416 0.97026814 0.26909202
0.53967181 0.97474333 0.27356722
0.66148775 0.97914831 0.27797220
0.78187124 0.98350150 0.28232538
0.90112141 0.98781370 0.28663759
0.99106619 0.99106619 0.28989008
0.99106619 0.99106619 0.28989008
0.05346800 0.04330719 0.27295496
0.18761920 0.04815823 0.27780600
0.31438835 0.05274233 0.28239010
0.43814600 0.05721752 0.28686529
0.55996194 0.06162251 0.29127028
0.68034543 0.06597569 0.29562346
0.79959560 0.07028789 0.29993566
0.88954038 0.07354038 0.30318815
0.88954038 0.07354038 0.30318815
0.06999652 0.19079435 0.28948348
0.20414772 0.19564538 0.29433452
0.33091687 0.20022948 0.29891862
0.45467452 0.20470468 0.30339381
0.57649046 0.20910966 0.30779880
0.69687395 0.21346284 0.31215198
0.81612412 0.21777504 0.31646418
0.90606890 0.22102754 0.31971667
0.90606890 0.22102754 0.31971667
0.08545174 0.32870421 0.30493870
0.21960294 0.33355525 0.30978974
0.34637209 0.33813934 0.31437383
0.47012974 0.34261454 0.31884903
0.59194567 0.34701952 0.32325401
0.71232917 0.35137271 0.32760720
0.83157934 0.35568491 0.33191940
0.92152412 0.35893740 0.33517189
0.92152412 0.35893740 0.33517189
0.10052619 0.46321639 0.32001315
0.23467739 0.46806743 0.32486419
0.36144654 0.47265153 0.32944828
0.48520419 0.47712672 0.33392348
0.60702012 0.48153170 0.33832846
0.72740362 0.48588489 0.34268164
0.84665378 0.49019709 0.34699385
0.93659857 0.49344958 0.35024634
0.93659857 0.49344958 0.35024634
0.11535857 0.59556856 0.33484553
0.24950977 0.60041960 0.33969656
0.37627892 0.60500369 0.34428066
0.50003657 0.60947889 0.34875586
0.62185250 0.61388387 0.35316084
0.74223600 0.61823705 0.35751402
0.86148616 0.62254926 0.36182623
0.95143095 0.62580175 0.36507872
0.95143095 0.62580175 0.36507872
0.13001351 0.72633740 0.34950047
0.26416471 0.73118844 0.35435151
0.39093386 0.73577254 0.35893560
0.51469151 0.74024773 0.36341080
0.63650744 0.74465272 0.36781578
0.75689094 0.74900590 0.37216896
0.87614110 0.75331810 0.37648117
0.96608589 0.75657059 0.37973366
0.96608589 0.75657059 0.37973366
0.14452858 0.85585818 0.36401554
0.27867978 0.86070922 0.36886658
0.40544893 0.86529332 0.37345067
0.52920658 0.86976851 0.37792587
0.65102251 0.87417349 0.38233085
0.77140601 0.87852668 0.38668404
0.89065618 0.88283888 0.39099624
0.98060096 0.88609137 0.39424873
0.98060096 0.88609137 0.39424873
0.15645680 0.96229599 0.37594376
0.29060800 0.96714703 0.38079480
0.41737715 0.97173113 0.38537890
0.54113480 0.97620632 0.38985409
0.66295074 0.98061131 0.39425908
0.78333423 0.98496449 0.39861226
0.90258440 0.98927669 0.40292446
0.99252918 0.99252918 0.40617695
0.99252918 0.99252918 0.40617695
0.15645680 0.96229599 0.37594376
0.29060800 0.96714703 0.38079480
0.41737715 0.97173113 0.38537890
0.54113480 0.97620632 0.38985409
0.66295074 0.98061131 0.39425908
0.78333423 0.98496449 0.39861226
0.90258440 0.98927669 0.40292446
0.99252918 0.99252918 0.40617695
0.99252918 0.99252918 0.40617695
0.05493099 0.04477018 0.38924184
0.18908219 0.04962122 0.39409288
0.31585135 0.05420532 0.39867697
0.43960899 0.05868051 0.40315217
0.56142493 0.06308550 0.40755715
0.68180842 0.06743868 0.41191034
0.80105859 0.07175088 0.41622254
0.89100337 0.07500337 0.41947503
0.89100337 0.07500337 0.41947503
0.07145951 0.19225734 0.40577036
0.20561071 0.19710838 0.41062140
0.33237987 0.20169247 0.41520549
0.45613751 0.20616767 0.41968069
0.57795345 0.21057265 0.42408567
0.69833694 0.21492583 0.42843886
0.81758711 0.21923804 0.43275106
0.90753189 0.22249053 0.43600355
0.90753189 0.22249053 0.43600355
0.08691473 0.33016720 0.42122558
0.22106593 0.33501824 0.42607661
0.34783508 0.33960233 0.43066071
0.47159273 0.34407753 0.43513591
0.59340866 0.34848251 0.43954089
0.71379216 0.35283570 0.44389407
0.83304233 0.35714790 0.44820628
0.92298711 0.36040039 0.45145877
0.92298711 0.36040039 0.45145877
0.10198918 0.46467938 0.43630002
0.23614038 0.46953042 0.44115106
0.36290953 0.47411452 0.44573516
0.48666718 0.47858971 0.45021035
0.60848311 0.48299470 0.45461534
0.72886661 0.48734788 0.45896852
0.84811678 0.49166008 0.46328072
0.93806156 0.49491257 0.46653321
0.93806156 0.49491257 0.46653321
0.11682156 0.59703155 0.45113240
0.25097276 0.60188259 0.45598344
0.37774191 0.60646668 0.46056754
0.50149956 0.61094188 0.46504273
0.62331549 0.61534686 0.46944772
0.74369899 0.61970005 0.47380090
0.86294916 0.62401225 0.47811310
0.95289394 0.62726474 0.48136559
0.95289394 0.62726474 0.48136559
0.13147650 0.72780039 0.46578734
0.26562770 0.73265143 0.47063838
0.39239685 0.73723553 0.47522248
0.51615450 0.74171072 0.47969767
0.63797043 0.74611571 0.48410266
0.75835393 0.75046889 0.48845584
0.87760410 0.75478109 0.49276804
0.96754888 0.75803358 0.49602053
0.96754888 0.75803358 0.49602053
0.14599157 0.85732117 0.48030242
0.28014277 0.86217221 0.48515346
0.40691192 0.86675631 0.48973755
0.53066957 0.87123150 0.49421275
0.65248551 0.87563649 0.49861773
0.77286900 0.87998967 0.50297091
0.89211917 0.88430187 0.50728312
0.98206395 0.88755436 0.51053561
0.98206395 0.88755436 0.51053561
0.15791979 0.96375898 0.49223064
0.29207099 0.96861002 0.49708168
0.41884015 0.97319412 0.50166577
0.54259779 0.97766931 0.50614097
0.66441373 0.98207430 0.51054595
0.78479723 0.98642748 0.51489914
0.90404739 0.99073968 0.51921134
0.99399217 0.99399217 0.52246383
0.99399217 0.99399217 0.52246383
0.15791979 0.96375898 0.49223064
0.29207099 0.96861002 0.49708168
0.41884015 0.97319412 0.50166577
0.54259779 0.97766931 0.50614097
0.66441373 0.98207430 0.51054595
0.78479723 0.98642748 0.51489914
0.90404739 0.99073968 0.51921134
0.99399217 0.99399217 0.52246383
0.99399217 0.99399217 0.52246383
0.05639398 0.04623318 0.50552872
0.19054518 0.05108421 0.51037975
0.31731434 0.05566831 0.51496385
0.44107198 0.06014351 0.51943905
0.56288792 0.06454849 0.52384403
0.68327142 0.06890167 0.52819721
0.80252158 0.07321387 0.53250941
0.89246636 0.07646636 0.53576190
0.89246636 0.07646636 0.53576190
0.07292250 0.19372033 0.52205724
0.20707370 0.19857137 0.52690827
0.33384286 0.20315546 0.53149237
0.45760050 0.20763066 0.53596757
0.57941644 0.21203564 0.54037255
0.69979994 0.21638883 0.54472573
0.81905010 0.22070103 0.54903793
0.90899488 0.22395352 0.55229043
0.90899488 0.22395352 0.55229043
0.08837772 0.33163019 0.53751245
0.22252892 0.33648123 0.54236349
0.34929807 0.34106532 0.54694759
0.47305572 0.34554052 0.55142278
0.59487166 0.34994550 0.55582777
0.71525515 0.35429869 0.56018095
0.83450532 0.35861089 0.56449315
0.92445010 0.36186338 0.56774564
0.92445010 0.36186338 0.56774564
0.10345217 0.46614237 0.55258690
0.23760337 0.47099341 0.55743794
0.36437252 0.47557751 0.56202203
0.48813017 0.48005271 0.56649723
0.60994610 0.48445769 0.57090221
0.73032960 0.48881087 0.57525540
0.84957977 0.49312307 0.57956760
0.93952455 0.49637556 0.58282009
0.93952455 0.49637556 0.58282009
0.11828455 0.59849454 0.56741928
0.25243575 0.60334558 0.57227032
0.37920490 0.60792967 0.57685441
0.50296255 0.61240487 0.58132961
0.62477848 0.61680985 0.58573459
0.74516198 0.62116304 0.59008778
0.86441215 0.62547524 0.59439998
0.95435693 0.62872773 0.59765247
0.95435693 0.62872773 0.59765247
0.13293949 0.72926339 0.58207422
0.26709069 0.73411442 0.58692526
0.39385984 0.73869852 0.59150935
0.51761749 0.74317372 0.59598455
0.63943342 0.74757870 0.60038953
0.75981692 0.75193188 0.60474272
0.87906709 0.75624408 0.60905492
0.96901187 0.75949658 0.61230741
0.96901187 0.75949658 0.61230741
0.14745456 0.85878416 0.59658929
0.28160576 0.86363520 0.60144033
0.40837492 0.86821930 0.60602443
0.53213256 0.87269449 0.61049962
0.65394850 0.87709948 0.61490461
0.77433199 0.88145266 0.61925779
0.89358216 0.88576486 0.62356999
0.98352694 0.88901735 0.62682248
0.98352694 0.88901735 0.62682248
0.15938278 0.96522198 0.60851752
0.29353399 0.97007301 0.61336855
0.42030314 0.97465711 0.61795265
0.54406079 0.97913231 0.62242785
0.66587672 0.98353729 0.62683283
0.78626022 0.98789047 0.63118601
0.90551038 0.99220267 0.63549822
0.99545517 0.99545517 0.63875071
0.99545517 0.99545517 0.63875071
0.15938278 0.96522198 0.60851752
0.29353399 0.97007301 0.61336855
0.42030314 0.97465711 0.61795265
0.54406079 0.97913231 0.62242785
0.66587672 0.98353729 0.62683283
0.78626022 0.98789047 0.63118601
0.90551038 0.99220267 0.63549822
0.99545517 0.99545517 0.63875071
0.99545517 0.99545517 0.63875071
0.05785697 0.04769617 0.62181559
0.19200818 0.05254720 0.62666663
0.31877733 0.05713130 0.63125073
0.44253498 0.06160650 0.63572592
0.56435091 0.06601148 0.64013090
0.68473441 0.07036466 0.64448409
0.80398457 0.07467687 0.64879629
0.89392936 0.07792936 0.65204878
0.89392936 0.07792936 0.65204878
0.07438550 0.19518332 0.63834411
0.20853670 0.20003436 0.64319515
0.33530585 0.20461845 0.64777925
0.45906350 0.20909365 0.65225444
0.58087943 0.21349863 0.65665942
0.70126293 0.21785182 0.66101261
0.82051309 0.22216402 0.66532481
0.91045788 0.22541651 0.66857730
0.91045788 0.22541651 0.66857730
0.08984071 0.33309318 0.65379933
0.22399191 0.33794422 0.65865037
0.35076107 0.34252832 0.66323446
0.47451871 0.34700351 0.66770966
0.59633465 0.35140850 0.67211464
0.71671814 0.35576168 0.67646783
0.83596831 0.36007388 0.68078003
0.92591309 0.36332637 0.68403252
0.92591309 0.36332637 0.68403252
0.10491516 0.46760537 0.66887378
0.23906636 0.47245640 0.67372481
0.36583551 0.47704050 0.67830891
0.48959316 0.48151570 0.68278411
0.61140909 0.48592068 0.68718909
0.73179259 0.49027386 0.69154227
0.85104276 0.49458606 0.69585448
0.94098754 0.49783856 0.69910697
0.94098754 0.49783856 0.69910697
0.11974754 0.59995753 0.68370616
0.25389874 0.60480857 0.68855719
0.38066789 0.60939267 0.69314129
0.50442554 0.61386786 0.69761649
0.62624147 0.61827284 0.70202147
0.74662497 0.62262603 0.70637465
0.86587514 0.62693823 0.71068686
0.95581992 0.63019072 0.71393935
0.95581992 0.63019072 0.71393935
0.13440248 0.73072638 0.69836110
0.26855368 0.73557741 0.70321214
0.39532283 0.74016151 0.70779623
0.51908048 0.74463671 0.71227143
0.64089642 0.74904169 0.71667641
0.76127991 0.75339487 0.72102959
0.88053008 0.75770708 0.72534180
0.97047486 0.76095957 0.72859429
0.97047486 0.76095957 0.72859429
0.14891755 0.86024716 0.71287617
0.28306875 0.86509819 0.71772721
0.40983791 0.86968229 0.72231130
0.53359555 0.87415749 0.72678650
0.65541149 0.87856247 0.73119148
0.77579499 0.88291565 0.73554467
0.89504515 0.88722785 0.73985687
0.98498993 0.89048035 0.74310936
0.98498993 0.89048035 0.74310936
0.16084578 0.96668497 0.72480439
0.29499698 0.97153601 0.72965543
0.42176613 0.97612010 0.73423953
0.54552378 0.98059530 0.73871472
0.66733971 0.98500028 0.74311971
0.78772321 0.98935346 0.74747289
0.90697337 0.99366567 0.75178509
0.99691816 0.99691816 0.75503758
0.99691816 0.99691816 0.75503758
0.16084578 0.96668497 0.72480439
0.29499698 0.97153601 0.72965543
0.42176613 0.97612010 0.73423953
0.54552378 0.98059530 0.73871472
0.66733971 0.98500028 0.74311971
0.78772321 0.98935346 0.74747289
0.90697337 0.99366567 0.75178509
0.99691816 0.99691816 0.75503758
0.99691816 0.99691816 0.75503758
0.05931997 0.04915916 0.73810247
0.19347117 0.05401020 0.74295351
0.32024032 0.05859429 0.74753760
0.44399797 0.06306949 0.75201280
0.56581390 0.06747447 0.75641778
0.68619740 0.07182765 0.76077097
0.80544756 0.07613986 0.76508317
0.89539235 0.07939235 0.76833566
0.89539235 0.07939235 0.76833566
0.07584849 0.19664631 0.75463099
0.20999969 0.20149735 0.75948203
0.33676884 0.20608145 0.76406612
0.46052649 0.21055664 0.76854132
0.58234242 0.21496162 0.77294630
0.70272592 0.21931481 0.77729949
0.82197608 0.22362701 0.78161169
0.91192087 0.22687950 0.78486418
0.91192087 0.22687950 0.78486418
0.09130370 0.33455617 0.77008621
0.22545490 0.33940721 0.77493724
0.35222406 0.34399131 0.77952134
0.47598170 0.34846650 0.78399654
0.59779764 0.35287149 0.78840152
0.71818114 0.35722467 0.79275470
0.83743130 0.36153687 0.79706690
0.92737608 0.36478936 0.80031940
0.92737608 0.36478936 0.80031940
0.10637815 0.46906836 0.78516065
0.24052935 0.47391940 0.79001169
0.36729850 0.47850349 0.79459579
0.49105615 0.48297869 0.79907098
0.61287209 0.48738367 0.80347597
0.73325558 0.49173685 0.80782915
0.85250575 0.49604906 0.81214135
0.94245053 0.49930155 0.81539384
0.94245053 0.49930155 0.81539384
0.12121053 0.60142052 0.79999303
0.25536173 0.60627156 0.80484407
0.38213088 0.61085566 0.80942817
0.50588853 0.61533085 0.81390336
0.62770447 0.61973584 0.81830835
0.74808796 0.62408902 0.82266153
0.86733813 0.62840122 0.82697373
0.95728291 0.63165371 0.83022622
0.95728291 0.63165371 0.83022622
0.13586547 0.73218937 0.81464797
0.27001667 0.73704041 0.81949901
0.39678583 0.74162450 0.82408311
0.52054347 0.74609970 0.82855830
0.64235941 0.75050468 0.83296329
0.76274290 0.75485787 0.83731647
0.88199307 0.75917007 0.84162867
0.97193785 0.76242256 0.84488116
0.97193785 0.76242256 0.84488116
0.15038054 0.86171015 0.82916305
0.28453175 0.86656119 0.83401408
0.41130090 0.87114528 0.83859818
0.53505855 0.87562048 0.84307338
0.65687448 0.88002546 0.84747836
0.77725798 0.88437864 0.85183154
0.89650814 0.88869085 0.85614375
0.98645293 0.89194334 0.85939624
0.98645293 0.89194334 0.85939624
0.16230877 0.96814796 0.84109127
0.29645997 0.97299900 0.84594231
0.42322912 0.97758309 0.85052640
0.54698677 0.98205829 0.85500160
0.66880270 0.98646327 0.85940658
0.78918620 0.99081646 0.86375977
0.90843637 0.99512866 0.86807197
0.99838115 0.99838115 0.87132446
0.99838115 0.99838115 0.87132446
0.16230877 0.96814796 0.84109127
0.29645997 0.97299900 0.84594231
0.42322912 0.97758309 0.85052640
0.54698677 0.98205829 0.85500160
0.66880270 0.98646327 0.85940658
0.78918620 0.99081646 0.86375977
0.90843637 0.99512866 0.86807197
0.99838115 0.99838115 0.87132446
0.99838115 0.99838115 0.87132446
0.06078296 0.05062215 0.85438930
0.19493416 0.05547319 0.85924033
0.32170331 0.06005728 0.86382443
0.44546096 0.06453248 0.86829963
0.56727689 0.06893746 0.87270461
0.68766039 0.07329065 0.87705779
0.80691056 0.07760285 0.88137000
0.89685534 0.08085534 0.88462249
0.89685534 0.08085534 0.88462249
0.07731148 0.19810930 0.87091782
0.21146268 0.20296034 0.87576885
0.33823183 0.20754444 0.88035295
0.46198948 0.21201963 0.88482815
0.58380541 0.21642462 0.88923313
0.70418891 0.22077780 0.89358631
0.82343908 0.22509000 0.89789852
0.91338386 0.22834249 0.90115101
0.91338386 0.22834249 0.90115101
0.09276669 0.33601917 0.88637303
0.22691790 0.34087020 0.89122407
0.35368705 0.34545430 0.89580817
0.47744470 0.34992950 0.90028336
0.59926063 0.35433448 0.90468835
0.71964413 0.35868766 0.90904153
0.83889429 0.36299986 0.91335373
0.92883908 0.36625235 0.91660622
0.92883908 0.36625235 0.91660622
0.10784114 0.47053135 0.90144748
0.24199234 0.47538239 0.90629852
0.36876150 0.47996648 0.91088261
0.49251914 0.48444168 0.91535781
0.61433508 0.48884666 0.91976279
0.73471857 0.49319985 0.92411598
0.85396874 0.49751205 0.92842818
0.94391352 0.50076454 0.93168067
0.94391352 0.50076454 0.93168067
0.12267352 0.60288351 0.91627986
0.25682472 0.60773455 0.92113090
0.38359388 0.61231865 0.92571499
0.50735152 0.61679384 0.93019019
0.62916746 0.62119883 0.93459517
0.74955095 0.62555201 0.93894836
0.86880112 0.62986421 0.94326056
0.95874590 0.63311670 0.94651305
0.95874590 0.63311670 0.94651305
0.13732846 0.73365236 0.93093480
0.27147966 0.73850340 0.93578584
0.39824882 0.74308749 0.94036994
0.52200646 0.74756269 0.94484513
0.64382240 0.75196767 0.94925011
0.76420589 0.75632086 0.95360330
0.88345606 0.76063306 0.95791550
0.97340084 0.76388555 0.96116799
0.97340084 0.76388555 0.96116799
0.15184354 0.86317314 0.94544988
0.28599474 0.86802418 0.95030091
0.41276389 0.87260827 0.95488501
0.53652154 0.87708347 0.95936021
0.65833747 0.88148845 0.96376519
0.77872097 0.88584164 0.96811837
0.89797113 0.89015384 0.97243057
0.98791592 0.89340633 0.97568306
0.98791592 0.89340633 0.97568306
0.16377176 0.96961095 0.95737810
0.29792296 0.97446199 0.96222914
0.42469211 0.97904608 0.96681323
0.54844976 0.98352128 0.97128843
0.67026569 0.98792626 0.97569341
0.79064919 0.99227945 0.98004659
0.90989936 0.99659165 0.98435880
0.99984414 0.99984414 0.98761129
0.99984414 0.99984414 0.98761129
0.16377176 0.96961095 0.95737810
0.29792296 0.97446199 0.96222914
0.42469211 0.97904608 0.96681323
0.54844976 0.98352128 0.97128843
0.67026569 0.98792626 0.97569341
0.79064919 0.99227945 0.98004659
0.90989936 0.99659165 0.98435880
0.99984414 0.99984414 0.98761129
0.99984414 0.99984414 0.98761129
0.06093882 0.05077801 0.86677801
0.19509002 0.05562905 0.87162905
0.32185917 0.06021314 0.87621314
0.44561682 0.06468834 0.88068834
0.56743275 0.06909332 0.88509332
0.68781625 0.07344651 0.88944651
0.80706642 0.07775871 0.89375871
0.89701120 0.08101120 0.89701120
0.89701120 0.08101120 0.89701120
0.07746734 0.19826516 0.88330653
0.21161854 0.20311620 0.88815757
0.33838769 0.20770030 0.89274166
0.46214534 0.21217549 0.89721686
0.58396127 0.21658048 0.90162184
0.70434477 0.22093366 0.90597503
0.82359494 0.22524586 0.91028723
0.91353972 0.22849835 0.91353972
0.91353972 0.22849835 0.91353972
0.09292256 0.33617503 0.89876175
0.22707376 0.34102606 0.90361278
0.35384291 0.34561016 0.90819688
0.47760056 0.35008536 0.91267208
0.59941649 0.35449034 0.91707706
0.71979999 0.35884352 0.92143024
0.83905015 0.36315572 0.92574245
0.92899494 0.36640822 0.92899494
0.92899494 0.36640822 0.92899494
0.10799700 0.47068721 0.91383619
0.24214820 0.47553825 0.91868723
0.36891736 0.48012234 0.92327133
0.49267500 0.48459754 0.92774652
0.61449094 0.48900252 0.93215151
0.73487443 0.49335571 0.93650469
0.85412460 0.49766791 0.94081689
0.94406938 0.50092040 0.94406938
0.94406938 0.50092040 0.94406938
0.12282938 0.60303938 0.92866857
0.25698058 0.60789041 0.93351961
0.38374974 0.61247451 0.93810371
0.50750738 0.61694971 0.94257890
0.62932332 0.62135469 0.94698389
0.74970681 0.62570787 0.95133707
0.86895698 0.63002007 0.95564927
0.95890176 0.63327256 0.95890176
0.95890176 0.63327256 0.95890176
0.13748432 0.73380822 0.94332352
0.27163552 0.73865926 0.94817455
0.39840468 0.74324335 0.95275865
0.52216232 0.74771855 0.95723385
0.64397826 0.75212353 0.96163883
0.76436176 0.75647672 0.96599201
0.88361192 0.76078892 0.97030421
0.97355670 0.76404141 0.97355670
0.97355670 0.76404141 0.97355670
0.15199940 0.86332900 0.95783859
0.28615060 0.86818004 0.96268963
0.41291975 0.87276413 0.96727372
0.53667740 0.87723933 0.97174892
0.65849333 0.88164431 0.97615390
0.77887683 0.88599750 0.98050709
0.89812700 0.89030970 0.98481929
0.98807178 0.89356219 0.98807178
0.98807178 0.89356219 0.98807178
0.16392762 0.96976681 0.96976681
0.29807882 0.97461785 0.97461785
0.42484797 0.97920194 0.97920194
0.54860562 0.98367714 0.98367714
0.67042155 0.98808212 0.98808212
0.79080505 0.99243531 0.99243531
0.91005522 0.99674751 0.99674751
1.00000000 1.00000000 1.00000000
1.00000000 1.00000000 1.00000000
0.16392762 0.96976681 0.96976681
0.29807882 0.97461785 0.97461785
0.42484797 0.97920194 0.97920194
0.54860562 0.98367714 0.98367714
0.67042155 0.98808212 0.98808212
0.79080505 0.99243531 0.99243531
0.91005522 0.99674751 0.99674751
1.00000000 1.00000000 1.00000000
1.00000000 1.00000000 1.00000000
