luts/cubes/summer_pastel.cube
TITLE "summer_pastel"
LUT_3D_SIZE 5
DOMAIN_MIN 0.0 0.0 0.0
DOMAIN_MAX 1.0 1.0 1.0
0.05054202 0.04038121 0.04038121
0.31146237 0.04981634 0.04981634
0.55703595 0.05869652 0.05869652
0.79666962 0.06736191 0.06736191
0.88661440 0.07061440 0.07061440
0.08252576 0.32577823 0.07236495
0.34344611 0.33521336 0.08180008
0.58901969 0.34409354 0.09068026
0.82865335 0.35275892 0.09934565
0.91859814 0.35601142 0.10259814
0.11243258 0.59264258 0.10227177
0.37335294 0.60207771 0.11170691
0.61892652 0.61095789 0.12058709
0.85856018 0.61962327 0.12925247
0.94850496 0.62287576 0.13250496
0.14160260 0.85293220 0.13144179
0.40252295 0.86236733 0.14087692
0.64809653 0.87124751 0.14975710
0.88773019 0.87991290 0.15842249
0.97767498 0.88316539 0.16167498
0.15353082 0.95937001 0.14337001
0.41445117 0.96880514 0.15280514
0.66002475 0.97768532 0.16168532
0.89965842 0.98635071 0.17035071
0.98960320 0.98960320 0.17360320
0.05346800 0.04330719 0.27295496
0.31438835 0.05274233 0.28239010
0.55996194 0.06162251 0.29127028
0.79959560 0.07028789 0.29993566
0.88954038 0.07354038 0.30318815
0.08545174 0.32870421 0.30493870
0.34637209 0.33813934 0.31437383
0.59194567 0.34701952 0.32325401
0.83157934 0.35568491 0.33191940
0.92152412 0.35893740 0.33517189
0.11535857 0.59556856 0.33484553
0.37627892 0.60500369 0.34428066
0.62185250 0.61388387 0.35316084
0.86148616 0.62254926 0.36182623
0.95143095 0.62580175 0.36507872
0.14452858 0.85585818 0.36401554
0.40544893 0.86529332 0.37345067
0.65102251 0.87417349 0.38233085
0.89065618 0.88283888 0.39099624
0.98060096 0.88609137 0.39424873
0.15645680 0.96229599 0.37594376
0.41737715 0.97173113 0.38537890
0.66295074 0.98061131 0.39425908
0.90258440 0.98927669 0.40292446
0.99252918 0.99252918 0.40617695
0.05639398 0.04623318 0.50552872
0.31731434 0.05566831 0.51496385
0.56288792 0.06454849 0.52384403
0.80252158 0.07321387 0.53250941
0.89246636 0.07646636 0.53576190
0.08837772 0.33163019 0.53751245
0.34929807 0.34106532 0.54694759
0.59487166 0.34994550 0.55582777
0.83450532 0.35861089 0.56449315
0.92445010 0.36186338 0.56774564
0.11828455 0.59849454 0.56741928
0.37920490 0.60792967 0.57685441
0.62477848 0.61680985 0.58573459
0.86441215 0.62547524 0.59439998
0.95435693 0.62872773 0.59765247
0.14745456 0.85878416 0.59658929
0.40837492 0.86821930 0.60602443
0.65394850 0.87709948 0.61490461
0.89358216 0.88576486 0.62356999
0.98352694 0.88901735 0.62682248
0.15938278 0.96522198 0.60851752
0.42030314 0.97465711 0.61795265
0.66587672 0.98353729 0.62683283
0.90551038 0.99220267 0.63549822
0.99545517 0.99545517 0.63875071
0.05931997 0.04915916 0.73810247
0.32024032 0.05859429 0.74753760
0.56581390 0.06747447 0.75641778
0.80544756 0.07613986 0.76508317
0.89539235 0.07939235 0.76833566
0.09130370 0.33455617 0.77008621
0.35222406 0.34399131 0.77952134
0.59779764 0.35287149 0.78840152
0.83743130 0.36153687 0.79706690
0.92737608 0.36478936 0.80031940
0.12121053 0.60142052 0.79999303
0.38213088 0.61085566 0.80942817
0.62770447 0.61973584 0.81830835
0.86733813 0.62840122 0.82697373
0.95728291 0.63165371 0.83022622
0.15038054 0.86171015 0.82916305
0.41130090 0.87114528 0.83859818
0.65687448 0.88002546 0.84747836
0.89650814 0.88869085 0.85614375
0.98645293 0.89194334 0.85939624
0.16230877 0.96814796 0.84109127
0.42322912 0.97758309 0.85052640
0.66880270 0.98646327 0.85940658
0.90843637 0.99512866 0.86807197
0.99838115 0.99838115 0.87132446
0.06093882 0.05077801 0.86677801
0.32185917 0.06021314 0.87621314
0.56743275 0.06909332 0.88509332
0.80706642 0.07775871 0.89375871
0.89701120 0.08101120 0.89701120
0.09292256 0.33617503 0.89876175
0.35384291 0.34561016 0.90819688
0.59941649 0.35449034 0.91707706
0.83905015 0.36315572 0.92574245
0.92899494 0.36640822 0.92899494
0.12282938 0.60303938 0.92866857
0.38374974 0.61247451 0.93810371
0.62932332 0.62135469 0.94698389
0.86895698 0.63002007 0.95564927
0.95890176 0.63327256 0.95890176
0.15199940 0.86332900 0.95783859
0.41291975 0.87276413 0.96727372
0.65849333 0.88164431 0.97615390
0.89812700 0.89030970 0.98481929
0.98807178 0.89356219 0.98807178
0.16392762 0.96976681 0.96976681
0.42484797 0.97920194 0.97920194
0.67042155 0.98808212 0.98808212
0.91005522 0.99674751 0.99674751
1.00000000 1.00000000 1.00000000
