luts/cubes/summer_pastel.cube
TITLE "summer_pastel"
LUT_3D_SIZE 33
DOMAIN_MIN 0.0 0.0 0.0
DOMAIN_MAX 1.0 1.0 1.0
0.05054202 0.04038121 0.04038121
0.08566808 0.04165140 0.04165140
0.11931921 0.04286826 0.04286826
0.15224792 0.04405899 0.04405899
0.18469322 0.04523225 0.04523225
0.21677554 0.04639238 0.04639238
0.24856765 0.04754201 0.04754201
0.28011828 0.04868291 0.04868291
0.31146237 0.04981634 0.04981634
0.34262612 0.05094325 0.05094325
0.37362990 0.05206438 0.05206438
0.40449008 0.05318032 0.05318032
0.43522002 0.05429154 0.05429154
0.46583083 0.05539846 0.05539846
0.49633185 0.05650140 0.05650140
0.52673125 0.05760067 0.05760067
0.55703595 0.05869652 0.05869652
0.58725205 0.05978917 0.05978917
0.61738491 0.06087880 0.06087880
0.64743925 0.06196559 0.06196559
0.67741945 0.06304971 0.06304971
0.70732928 0.06413127 0.06413127
0.73717216 0.06521042 0.06521042
0.76695133 0.06628727 0.06628727
0.79666962 0.06736191 0.06736191
0.82632964 0.06843444 0.06843444
0.85593381 0.06950496 0.06950496
0.88548432 0.07057353 0.07057353
0.88661440 0.07061440 0.07061440
0.88661440 0.07061440 0.07061440
0.88661440 0.07061440 0.07061440
0.88661440 0.07061440 0.07061440
0.88661440 0.07061440 0.07061440
0.05495613 0.07976919 0.04479532
0.09008219 0.08103938 0.04606552
0.12373333 0.08225624 0.04728237
0.15666204 0.08344698 0.04847311
0.18910733 0.08462023 0.04964636
0.22118965 0.08578036 0.05080649
0.25298176 0.08692999 0.05195612
0.28453239 0.08807089 0.05309702
0.31587648 0.08920432 0.05423046
0.34704023 0.09033124 0.05535737
0.37804402 0.09145236 0.05647850
0.40890419 0.09256830 0.05759443
0.43963413 0.09367952 0.05870565
0.47024494 0.09478644 0.05981257
0.50074597 0.09588938 0.06091552
0.53114537 0.09698866 0.06201479
0.56145007 0.09808450 0.06311064
0.59166616 0.09917715 0.06420328
0.62179902 0.10026678 0.06529291
0.65185337 0.10135357 0.06637971
0.68183356 0.10243769 0.06746382
0.71174339 0.10351926 0.06854539
0.74158627 0.10459840 0.06962454
0.77136545 0.10567525 0.07070138
0.80108373 0.10674989 0.07177602
0.83074375 0.10782243 0.07284856
0.86034793 0.10889294 0.07391907
0.88989843 0.10996152 0.07498765
0.89102851 0.11000238 0.07502851
0.89102851 0.11000238 0.07502851
0.89102851 0.11000238 0.07502851
0.89102851 0.11000238 0.07502851
0.89102851 0.11000238 0.07502851
0.05908361 0.11659946 0.04892280
0.09420967 0.11786965 0.05019299
0.12786080 0.11908651 0.05140985
0.16078951 0.12027724 0.05260058
0.19323481 0.12145050 0.05377384
0.22531713 0.12261062 0.05493397
0.25710924 0.12376026 0.05608360
0.28865987 0.12490116 0.05722450
0.32000396 0.12603459 0.05835793
0.35116771 0.12716150 0.05948484
0.38217149 0.12828263 0.06060597
0.41303167 0.12939856 0.06172191
0.44376161 0.13050979 0.06283313
0.47437242 0.13161670 0.06394005
0.50487344 0.13271965 0.06504299
0.53527284 0.13381892 0.06614227
0.56557754 0.13491477 0.06723811
0.59579364 0.13600741 0.06833076
0.62592650 0.13709705 0.06942039
0.65598084 0.13818384 0.07050718
0.68596104 0.13926795 0.07159130
0.71587087 0.14034952 0.07267287
0.74571375 0.14142867 0.07375201
0.77549292 0.14250551 0.07482886
0.80521121 0.14358016 0.07590350
0.83487123 0.14465269 0.07697603
0.86447541 0.14572321 0.07804655
0.89402591 0.14679178 0.07911512
0.89515599 0.14683265 0.07915599
0.89515599 0.14683265 0.07915599
0.89515599 0.14683265 0.07915599
0.89515599 0.14683265 0.07915599
0.89515599 0.14683265 0.07915599
0.06310940 0.15252234 0.05294859
0.09823546 0.15379253 0.05421878
0.13188659 0.15500939 0.05543564
0.16481530 0.15620012 0.05662637
0.19726060 0.15737338 0.05779963
0.22934291 0.15853350 0.05895975
0.26113503 0.15968314 0.06010939
0.29268566 0.16082404 0.06125029
0.32402975 0.16195747 0.06238372
0.35519350 0.16308438 0.06351063
0.38619728 0.16420551 0.06463176
0.41705746 0.16532144 0.06574769
0.44778740 0.16643267 0.06685892
0.47839820 0.16753958 0.06796584
0.50889923 0.16864253 0.06906878
0.53929863 0.16974180 0.07016805
0.56960333 0.17083765 0.07126390
0.59981942 0.17193029 0.07235654
0.62995228 0.17301993 0.07344618
0.66000663 0.17410672 0.07453297
0.68998683 0.17519083 0.07561709
0.71989666 0.17627240 0.07669865
0.74973954 0.17735155 0.07777780
0.77951871 0.17842839 0.07885465
0.80923699 0.17950304 0.07992929
0.83889702 0.18057557 0.08100182
0.86850119 0.18164609 0.08207234
0.89805170 0.18271466 0.08314091
0.89918178 0.18275553 0.08318178
0.89918178 0.18275553 0.08318178
0.89918178 0.18275553 0.08318178
0.89918178 0.18275553 0.08318178
0.89918178 0.18275553 0.08318178
0.06707054 0.18786836 0.05690973
0.10219660 0.18913856 0.05817992
0.13584773 0.19035541 0.05939678
0.16877644 0.19154615 0.06058751
0.20122174 0.19271940 0.06176077
0.23330406 0.19387953 0.06292090
0.26509617 0.19502916 0.06407053
0.29664680 0.19617006 0.06521143
0.32799089 0.19730350 0.06634486
0.35915464 0.19843041 0.06747177
0.39015842 0.19955154 0.06859290
0.42101860 0.20066747 0.06970884
0.45174854 0.20177869 0.07082006
0.48235935 0.20288561 0.07192698
0.51286037 0.20398856 0.07302992
0.54325977 0.20508783 0.07412920
0.57356447 0.20618368 0.07522504
0.60378057 0.20727632 0.07631769
0.63391343 0.20836595 0.07740732
0.66396777 0.20945275 0.07849411
0.69394797 0.21053686 0.07957823
0.72385780 0.21161843 0.08065980
0.75370068 0.21269758 0.08173894
0.78347985 0.21377442 0.08281579
0.81319814 0.21484906 0.08389043
0.84285816 0.21592160 0.08496296
0.87246234 0.21699211 0.08603348
0.90201284 0.21806069 0.08710205
0.90314292 0.21810155 0.08714292
0.90314292 0.21810155 0.08714292
0.90314292 0.21810155 0.08714292
0.90314292 0.21810155 0.08714292
0.90314292 0.21810155 0.08714292
0.07098429 0.22279155 0.06082348
0.10611035 0.22406174 0.06209368
0.13976149 0.22527860 0.06331053
0.17269020 0.22646933 0.06450127
0.20513549 0.22764258 0.06567452
0.23721781 0.22880271 0.06683465
0.26900992 0.22995235 0.06798428
0.30056055 0.23109325 0.06912519
0.33190465 0.23222668 0.07025862
0.36306840 0.23335359 0.07138553
0.39407218 0.23447472 0.07250666
0.42493235 0.23559065 0.07362259
0.45566229 0.23670188 0.07473381
0.48627310 0.23780879 0.07584073
0.51677413 0.23891174 0.07694368
0.54717353 0.24001101 0.07804295
0.57747823 0.24110686 0.07913880
0.60769432 0.24219950 0.08023144
0.63782718 0.24328914 0.08132107
0.66788153 0.24437593 0.08240787
0.69786172 0.24546004 0.08349198
0.72777156 0.24654161 0.08457355
0.75761444 0.24762076 0.08565270
0.78739361 0.24869760 0.08672954
0.81711189 0.24977225 0.08780418
0.84677191 0.25084478 0.08887672
0.87637609 0.25191530 0.08994723
0.90592660 0.25298387 0.09101581
0.90705667 0.25302474 0.09105667
0.90705667 0.25302474 0.09105667
0.90705667 0.25302474 0.09105667
0.90705667 0.25302474 0.09105667
0.90705667 0.25302474 0.09105667
0.07486069 0.25738142 0.06469989
0.10998676 0.25865161 0.06597008
0.14363789 0.25986847 0.06718694
0.17656660 0.26105920 0.06837767
0.20901190 0.26223246 0.06955092
0.24109421 0.26339259 0.07071105
0.27288632 0.26454222 0.07186069
0.30443695 0.26568312 0.07300159
0.33578105 0.26681655 0.07413502
0.36694480 0.26794347 0.07526193
0.39794858 0.26906459 0.07638306
0.42880875 0.27018053 0.07749899
0.45953870 0.27129175 0.07861022
0.49014950 0.27239867 0.07971713
0.52065053 0.27350161 0.08082008
0.55104993 0.27460089 0.08191935
0.58135463 0.27569673 0.08301520
0.61157072 0.27678938 0.08410784
0.64170358 0.27787901 0.08519748
0.67175793 0.27896580 0.08628427
0.70173813 0.28004992 0.08736838
0.73164796 0.28113149 0.08844995
0.76149084 0.28221063 0.08952910
0.79127001 0.28328748 0.09060594
0.82098829 0.28436212 0.09168058
0.85064832 0.28543465 0.09275312
0.88025249 0.28650517 0.09382364
0.90980300 0.28757374 0.09489221
0.91093308 0.28761461 0.09493308
0.91093308 0.28761461 0.09493308
0.91093308 0.28761461 0.09493308
0.91093308 0.28761461 0.09493308
0.91093308 0.28761461 0.09493308
0.07870630 0.29169654 0.06854550
0.11383237 0.29296673 0.06981569
0.14748350 0.29418359 0.07103255
0.18041221 0.29537432 0.07222328
0.21285751 0.29654758 0.07339653
0.24493982 0.29770770 0.07455666
0.27673193 0.29885734 0.07570630
0.30828256 0.29999824 0.07684720
0.33962666 0.30113167 0.07798063
0.37079041 0.30225858 0.07910754
0.40179419 0.30337971 0.08022867
0.43265436 0.30449564 0.08134460
0.46338431 0.30560687 0.08245583
0.49399511 0.30671378 0.08356274
0.52449614 0.30781673 0.08466569
0.55489554 0.30891600 0.08576496
0.58520024 0.31001185 0.08686081
0.61541633 0.31110449 0.08795345
0.64554919 0.31219413 0.08904309
0.67560354 0.31328092 0.09012988
0.70558374 0.31436503 0.09121399
0.73549357 0.31544660 0.09229556
0.76533645 0.31652575 0.09337471
0.79511562 0.31760259 0.09445155
0.82483390 0.31867724 0.09552620
0.85449393 0.31974977 0.09659873
0.88409810 0.32082029 0.09766925
0.91364861 0.32188886 0.09873782
0.91477869 0.32192973 0.09877869
0.91477869 0.32192973 0.09877869
0.91477869 0.32192973 0.09877869
0.91477869 0.32192973 0.09877869
0.91477869 0.32192973 0.09877869
0.08252576 0.32577823 0.07236495
0.11765182 0.32704842 0.07363514
0.15130295 0.32826528 0.07485200
0.18423166 0.32945601 0.07604273
0.21667696 0.33062926 0.07721598
0.24875927 0.33178939 0.07837611
0.28055138 0.33293903 0.07952575
0.31210202 0.33407993 0.08066665
0.34344611 0.33521336 0.08180008
0.37460986 0.33634027 0.08292699
0.40561364 0.33746140 0.08404812
0.43647381 0.33857733 0.08516405
0.46720376 0.33968856 0.08627528
0.49781456 0.34079547 0.08738219
0.52831559 0.34189842 0.08848514
0.55871499 0.34299769 0.08958441
0.58901969 0.34409354 0.09068026
0.61923578 0.34518618 0.09177290
0.64936864 0.34627582 0.09286254
0.67942299 0.34736261 0.09394933
0.70940319 0.34844672 0.09503344
0.73931302 0.34952829 0.09611501
0.76915590 0.35060744 0.09719416
0.79893507 0.35168428 0.09827100
0.82865335 0.35275892 0.09934565
0.85831338 0.35383146 0.10041818
0.88791755 0.35490198 0.10148870
0.91746806 0.35597055 0.10255727
0.91859814 0.35601142 0.10259814
0.91859814 0.35601142 0.10259814
0.91859814 0.35601142 0.10259814
0.91859814 0.35601142 0.10259814
0.91859814 0.35601142 0.10259814
0.08632248 0.35965711 0.07616167
0.12144854 0.36092730 0.07743186
0.15509967 0.36214416 0.07864872
0.18802838 0.36333489 0.07983945
0.22047368 0.36450815 0.08101271
0.25255600 0.36566827 0.08217283
0.28434811 0.36681791 0.08332247
0.31589874 0.36795881 0.08446337
0.34724283 0.36909224 0.08559680
0.37840658 0.37021915 0.08672371
0.40941036 0.37134028 0.08784484
0.44027054 0.37245621 0.08896078
0.47100048 0.37356744 0.09007200
0.50161129 0.37467435 0.09117892
0.53211231 0.37577730 0.09228186
0.56251171 0.37687657 0.09338113
0.59281641 0.37797242 0.09447698
0.62303251 0.37906506 0.09556963
0.65316537 0.38015470 0.09665926
0.68321971 0.38124149 0.09774605
0.71319991 0.38232560 0.09883017
0.74310974 0.38340717 0.09991173
0.77295262 0.38448632 0.10099088
0.80273179 0.38556316 0.10206773
0.83245008 0.38663781 0.10314237
0.86211010 0.38771034 0.10421490
0.89171427 0.38878086 0.10528542
0.92126478 0.38984943 0.10635399
0.92239486 0.38989030 0.10639486
0.92239486 0.38989030 0.10639486
0.92239486 0.38989030 0.10639486
0.92239486 0.38989030 0.10639486
0.92239486 0.38989030 0.10639486
0.09009912 0.39335680 0.07993831
0.12522518 0.39462700 0.08120850
0.15887631 0.39584385 0.08242536
0.19180503 0.39703459 0.08361610
0.22425032 0.39820784 0.08478935
0.25633264 0.39936797 0.08594948
0.28812475 0.40051760 0.08709911
0.31967538 0.40165851 0.08824001
0.35101947 0.40279194 0.08937344
0.38218322 0.40391885 0.09050036
0.41318701 0.40503998 0.09162148
0.44404718 0.40615591 0.09273742
0.47477712 0.40726713 0.09384864
0.50538793 0.40837405 0.09495556
0.53588895 0.40947700 0.09605850
0.56628835 0.41057627 0.09715778
0.59659305 0.41167212 0.09825362
0.62680915 0.41276476 0.09934627
0.65694201 0.41385439 0.10043590
0.68699635 0.41494119 0.10152269
0.71697655 0.41602530 0.10260681
0.74688638 0.41710687 0.10368838
0.77672926 0.41818602 0.10476752
0.80650843 0.41926286 0.10584437
0.83622672 0.42033750 0.10691901
0.86588674 0.42141004 0.10799155
0.89549092 0.42248055 0.10906206
0.92504142 0.42354913 0.11013064
0.92617150 0.42358999 0.11017150
0.92617150 0.42358999 0.11017150
0.92617150 0.42358999 0.11017150
0.92617150 0.42358999 0.11017150
0.92617150 0.42358999 0.11017150
0.09385779 0.42689613 0.08369698
0.12898385 0.42816633 0.08496717
0.16263498 0.42938318 0.08618403
0.19556370 0.43057392 0.08737477
0.22800899 0.43174717 0.08854802
0.26009131 0.43290730 0.08970815
0.29188342 0.43405693 0.09085778
0.32343405 0.43519784 0.09199868
0.35477814 0.43633127 0.09313211
0.38594189 0.43745818 0.09425903
0.41694568 0.43857931 0.09538015
0.44780585 0.43969524 0.09649609
0.47853579 0.44080646 0.09760731
0.50914660 0.44191338 0.09871423
0.53964762 0.44301633 0.09981717
0.57004702 0.44411560 0.10091645
0.60035172 0.44521145 0.10201229
0.63056782 0.44630409 0.10310494
0.66070068 0.44739372 0.10419457
0.69075502 0.44848052 0.10528136
0.72073522 0.44956463 0.10636548
0.75064505 0.45064620 0.10744705
0.78048793 0.45172535 0.10852619
0.81026710 0.45280219 0.10960304
0.83998539 0.45387683 0.11067768
0.86964541 0.45494937 0.11175021
0.89924959 0.45601988 0.11282073
0.92880009 0.45708846 0.11388931
0.92993017 0.45712932 0.11393017
0.92993017 0.45712932 0.11393017
0.92993017 0.45712932 0.11393017
0.92993017 0.45712932 0.11393017
0.92993017 0.45712932 0.11393017
0.09760020 0.46029041 0.08743939
0.13272626 0.46156060 0.08870959
0.16637740 0.46277746 0.08992644
0.19930611 0.46396819 0.09111718
0.23175140 0.46514145 0.09229043
0.26383372 0.46630157 0.09345056
0.29562583 0.46745121 0.09460019
0.32717646 0.46859211 0.09574110
0.35852056 0.46972554 0.09687453
0.38968430 0.47085245 0.09800144
0.42068809 0.47197358 0.09912257
0.45154826 0.47308951 0.10023850
0.48227820 0.47420074 0.10134972
0.51288901 0.47530766 0.10245664
0.54339004 0.47641060 0.10355959
0.57378944 0.47750987 0.10465886
0.60409414 0.47860572 0.10575471
0.63431023 0.47969837 0.10684735
0.66444309 0.48078800 0.10793698
0.69449744 0.48187479 0.10902378
0.72447763 0.48295891 0.11010789
0.75438747 0.48404047 0.11118946
0.78423035 0.48511962 0.11226861
0.81400952 0.48619647 0.11334545
0.84372780 0.48727111 0.11442009
0.87338782 0.48834364 0.11549263
0.90299200 0.48941416 0.11656314
0.93254251 0.49048273 0.11763172
0.93367258 0.49052360 0.11767258
0.93367258 0.49052360 0.11767258
0.93367258 0.49052360 0.11767258
0.93367258 0.49052360 0.11767258
0.93367258 0.49052360 0.11767258
0.10132778 0.49355227 0.09116697
0.13645384 0.49482247 0.09243716
0.17010497 0.49603932 0.09365402
0.20303368 0.49723006 0.09484475
0.23547898 0.49840331 0.09601801
0.26756130 0.49956344 0.09717813
0.29935341 0.50071307 0.09832777
0.33090404 0.50185397 0.09946867
0.36224813 0.50298741 0.10060210
0.39341188 0.50411432 0.10172901
0.42441566 0.50523544 0.10285014
0.45527584 0.50635138 0.10396607
0.48600578 0.50746260 0.10507730
0.51661659 0.50856952 0.10618422
0.54711761 0.50967247 0.10728716
0.57751701 0.51077174 0.10838643
0.60782171 0.51186759 0.10948228
0.63803781 0.51296023 0.11057493
0.66817067 0.51404986 0.11166456
0.69822501 0.51513666 0.11275135
0.72820521 0.51622077 0.11383547
0.75811504 0.51730234 0.11491703
0.78795792 0.51838149 0.11599618
0.81773709 0.51945833 0.11707303
0.84745538 0.52053297 0.11814767
0.87711540 0.52160551 0.11922020
0.90671957 0.52267602 0.12029072
0.93627008 0.52374460 0.12135929
0.93740016 0.52378546 0.12140016
0.93740016 0.52378546 0.12140016
0.93740016 0.52378546 0.12140016
0.93740016 0.52378546 0.12140016
0.93740016 0.52378546 0.12140016
0.10504170 0.52669234 0.09488090
0.14016776 0.52796254 0.09615109
0.17381890 0.52917939 0.09736795
0.20674761 0.53037013 0.09855868
0.23919290 0.53154338 0.09973193
0.27127522 0.53270351 0.10089206
0.30306733 0.53385314 0.10204169
0.33461796 0.53499404 0.10318260
0.36596206 0.53612748 0.10431603
0.39712581 0.53725439 0.10544294
0.42812959 0.53837551 0.10656407
0.45898976 0.53949145 0.10768000
0.48971970 0.54060267 0.10879123
0.52033051 0.54170959 0.10989814
0.55083154 0.54281254 0.11100109
0.58123094 0.54391181 0.11210036
0.61153564 0.54500766 0.11319621
0.64175173 0.54610030 0.11428885
0.67188459 0.54718993 0.11537848
0.70193894 0.54827673 0.11646528
0.73191914 0.54936084 0.11754939
0.76182897 0.55044241 0.11863096
0.79167185 0.55152156 0.11971011
0.82145102 0.55259840 0.12078695
0.85116930 0.55367304 0.12186159
0.88082932 0.55474558 0.12293413
0.91043350 0.55581609 0.12400464
0.93998401 0.55688467 0.12507322
0.94111408 0.55692553 0.12511408
0.94111408 0.55692553 0.12511408
0.94111408 0.55692553 0.12511408
0.94111408 0.55692553 0.12511408
0.94111408 0.55692553 0.12511408
0.10874301 0.55971984 0.09858220
0.14386907 0.56099003 0.09985240
0.17752021 0.56220689 0.10106926
0.21044892 0.56339762 0.10225999
0.24289421 0.56457088 0.10343324
0.27497653 0.56573101 0.10459337
0.30676864 0.56688064 0.10574300
0.33831927 0.56802154 0.10688391
0.36966337 0.56915497 0.10801734
0.40082712 0.57028189 0.10914425
0.43183090 0.57140301 0.11026538
0.46269107 0.57251895 0.11138131
0.49342101 0.57363017 0.11249254
0.52403182 0.57473709 0.11359945
0.55453285 0.57584003 0.11470240
0.58493225 0.57693931 0.11580167
0.61523695 0.57803515 0.11689752
0.64545304 0.57912780 0.11799016
0.67558590 0.58021743 0.11907979
0.70564025 0.58130422 0.12016659
0.73562045 0.58238834 0.12125070
0.76553028 0.58346991 0.12233227
0.79537316 0.58454905 0.12341142
0.82515233 0.58562590 0.12448826
0.85487061 0.58670054 0.12556290
0.88453063 0.58777307 0.12663544
0.91413481 0.58884359 0.12770595
0.94368532 0.58991217 0.12877453
0.94481539 0.58995303 0.12881539
0.94481539 0.58995303 0.12881539
0.94481539 0.58995303 0.12881539
0.94481539 0.58995303 0.12881539
0.94481539 0.58995303 0.12881539
0.11243258 0.59264258 0.10227177
0.14755864 0.59391277 0.10354197
0.18120978 0.59512963 0.10475882
0.21413849 0.59632036 0.10594956
0.24658378 0.59749361 0.10712281
0.27866610 0.59865374 0.10828294
0.31045821 0.59980337 0.10943257
0.34200884 0.60094428 0.11057347
0.37335294 0.60207771 0.11170691
0.40451668 0.60320462 0.11283382
0.43552047 0.60432575 0.11395495
0.46638064 0.60544168 0.11507088
0.49711058 0.60655291 0.11618210
0.52772139 0.60765982 0.11728902
0.55822242 0.60876277 0.11839197
0.58862182 0.60986204 0.11949124
0.61892652 0.61095789 0.12058709
0.64914261 0.61205053 0.12167973
0.67927547 0.61314016 0.12276936
0.70932982 0.61422696 0.12385616
0.73931001 0.61531107 0.12494027
0.76921985 0.61639264 0.12602184
0.79906272 0.61747179 0.12710099
0.82884190 0.61854863 0.12817783
0.85856018 0.61962327 0.12925247
0.88822020 0.62069581 0.13032501
0.91782438 0.62176632 0.13139552
0.94737489 0.62283490 0.13246410
0.94850496 0.62287576 0.13250496
0.94850496 0.62287576 0.13250496
0.94850496 0.62287576 0.13250496
0.94850496 0.62287576 0.13250496
0.94850496 0.62287576 0.13250496
0.11611118 0.62546741 0.10595037
0.15123724 0.62673760 0.10722056
0.18488838 0.62795446 0.10843742
0.21781709 0.62914519 0.10962816
0.25026238 0.63031844 0.11080141
0.28234470 0.63147857 0.11196154
0.31413681 0.63262821 0.11311117
0.34568744 0.63376911 0.11425207
0.37703153 0.63490254 0.11538551
0.40819528 0.63602945 0.11651242
0.43919907 0.63715058 0.11763354
0.47005924 0.63826651 0.11874948
0.50078918 0.63937774 0.11986070
0.53139999 0.64048465 0.12096762
0.56190101 0.64158760 0.12207057
0.59230042 0.64268687 0.12316984
0.62260512 0.64378272 0.12426568
0.65282121 0.64487536 0.12535833
0.68295407 0.64596500 0.12644796
0.71300841 0.64705179 0.12753476
0.74298861 0.64813590 0.12861887
0.77289844 0.64921747 0.12970044
0.80274132 0.65029662 0.13077958
0.83252049 0.65137346 0.13185643
0.86223878 0.65244810 0.13293107
0.89189880 0.65352064 0.13400361
0.92150298 0.65459116 0.13507412
0.95105348 0.65565973 0.13614270
0.95218356 0.65570060 0.13618356
0.95218356 0.65570060 0.13618356
0.95218356 0.65570060 0.13618356
0.95218356 0.65570060 0.13618356
0.95218356 0.65570060 0.13618356
0.11977948 0.65820037 0.10961867
0.15490554 0.65947056 0.11088887
0.18855668 0.66068742 0.11210572
0.22148539 0.66187815 0.11329646
0.25393068 0.66305140 0.11446971
0.28601300 0.66421153 0.11562984
0.31780511 0.66536116 0.11677947
0.34935574 0.66650207 0.11792037
0.38069984 0.66763550 0.11905381
0.41186358 0.66876241 0.12018072
0.44286737 0.66988354 0.12130185
0.47372754 0.67099947 0.12241778
0.50445748 0.67211070 0.12352900
0.53506829 0.67321761 0.12463592
0.56556932 0.67432056 0.12573887
0.59596872 0.67541983 0.12683814
0.62627342 0.67651568 0.12793399
0.65648951 0.67760832 0.12902663
0.68662237 0.67869795 0.13011626
0.71667672 0.67978475 0.13120306
0.74665691 0.68086886 0.13228717
0.77656674 0.68195043 0.13336874
0.80640962 0.68302958 0.13444789
0.83618880 0.68410642 0.13552473
0.86590708 0.68518106 0.13659937
0.89556710 0.68625360 0.13767191
0.92517128 0.68732412 0.13874242
0.95472178 0.68839269 0.13981100
0.95585186 0.68843355 0.13985186
0.95585186 0.68843355 0.13985186
0.95585186 0.68843355 0.13985186
0.95585186 0.68843355 0.13985186
0.95585186 0.68843355 0.13985186
0.12343808 0.69084674 0.11327727
0.15856414 0.69211694 0.11454747
0.19221528 0.69333379 0.11576432
0.22514399 0.69452453 0.11695506
0.25758928 0.69569778 0.11812831
0.28967160 0.69685791 0.11928844
0.32146371 0.69800754 0.12043807
0.35301434 0.69914844 0.12157897
0.38435843 0.70028188 0.12271241
0.41552218 0.70140879 0.12383932
0.44652597 0.70252992 0.12496044
0.47738614 0.70364585 0.12607638
0.50811608 0.70475707 0.12718760
0.53872689 0.70586399 0.12829452
0.56922791 0.70696694 0.12939747
0.59962732 0.70806621 0.13049674
0.62993202 0.70916206 0.13159259
0.66014811 0.71025470 0.13268523
0.69028097 0.71134433 0.13377486
0.72033532 0.71243113 0.13486166
0.75031551 0.71351524 0.13594577
0.78022534 0.71459681 0.13702734
0.81006822 0.71567596 0.13810649
0.83984740 0.71675280 0.13918333
0.86956568 0.71782744 0.14025797
0.89922570 0.71889998 0.14133051
0.92882988 0.71997049 0.14240102
0.95838038 0.72103907 0.14346960
0.95951046 0.72107993 0.14351046
0.95951046 0.72107993 0.14351046
0.95951046 0.72107993 0.14351046
0.95951046 0.72107993 0.14351046
0.95951046 0.72107993 0.14351046
0.12708752 0.72341142 0.11692672
0.16221358 0.72468161 0.11819691
0.19586472 0.72589847 0.11941377
0.22879343 0.72708920 0.12060450
0.26123872 0.72826246 0.12177775
0.29332104 0.72942259 0.12293788
0.32511315 0.73057222 0.12408751
0.35666378 0.73171312 0.12522842
0.38800788 0.73284655 0.12636185
0.41917163 0.73397347 0.12748876
0.45017541 0.73509459 0.12860989
0.48103558 0.73621053 0.12972582
0.51176552 0.73732175 0.13083705
0.54237633 0.73842867 0.13194396
0.57287736 0.73953161 0.13304691
0.60327676 0.74063089 0.13414618
0.63358146 0.74172673 0.13524203
0.66379755 0.74281938 0.13633467
0.69393041 0.74390901 0.13742430
0.72398476 0.74499580 0.13851110
0.75396496 0.74607992 0.13959521
0.78387479 0.74716149 0.14067678
0.81371767 0.74824063 0.14175593
0.84349684 0.74931748 0.14283277
0.87321512 0.75039212 0.14390741
0.90287514 0.75146465 0.14497995
0.93247932 0.75253517 0.14605046
0.96202983 0.75360374 0.14711904
0.96315990 0.75364461 0.14715990
0.96315990 0.75364461 0.14715990
0.96315990 0.75364461 0.14715990
0.96315990 0.75364461 0.14715990
0.96315990 0.75364461 0.14715990
0.13072828 0.75589862 0.12056748
0.16585434 0.75716881 0.12183767
0.19950548 0.75838567 0.12305453
0.23243419 0.75957640 0.12424526
0.26487948 0.76074966 0.12541851
0.29696180 0.76190979 0.12657864
0.32875391 0.76305942 0.12772827
0.36030454 0.76420032 0.12886918
0.39164864 0.76533375 0.13000261
0.42281239 0.76646067 0.13112952
0.45381617 0.76758179 0.13225065
0.48467634 0.76869773 0.13336658
0.51540628 0.76980895 0.13447781
0.54601709 0.77091587 0.13558472
0.57651812 0.77201881 0.13668767
0.60691752 0.77311809 0.13778694
0.63722222 0.77421393 0.13888279
0.66743831 0.77530658 0.13997543
0.69757117 0.77639621 0.14106506
0.72762552 0.77748300 0.14215186
0.75760572 0.77856712 0.14323597
0.78751555 0.77964869 0.14431754
0.81735843 0.78072783 0.14539669
0.84713760 0.78180468 0.14647353
0.87685588 0.78287932 0.14754817
0.90651590 0.78395185 0.14862071
0.93612008 0.78502237 0.14969123
0.96567059 0.78609095 0.15075980
0.96680066 0.78613181 0.15080066
0.96680066 0.78613181 0.15080066
0.96680066 0.78613181 0.15080066
