luts/cubes/vintage_analog.cube
TITLE "vintage_analog"
LUT_3D_SIZE 33
DOMAIN_MIN 0.0 0.0 0.0
DOMAIN_MAX 1.0 1.0 1.0
0.13970079 0.11474598 0.07706929
0.16990836 0.11470550 0.07735373
0.19899947 0.11466915 0.07762914
0.22743989 0.11463609 0.07789977
0.25543489 0.11460591 0.07816748
0.28310014 0.11457836 0.07843332
0.31050968 0.11455327 0.07869793
0.33771478 0.11453053 0.07896178
0.36475297 0.11451003 0.07922518
0.39165283 0.11449170 0.07948839
0.41843680 0.11447547 0.07975160
0.44512295 0.11446129 0.08001496
0.47172612 0.11444912 0.08027860
0.49825867 0.11443890 0.08054262
0.52473108 0.11443062 0.08080711
0.55115230 0.11442422 0.08107213
0.57753008 0.11441970 0.08133776
0.60387119 0.11441701 0.08160404
0.63018155 0.11441613 0.08187102
0.65646644 0.11441705 0.08213875
0.68273053 0.11441974 0.08240726
0.70897804 0.11442419 0.08267658
0.73521273 0.11443037 0.08294675
0.76143802 0.11443828 0.08321778
0.78765703 0.11444788 0.08348970
0.81387257 0.11445918 0.08376253
0.84008724 0.11447215 0.08403628
0.86630340 0.11448679 0.08431099
0.89252326 0.11450308 0.08458666
0.91194895 0.11451620 0.08479148
0.91194895 0.11451620 0.08479148
0.91194895 0.11451620 0.08479148
0.91194895 0.11451620 0.08479148
0.13904533 0.14066726 0.07789188
0.16942124 0.14068216 0.07818392
0.19867386 0.14069895 0.07846662
0.22727162 0.14071764 0.07874434
0.25542096 0.14073823 0.07901902
0.28323821 0.14076068 0.07929171
0.31079784 0.14078497 0.07956310
0.33815142 0.14081107 0.07983364
0.36533669 0.14083896 0.08010368
0.39238241 0.14086861 0.08037347
0.41931116 0.14090001 0.08064321
0.44614110 0.14093314 0.08091306
0.47288717 0.14096797 0.08118315
0.49956180 0.14100449 0.08145357
0.52617553 0.14104269 0.08172443
0.55273737 0.14108256 0.08199580
0.57925511 0.14112408 0.08226774
0.60573556 0.14116723 0.08254031
0.63218470 0.14121201 0.08281356
0.65860782 0.14125840 0.08308752
0.68500964 0.14130639 0.08336224
0.71139437 0.14135598 0.08363776
0.73776583 0.14140716 0.08391409
0.76412745 0.14145990 0.08419127
0.79048235 0.14151422 0.08446932
0.81683339 0.14157009 0.08474826
0.84318317 0.14162751 0.08502812
0.86953408 0.14168647 0.08530890
0.89588832 0.14174696 0.08559063
0.91541332 0.14179276 0.08579994
0.91541332 0.14179276 0.08579994
0.91541332 0.14179276 0.08579994
0.91541332 0.14179276 0.08579994
0.13842341 0.16638586 0.07872008
0.16896448 0.16645509 0.07901957
0.19837557 0.16652400 0.07930942
0.22712769 0.16659348 0.07959411
0.25542845 0.16666388 0.07987561
0.28339483 0.16673539 0.08015503
0.31110171 0.16680812 0.08043306
0.33860096 0.16688214 0.08071018
0.36593054 0.16695750 0.08098673
0.39311937 0.16703422 0.08126297
0.42019015 0.16711235 0.08153912
0.44716116 0.16719188 0.08181534
0.47404742 0.16727283 0.08209175
0.50086144 0.16735521 0.08236846
0.52761382 0.16743902 0.08264558
0.55431362 0.16752427 0.08292317
0.58096868 0.16761096 0.08320130
0.60758585 0.16769908 0.08348004
0.63417114 0.16778865 0.08375943
0.66072988 0.16787966 0.08403951
0.68726681 0.16797210 0.08432033
0.71378617 0.16806598 0.08460191
0.74029181 0.16816129 0.08488430
0.76678718 0.16825804 0.08516751
0.79327541 0.16835621 0.08545158
0.81975939 0.16845581 0.08573652
0.84624172 0.16855684 0.08602235
0.87272482 0.16865928 0.08630910
0.89921090 0.16876315 0.08659678
0.91883335 0.16884100 0.08681048
0.91883335 0.16884100 0.08681048
0.91883335 0.16884100 0.08681048
0.91883335 0.16884100 0.08681048
0.13782910 0.19209493 0.07955957
0.16853347 0.19221787 0.07986643
0.19810124 0.19233833 0.08016334
0.22700599 0.19245802 0.08045491
0.25545646 0.19257767 0.08074318
0.28357029 0.19269768 0.08102925
0.31142276 0.19281830 0.08131384
0.33906605 0.19293971 0.08159745
0.36653831 0.19306200 0.08188044
0.39386863 0.19318528 0.08216307
0.42107985 0.19330960 0.08244556
0.44819035 0.19343502 0.08272806
0.47521523 0.19356157 0.08301073
0.50216707 0.19368928 0.08329366
0.52905653 0.19381819 0.08357696
0.55589274 0.19394831 0.08386070
0.58268358 0.19407966 0.08414496
0.60943592 0.19421226 0.08442980
0.63615583 0.19434611 0.08471526
0.66284866 0.19448123 0.08500139
0.68951918 0.19461762 0.08528824
0.71617167 0.19475529 0.08557583
0.74280997 0.19489425 0.08586420
0.76943758 0.19503449 0.08615338
0.79605765 0.19517603 0.08644339
0.82267307 0.19531888 0.08673426
0.84928646 0.19546302 0.08702601
0.87590027 0.19560846 0.08731865
0.90251670 0.19575521 0.08761221
0.92223550 0.19586475 0.08783026
0.92223550 0.19586475 0.08783026
0.92223550 0.19586475 0.08783026
0.92223550 0.19586475 0.08783026
0.13725983 0.21787136 0.08041251
0.16812618 0.21804759 0.08072668
0.19784936 0.21821918 0.08103060
0.22690551 0.21838867 0.08132901
0.25550448 0.21855717 0.08162397
0.28376457 0.21872529 0.08191664
0.31176146 0.21889343 0.08220775
0.33954762 0.21906183 0.08249781
0.36716141 0.21923068 0.08278718
0.39463209 0.21940013 0.08307614
0.42198261 0.21957028 0.08336491
0.44923147 0.21974121 0.08365366
0.47639384 0.21991299 0.08394253
0.50348239 0.22008568 0.08423163
0.53050784 0.22025932 0.08452106
0.55747935 0.22043395 0.08481091
0.58440486 0.22060961 0.08510125
0.61129130 0.22078631 0.08539213
0.63814474 0.22096409 0.08568361
0.66497057 0.22114296 0.08597575
0.69177361 0.22132294 0.08626857
0.71855814 0.22150405 0.08656212
0.74532805 0.22168630 0.08685643
0.77208683 0.22186970 0.08715152
0.79883766 0.22205426 0.08744744
0.82558346 0.22223999 0.08774419
0.85232686 0.22242690 0.08804180
0.87907031 0.22261499 0.08834029
0.90581605 0.22280427 0.08863968
0.92563041 0.22294525 0.08886204
0.92563041 0.22294525 0.08886204
0.92563041 0.22294525 0.08886204
0.92563041 0.22294525 0.08886204
0.13671412 0.24375646 0.08128005
0.16774142 0.24398564 0.08160148
0.19761904 0.24420803 0.08191237
0.22682563 0.24442701 0.08221756
0.25557218 0.24464405 0.08251918
0.28397760 0.24485999 0.08281841
0.31211800 0.24507533 0.08311599
0.34004612 0.24529044 0.08341245
0.36780055 0.24550555 0.08370817
0.39541069 0.24572088 0.08400342
0.42289964 0.24593656 0.08429844
0.45028599 0.24615272 0.08459339
0.47758499 0.24636945 0.08488842
0.50480939 0.24658683 0.08518365
0.53196996 0.24680492 0.08547918
0.55907592 0.24702378 0.08577509
0.58613526 0.24724346 0.08607147
0.61315493 0.24746400 0.08636836
0.64014106 0.24768542 0.08666583
0.66709907 0.24790777 0.08696393
0.69403379 0.24813107 0.08726269
0.72094953 0.24835535 0.08756216
0.74785021 0.24858061 0.08786237
0.77473933 0.24880689 0.08816334
0.80162011 0.24903420 0.08846512
0.82849546 0.24926254 0.08876771
0.85536805 0.24949195 0.08907115
0.88224033 0.24972242 0.08937546
0.90911456 0.24995398 0.08968064
0.92902388 0.25012620 0.08990729
0.92902388 0.25012620 0.08990729
0.92902388 0.25012620 0.08990729
0.92902388 0.25012620 0.08990729
0.13619098 0.26977581 0.08216285
0.16737841 0.27005767 0.08249150
0.19740967 0.27033059 0.08280932
0.22676592 0.27059880 0.08312126
0.25565927 0.27086414 0.08342950
0.28420927 0.27112764 0.08373525
0.31249244 0.27138995 0.08403928
0.34056179 0.27165151 0.08434211
0.36845613 0.27191265 0.08464414
0.39620502 0.27217362 0.08494565
0.42383168 0.27243461 0.08524688
0.45135480 0.27269576 0.08554800
0.47878972 0.27295720 0.08584916
0.50614926 0.27321903 0.08615049
0.53344426 0.27348135 0.08645208
0.56068398 0.27374421 0.08675403
0.58787645 0.27400768 0.08705641
0.61502867 0.27427182 0.08735928
0.64214681 0.27453668 0.08766271
0.66923630 0.27480228 0.08796674
0.69630201 0.27506867 0.08827141
0.72334829 0.27533589 0.08857677
0.75037905 0.27560395 0.08888284
0.77739785 0.27587288 0.08918967
0.80440790 0.27614271 0.08949728
0.83141213 0.27641346 0.08980569
0.85841324 0.27668514 0.09011493
0.88541368 0.27695778 0.09042501
0.91241574 0.27723138 0.09073597
0.93241953 0.27743468 0.09096687
0.93241953 0.27743468 0.09096687
0.93241953 0.27743468 0.09096687
0.93241953 0.27743468 0.09096687
0.13568972 0.29594667 0.08306133
0.16703657 0.29628097 0.08339718
0.19722078 0.29660421 0.08372190
0.22672604 0.29692144 0.08404056
0.25576555 0.29723486 0.08435540
0.28445950 0.29754571 0.08466764
0.31288480 0.29785478 0.08497808
0.34109477 0.29816260 0.08528726
0.36912840 0.29846956 0.08559557
0.39701543 0.29877597 0.08590331
0.42477919 0.29908206 0.08621073
0.45243848 0.29938801 0.08651799
0.48000873 0.29969397 0.08682525
0.50750282 0.30000006 0.08713265
0.53493165 0.30030640 0.08744028
0.56230454 0.30061307 0.08774824
0.58962956 0.30092015 0.08805660
0.61691375 0.30122770 0.08836543
0.64416330 0.30153579 0.08867478
0.67138371 0.30184445 0.08898471
0.69857984 0.30215375 0.08929527
0.72575607 0.30246371 0.08960649
0.75291636 0.30277438 0.08991841
0.78006426 0.30308579 0.09023106
0.80720301 0.30339796 0.09054447
0.83433556 0.30371091 0.09085867
0.86146462 0.30402469 0.09117368
0.88859267 0.30433930 0.09148953
0.91572198 0.30465476 0.09180622
0.93581983 0.30488900 0.09204137
0.93581983 0.30488900 0.09204137
0.93581983 0.30488900 0.09204137
0.93581983 0.30488900 0.09204137
0.13520978 0.32228139 0.08397580
0.16671544 0.32266794 0.08431881
0.19705203 0.32304131 0.08465041
0.22670572 0.32340736 0.08497577
0.25589084 0.32376868 0.08529718
0.28472818 0.32412671 0.08561589
0.31329508 0.32448235 0.08593271
0.34164513 0.32483625 0.08624821
0.36981752 0.32518886 0.08656278
0.39784216 0.32554054 0.08687673
0.42574250 0.32589156 0.08719031
0.45353744 0.32624213 0.08750369
0.48124250 0.32659244 0.08781704
0.50887063 0.32694263 0.08813048
0.53643278 0.32729282 0.08844413
0.56393833 0.32764313 0.08875807
0.59139539 0.32799365 0.08907239
0.61881105 0.32834445 0.08938714
0.64619152 0.32869560 0.08970240
0.67354233 0.32904717 0.09001822
0.70086839 0.32939920 0.09033464
0.72817409 0.32975176 0.09065170
0.75546340 0.33010487 0.09096944
0.78273991 0.33045858 0.09128789
0.81000687 0.33081292 0.09160709
0.83726725 0.33116794 0.09192705
0.86452377 0.33152364 0.09224782
0.89177893 0.33188006 0.09256939
0.91903502 0.33223723 0.09289181
0.93922657 0.33250230 0.09313118
0.93922657 0.33250230 0.09313118
0.93922657 0.33250230 0.09313118
0.93922657 0.33250230 0.09313118
0.13475074 0.34878919 0.08490647
0.16641468 0.34922780 0.08525662
0.19690313 0.34965113 0.08559507
0.22670476 0.35006585 0.08592711
0.25603498 0.35047491 0.08625506
0.28501524 0.35087994 0.08658021
0.31372326 0.35128201 0.08690341
0.34221291 0.35168183 0.08722520
0.37052360 0.35207994 0.08754601
0.39868538 0.35247673 0.08786615
0.42672184 0.35287253 0.08818587
0.45465198 0.35326757 0.08850535
0.48249139 0.35366208 0.08882476
0.51025310 0.35405621 0.08914423
0.53794812 0.35445012 0.08946387
0.56558589 0.35484392 0.08978377
0.59317455 0.35523773 0.09010403
0.62072122 0.35563163 0.09042469
0.64823218 0.35602570 0.09074584
0.67571296 0.35642002 0.09106752
0.70316850 0.35681466 0.09138978
0.73060322 0.35720965 0.09171266
0.75802113 0.35760507 0.09203620
0.78542581 0.35800094 0.09236044
0.81282055 0.35839732 0.09268540
0.84020833 0.35879424 0.09301111
0.86759189 0.35919174 0.09333760
0.89497373 0.35958984 0.09366490
0.92235617 0.35998857 0.09399301
0.94264110 0.36028435 0.09423660
0.94264110 0.36028435 0.09423660
0.94264110 0.36028435 0.09423660
0.94264110 0.36028435 0.09423660
0.13431225 0.37547714 0.08585349
0.16613399 0.37596766 0.08621076
0.19677384 0.37644080 0.08655603
0.22672296 0.37690404 0.08689472
0.25619786 0.37736069 0.08722920
0.28532060 0.37781259 0.08756079
0.31416931 0.37826094 0.08789033
0.34279813 0.37870655 0.08821840
0.37124670 0.37915001 0.08854543
0.39954521 0.37959179 0.08887174
0.42771738 0.38003222 0.08919758
0.45578231 0.38047161 0.08952314
0.48375567 0.38091018 0.08984859
0.51165056 0.38134812 0.09017407
0.53947805 0.38178561 0.09049968
0.56724763 0.38222277 0.09082554
0.59496749 0.38265974 0.09115171
0.62264479 0.38309661 0.09147827
0.65028583 0.38353348 0.09180529
0.67789618 0.38397042 0.09213281
0.70548082 0.38440752 0.09246089
0.73304418 0.38484484 0.09278958
0.76059028 0.38528243 0.09311890
0.78812275 0.38572034 0.09344890
0.81564488 0.38615862 0.09377961
0.84315968 0.38659733 0.09411106
0.87066989 0.38703648 0.09444326
0.89817803 0.38747613 0.09477625
0.92568643 0.38791630 0.09511005
0.94606447 0.38824271 0.09535784
0.94606447 0.38824271 0.09535784
0.94606447 0.38824271 0.09535784
0.94606447 0.38824271 0.09535784
0.13389401 0.40235084 0.08681697
0.16587312 0.40289314 0.08718133
0.19666396 0.40341594 0.08753342
0.22676016 0.40392756 0.08787875
0.25637933 0.40443167 0.08821973
0.28564417 0.40493032 0.08855773
0.31463318 0.40542483 0.08889360
0.34340081 0.40591610 0.08922793
0.37198688 0.40640479 0.08956117
0.40042174 0.40689142 0.08989363
0.42872925 0.40737638 0.09022557
0.45692859 0.40785998 0.09055719
0.48503554 0.40834249 0.09088867
0.51306324 0.40882413 0.09122014
0.54102284 0.40930507 0.09155172
0.56892387 0.40978548 0.09188350
0.59677457 0.41026549 0.09221558
0.62458214 0.41074521 0.09254801
0.65235291 0.41122476 0.09288088
0.68009249 0.41170421 0.09321424
0.70780586 0.41218366 0.09354813
0.73549751 0.41266318 0.09388260
0.76317146 0.41314282 0.09421769
0.79083137 0.41362266 0.09455344
0.81848054 0.41410274 0.09488988
0.84612200 0.41458311 0.09522704
0.87375851 0.41506381 0.09556494
0.90139261 0.41554490 0.09590361
0.92902664 0.41602639 0.09624308
0.94949752 0.41638334 0.09649506
0.94949752 0.41638334 0.09649506
0.94949752 0.41638334 0.09649506
0.94949752 0.41638334 0.09649506
0.13349578 0.42941479 0.08779699
0.16563186 0.43000872 0.08816843
0.19657331 0.43058107 0.08852732
0.22681622 0.43114096 0.08887926
0.25657931 0.43169241 0.08922674
0.28598588 0.43223769 0.08957113
0.31511486 0.43277823 0.08991331
0.34402093 0.43331505 0.09025390
0.37274416 0.43384886 0.09059332
0.40131504 0.43438024 0.09093191
0.42975754 0.43490960 0.09126994
0.45809097 0.43543731 0.09160762
0.48633116 0.43596366 0.09194511
0.51449135 0.43648888 0.09228256
0.54258273 0.43701317 0.09262008
0.57061488 0.43753671 0.09295778
0.59859609 0.43805965 0.09329574
0.62653360 0.43858212 0.09363404
0.65443378 0.43910424 0.09397274
0.68230225 0.43962609 0.09431191
0.71014404 0.44014779 0.09465160
0.73796365 0.44066940 0.09499184
0.76576514 0.44119100 0.09533269
0.79355216 0.44171265 0.09567417
0.82132806 0.44223442 0.09601633
0.84909587 0.44275635 0.09635919
0.87685837 0.44327850 0.09670277
0.90461811 0.44380092 0.09704711
0.93237744 0.44432363 0.09739223
0.95279714 0.44507295 0.09820670
0.95279714 0.44507295 0.09820670
0.95279714 0.44507295 0.09820670
0.95279714 0.44507295 0.09820670
0.13311732 0.45667266 0.08879362
0.16541002 0.45731811 0.08917213
0.19650173 0.45793989 0.08953779
0.22689103 0.45854793 0.08989634
0.25679770 0.45914662 0.09025030
0.28634568 0.45973841 0.09060107
0.31561428 0.46032489 0.09094955
0.34465850 0.46090715 0.09129636
0.37351856 0.46148598 0.09164196
0.40222514 0.46206199 0.09198667
0.43080233 0.46263567 0.09233078
0.45926953 0.46320738 0.09267449
0.48764266 0.46377746 0.09301798
0.51593503 0.46434616 0.09336139
0.54415788 0.46491370 0.09370484
0.57232085 0.46548028 0.09404844
0.60043228 0.46604606 0.09439228
0.62849943 0.46661117 0.09473643
0.65652871 0.46717576 0.09508096
0.68452578 0.46773992 0.09542593
0.71249570 0.46830376 0.09577139
0.74044298 0.46886737 0.09611739
0.76837170 0.46943083 0.09646398
0.79628555 0.46999420 0.09681119
0.82418788 0.47055756 0.09715905
0.85208085 0.47113780 0.09753620
0.87984490 0.47247218 0.09919642
0.90744418 0.47380084 0.10085003
0.93488235 0.47512395 0.10249723
0.95510505 0.47610054 0.10371335
0.95510505 0.47610054 0.10371335
0.95510505 0.47610054 0.10371335
0.95510505 0.47610054 0.10371335
0.13275846 0.48412750 0.08980690
0.16520743 0.48482436 0.09019247
0.19644909 0.48549547 0.09056489
0.22698445 0.48615156 0.09093003
0.25703440 0.48679738 0.09129045
0.28672349 0.48743559 0.09164758
0.31613143 0.48806791 0.09200235
0.34531348 0.48869550 0.09235538
0.37431009 0.48931925 0.09270714
0.40315209 0.48993981 0.09305797
0.43186367 0.49055770 0.09340814
0.46046436 0.49117333 0.09375787
0.48897015 0.49178704 0.09410734
0.51739441 0.49239913 0.09445670
0.54574846 0.49300983 0.09480607
0.57404197 0.49361935 0.09515556
0.60228333 0.49422787 0.09550526
0.63047985 0.49483555 0.09585524
0.65863796 0.49544251 0.09620559
0.68676336 0.49604889 0.09655635
0.71486112 0.49665479 0.09690758
0.74293580 0.49726030 0.09725933
0.77105495 0.49808773 0.09803188
0.79918623 0.49939036 0.09970639
0.82714048 0.50068688 0.10137363
0.85492226 0.50197748 0.10303386
0.88253579 0.50326234 0.10468729
0.90998497 0.50454163 0.10633413
0.93727344 0.50581549 0.10797457
0.95738550 0.50675569 0.10918570
0.95738550 0.50675569 0.10918570
0.95738550 0.50675569 0.10918570
0.95738550 0.50675569 0.10918570
0.13241903 0.51178186 0.09083688
0.16502396 0.51253003 0.09122948
0.19641527 0.51325036 0.09160866
0.22709640 0.51395441 0.09198037
0.25728935 0.51464727 0.09234724
0.28711926 0.51533181 0.09271073
0.31666626 0.51600987 0.09307177
0.34598587 0.51668272 0.09343101
0.37511876 0.51735130 0.09378891
0.40409589 0.51801631 0.09414584
0.43294161 0.51867832 0.09450206
0.46167552 0.51933778 0.09485780
0.49031370 0.51999505 0.09521324
0.51886960 0.52065044 0.09556854
0.54735458 0.52130421 0.09592382
0.57577837 0.52195659 0.09627919
0.60414941 0.52260777 0.09663473
0.63247504 0.52325791 0.09699054
0.66076172 0.52390717 0.09734669
0.68927140 0.52491408 0.09846741
0.71781225 0.52618600 0.10015847
0.74616034 0.52745131 0.10184143
0.77432156 0.52871023 0.10351660
0.80230127 0.52996300 0.10518427
0.83010443 0.53120981 0.10684470
0.85773557 0.53245086 0.10849813
0.88519888 0.53368630 0.11014478
0.91249826 0.53491631 0.11178487
0.93963732 0.53614103 0.11341857
0.95963897 0.53704490 0.11462471
0.95963897 0.53704490 0.11462471
0.95963897 0.53704490 0.11462471
0.95963897 0.53704490 0.11462471
0.13209886 0.53963791 0.09188358
0.16485947 0.54043728 0.09228320
0.19640014 0.54120675 0.09266912
0.22722678 0.54195866 0.09304740
0.25756245 0.54269847 0.09342071
0.28753293 0.54342925 0.09379054
0.31721872 0.54415297 0.09415784
0.34667565 0.54487100 0.09452327
0.37594456 0.54558432 0.09488731
0.40505658 0.54629371 0.09525032
0.43403619 0.54699976 0.09561258
0.46290306 0.54770296 0.09597432
0.49167339 0.54840370 0.09633573
0.52036068 0.54910231 0.09669695
0.54897634 0.54979908 0.09705813
0.57753018 0.55049423 0.09741936
0.60658100 0.55161974 0.09883552
0.63558723 0.55286238 0.10054616
0.66437974 0.55409771 0.10224757
0.69296645 0.55532606 0.10394016
0.72135447 0.55654771 0.10562433
0.74955028 0.55776291 0.10730042
0.77755972 0.55897191 0.10896875
0.80538816 0.56017491 0.11062959
0.83304050 0.56137211 0.11228321
0.86052127 0.56256370 0.11392986
0.88783465 0.56374982 0.11556975
0.91498451 0.56493064 0.11720309
0.94197444 0.56610630 0.11883007
0.96186587 0.56697391 0.12003124
0.96186587 0.56697391 0.12003124
0.96186587 0.56697391 0.12003124
0.96186587 0.56697391 0.12003124
0.13179782 0.56769748 0.09294702
0.16471384 0.56854798 0.09335365
0.19640361 0.56936649 0.09374629
0.22737550 0.57016619 0.09413113
0.25785365 0.57095287 0.09451086
0.28796444 0.57172981 0.09488702
0.31778879 0.57249910 0.09526057
0.34738279 0.57326222 0.09563219
0.37678748 0.57402021 0.09600236
0.40603416 0.57477389 0.09637144
0.43514741 0.57552391 0.09673973
0.46414703 0.57627078 0.09710746
0.49304928 0.57701491 0.09747482
0.52278043 0.57820574 0.09912584
0.55232915 0.57942111 0.10086027
0.58163476 0.58062822 0.10258386
0.61070853 0.58182751 0.10429722
0.63956040 0.58301936 0.10600090
0.66819917 0.58420412 0.10769537
0.69663274 0.58538209 0.10938106
0.72486821 0.58655356 0.11105835
0.75291199 0.58771875 0.11272758
0.78076993 0.58887791 0.11438907
0.80844735 0.59003123 0.11604310
0.83594914 0.59117891 0.11768993
0.86327981 0.59232111 0.11932980
0.89044352 0.59345800 0.12096294
0.91744412 0.59458972 0.12258955
0.94428519 0.59571641 0.12420981
0.96406659 0.59654783 0.12540601
0.96406659 0.59654783 0.12540601
0.96406659 0.59654783 0.12540601
0.96406659 0.59654783 0.12540601
0.13151579 0.59596215 0.09402721
0.16458696 0.59686369 0.09444084
0.19642559 0.59773118 0.09484020
0.22754249 0.59857857 0.09523157
0.25816287 0.59941204 0.09561773
0.28841376 0.60023507 0.09600021
0.31837643 0.60104987 0.09638000
0.34810727 0.60185800 0.09675779
0.37764752 0.60266058 0.09713407
0.40706227 0.60346862 0.09754395
0.43757530 0.60467030 0.09932282
0.46778032 0.60586149 0.10108729
0.49769794 0.60704298 0.10283849
0.52734554 0.60821543 0.10457737
0.55673797 0.60937938 0.10630474
0.58588806 0.61053533 0.10802132
0.61480704 0.61168370 0.10972770
0.64350479 0.61282485 0.11142442
0.67199009 0.61395912 0.11311197
0.70027078 0.61508681 0.11479076
0.72835394 0.61620816 0.11646118
0.75624595 0.61732343 0.11812356
0.78395263 0.61843283 0.11977823
0.81147928 0.61953656 0.12142545
0.83883077 0.62063479 0.12306551
0.86601159 0.62172770 0.12469862
0.89302587 0.62281543 0.12632502
0.91987745 0.62389813 0.12794490
0.94656990 0.62497593 0.12955846
0.96624146 0.62577121 0.13074971
0.96624146 0.62577121 0.13074971
0.96624146 0.62577121 0.13074971
0.96624146 0.62577121 0.13074971
0.13125265 0.62443331 0.09512417
0.16447872 0.62538580 0.09554479
0.19646598 0.62630218 0.09595085
0.22772766 0.62719721 0.09634875
0.25849007 0.62807740 0.09674131
0.28888082 0.62894643 0.09713010
0.31905246 0.62982078 0.09757690
0.35049972 0.63100661 0.09940122
0.38154660 0.63217888 0.10120601
0.41223142 0.63333900 0.10299339
0.44258459 0.63448810 0.10476505
0.47263083 0.63562706 0.10652236
0.50239067 0.63675664 0.10826643
0.53188138 0.63787748 0.10999824
0.56111776 0.63899009 0.11171857
0.59011258 0.64009496 0.11342814
0.61887701 0.64119249 0.11512755
0.64742088 0.64228303 0.11681733
0.67575294 0.64336689 0.11849797
0.70388099 0.64444436 0.12016987
0.73181208 0.64551569 0.12183343
0.75955256 0.64658111 0.12348898
0.78710822 0.64764083 0.12513683
0.81448434 0.64869504 0.12677726
0.84168577 0.64974391 0.12841055
0.86871696 0.65078759 0.13003691
0.89558205 0.65182625 0.13165658
0.92228485 0.65286000 0.13326975
0.94882891 0.65388899 0.13487661
0.96839080 0.65464819 0.13606292
0.96839080 0.65464819 0.13606292
0.96839080 0.65464819 0.13606292
0.96839080 0.65464819 0.13606292
0.13100830 0.65311213 0.09623789
0.16438904 0.65411551 0.09666549
0.19652471 0.65508071 0.09707824
0.22793095 0.65602329 0.09748267
0.26069951 0.65719645 0.09931384
0.29294670 0.65836038 0.10117898
0.32467860 0.65950714 0.10301814
0.35596214 0.66063911 0.10483508
0.38684685 0.66175803 0.10663255
0.41737084 0.66286525 0.10841268
0.44756438 0.66396183 0.11017714
0.47745208 0.66504864 0.11192729
0.50705436 0.66612640 0.11366426
0.53638843 0.66719570 0.11538899
0.56546898 0.66825706 0.11710230
0.59430876 0.66931092 0.11880487
0.62291886 0.67035768 0.12049732
0.65130909 0.67139767 0.12218017
0.67948813 0.67243120 0.12385390
0.70746378 0.67345853 0.12551893
0.73524302 0.67447991 0.12717564
0.76283219 0.67549556 0.12882436
0.79023706 0.67650568 0.13046541
0.81746287 0.67751044 0.13209907
0.84451445 0.67851001 0.13372559
0.87139625 0.67950455 0.13534521
0.89811236 0.68049420 0.13695816
0.92466660 0.68147908 0.13856463
0.95106250 0.68245933 0.14016481
0.97051488 0.68318251 0.14134617
0.97051488 0.68318251 0.14134617
0.97051488 0.68318251 0.14134617
0.97051488 0.68318251 0.14134617
0.13078263 0.68199966 0.09736838
0.16604048 0.68318268 0.09894088
0.20049681 0.68436948 0.10092327
0.23394018 0.68552277 0.10285159
0.26662831 0.68665135 0.10474040
0.29870814 0.68776022 0.10659799
0.33027478 0.68885263 0.10842970
0.36139485 0.68993082 0.11023926
0.39211760 0.69099646 0.11202943
0.42248100 0.69205085 0.11380231
0.45251514 0.69309500 0.11555958
0.48224452 0.69412972 0.11730259
0.51168947 0.69515572 0.11903246
0.54086710 0.69617356 0.12075014
0.56979206 0.69718374 0.12245642
0.59847701 0.69818667 0.12415201
0.62693301 0.69918273 0.12583751
0.65516980 0.70017225 0.12751344
0.68319605 0.70115552 0.12918028
0.71101950 0.70213278 0.13083844
0.73864711 0.70310428 0.13248830
0.76608519 0.70407022 0.13413021
0.79333947 0.70503080 0.13576446
0.82041518 0.70598619 0.13739135
0.84731713 0.70693654 0.13901112
0.87404974 0.70788200 0.14062402
0.90061710 0.70882271 0.14223025
0.92702298 0.70975879 0.14383003
0.95327092 0.71069037 0.14542353
0.97261395 0.71137757 0.14659996
0.97261395 0.71137757 0.14659996
