luts/cubes/vintage_analog.cube
TITLE "vintage_analog"
LUT_3D_SIZE 9
DOMAIN_MIN 0.0 0.0 0.0
DOMAIN_MAX 1.0 1.0 1.0
0.13970079 0.11474598 0.07706929
0.25543489 0.11460591 0.07816748
0.36475297 0.11451003 0.07922518
0.47172612 0.11444912 0.08027860
0.57753008 0.11441970 0.08133776
0.68273053 0.11441974 0.08240726
0.78765703 0.11444788 0.08348970
0.89252326 0.11450308 0.08458666
0.91194895 0.11451620 0.08479148
0.13725983 0.21787136 0.08041251
0.25550448 0.21855717 0.08162397
0.36716141 0.21923068 0.08278718
0.47639384 0.21991299 0.08394253
0.58440486 0.22060961 0.08510125
0.69177361 0.22132294 0.08626857
0.79883766 0.22205426 0.08744744
0.90581605 0.22280427 0.08863968
0.92563041 0.22294525 0.08886204
0.13520978 0.32228139 0.08397580
0.25589084 0.32376868 0.08529718
0.36981752 0.32518886 0.08656278
0.48124250 0.32659244 0.08781704
0.59139539 0.32799365 0.08907239
0.70086839 0.32939920 0.09033464
0.81000687 0.33081292 0.09160709
0.91903502 0.33223723 0.09289181
0.93922657 0.33250230 0.09313118
0.13349578 0.42941479 0.08779699
0.25657931 0.43169241 0.08922674
0.37274416 0.43384886 0.09059332
0.48633116 0.43596366 0.09194511
0.59859609 0.43805965 0.09329574
0.71014404 0.44014779 0.09465160
0.82132806 0.44223442 0.09601633
0.93237744 0.44432363 0.09739223
0.95279714 0.44507295 0.09820670
0.13209886 0.53963791 0.09188358
0.25756245 0.54269847 0.09342071
0.37594456 0.54558432 0.09488731
0.49167339 0.54840370 0.09633573
0.60658100 0.55161974 0.09883552
0.72135447 0.55654771 0.10562433
0.83304050 0.56137211 0.11228321
0.94197444 0.56610630 0.11883007
0.96186587 0.56697391 0.12003124
0.13100830 0.65311213 0.09623789
0.26069951 0.65719645 0.09931384
0.38684685 0.66175803 0.10663255
0.50705436 0.66612640 0.11366426
0.62291886 0.67035768 0.12049732
0.73524302 0.67447991 0.12717564
0.84451445 0.67851001 0.13372559
0.95106250 0.68245933 0.14016481
0.97051488 0.68318251 0.14134617
0.14971572 0.76898733 0.11307278
0.28423688 0.77300077 0.12084620
0.40775722 0.77669817 0.12804640
0.52542710 0.78023175 0.13496363
0.63881262 0.78364755 0.14168486
0.74870134 0.78696861 0.14825331
0.85557185 0.79020890 0.15469494
0.95974752 0.79337779 0.16102713
0.97876334 0.79395736 0.16218880
0.17560001 0.88043810 0.13428166
0.30731465 0.88352831 0.14192847
0.42822044 0.88636562 0.14901073
0.54336471 0.88906836 0.15581401
0.65428300 0.89167253 0.16242394
0.76174782 0.89419623 0.16888303
0.86622879 0.89665044 0.17521687
0.96804332 0.89904261 0.18144255
0.98662466 0.89947925 0.18258461
0.19699387 0.97007821 0.15176300
0.32635994 0.97239583 0.15930387
0.44507779 0.97451339 0.16628742
0.55810856 0.97652088 0.17299536
0.66696220 0.97844586 0.17951214
0.77239863 0.98030229 0.18587973
0.87487996 0.98209869 0.19212335
0.97471862 0.98384088 0.19825989
0.99293636 0.98415791 0.19938556
0.13954358 0.11471820 0.13808856
0.25542962 0.11458499 0.13962085
0.36488926 0.11449549 0.14108295
0.47199914 0.11444075 0.14252701
0.57793669 0.11441736 0.14396778
0.68326837 0.11442333 0.14541220
0.78832423 0.11445730 0.14686424
0.89331830 0.11451826 0.14832640
0.91276752 0.11453245 0.14859843
0.13712280 0.21799074 0.14270977
0.25551940 0.21868341 0.14435532
0.36731788 0.21936331 0.14592294
0.47668705 0.22005178 0.14746893
0.58483165 0.22075442 0.14900926
0.69233162 0.22147368 0.15055150
0.79952505 0.22221083 0.15209996
0.90663127 0.22296661 0.15365742
0.92646916 0.22310866 0.15394698
0.13509233 0.32254358 0.14751330
0.25592534 0.32403773 0.14926877
0.36999358 0.32546430 0.15093877
0.48155529 0.32687404 0.15258368
0.59184176 0.32828128 0.15422064
0.70144599 0.32969275 0.15585780
0.81071384 0.33111231 0.15749985
0.91986983 0.33254239 0.15914978
0.94008490 0.33280851 0.15945636
0.13339764 0.42981781 0.15255745
0.25663313 0.43210228 0.15442130
0.37293952 0.43426512 0.15619228
0.48666326 0.43638608 0.15793472
0.59906177 0.43848810 0.15966696
0.71074095 0.44058216 0.16139773
0.82205435 0.44267462 0.16313206
0.93308149 0.44522577 0.16547077
0.95338685 0.44623756 0.16661124
0.13201985 0.54018043 0.15785560
0.25763539 0.54324785 0.15982682
0.37615905 0.54614008 0.16169782
0.49202463 0.54896563 0.16353689
0.60764211 0.55263924 0.16719850
0.72225810 0.55756010 0.17353742
0.83378888 0.56237751 0.17975278
0.94256942 0.56710477 0.18586139
0.96243262 0.56797111 0.18698192
0.13094829 0.65379318 0.16341292
0.26223207 0.65807202 0.16764520
0.38820954 0.66262594 0.17447863
0.50825297 0.66698690 0.18104156
0.62395717 0.67121095 0.18741669
0.73612385 0.67532608 0.19364511
0.84524003 0.67934917 0.19975154
0.95163468 0.68329157 0.20575251
0.97105883 0.68401348 0.20685323
0.15140795 0.76970584 0.18048961
0.28574677 0.77371105 0.18774212
0.40909724 0.77740079 0.19445704
0.52660303 0.78092697 0.20090549
0.63982826 0.78433553 0.20716878
0.74955950 0.78764949 0.21328734
0.85627477 0.79088277 0.21928545
0.96029704 0.79404475 0.22517940
0.97928463 0.79462304 0.22626042
0.17726967 0.88099210 0.20026985
0.30880198 0.88407408 0.20739575
0.42953790 0.88690373 0.21399273
0.54451808 0.88959907 0.22032724
0.65527609 0.89219601 0.22647922
0.76258343 0.89471260 0.23248843
0.86690915 0.89715981 0.23837874
0.96857028 0.89954506 0.24416617
0.98712339 0.89998043 0.24522760
0.19864466 0.97049455 0.21655567
0.32782839 0.97280395 0.22357562
0.44637638 0.97491384 0.23007389
0.55924306 0.97691393 0.23631305
0.66793641 0.97883167 0.24237190
0.77321536 0.98068100 0.24828959
0.87554144 0.98247040 0.25408970
0.97522670 0.98420567 0.25978799
0.99341622 0.98452142 0.26083301
0.13934964 0.11468534 0.21423941
0.25542477 0.11456066 0.21631192
0.36506057 0.11447911 0.21827728
0.47234062 0.11443205 0.22020749
0.57844440 0.11441615 0.22212317
0.68393939 0.11442949 0.22403415
0.78915626 0.11447072 0.22594614
0.89430941 0.11453886 0.22786279
0.91378790 0.11455437 0.22821846
0.13695397 0.21814102 0.22045104
0.25553966 0.21884221 0.22263680
0.36751430 0.21953006 0.22470768
0.47705364 0.22022621 0.22673982
0.58536447 0.22093635 0.22875506
0.69302776 0.22166298 0.23076386
0.80038219 0.22240739 0.23277228
0.90764750 0.22317035 0.23478422
0.92751466 0.22331371 0.23515742
0.13494788 0.32287158 0.22679801
0.25596997 0.32437426 0.22909368
0.37021437 0.32580877 0.23126696
0.48194626 0.32722619 0.23339800
0.59239896 0.32864093 0.23550987
0.70216650 0.33005977 0.23761361
0.81159535 0.33148659 0.23971561
0.92091042 0.33292384 0.24182002
0.94115477 0.33319129 0.24221023
0.13327722 0.43032105 0.23336410
0.25670180 0.43261406 0.23576817
0.37318435 0.43478484 0.23804241
0.48707826 0.43691348 0.24027099
0.59964300 0.43902300 0.24247814
0.71148550 0.44112443 0.24467548
0.82295989 0.44322415 0.24686977
0.93384845 0.44667462 0.25044116
0.95411868 0.44768483 0.25148127
0.13192324 0.54085729 0.24016999
0.25772787 0.54393324 0.24268142
0.37642769 0.54683342 0.24505569
0.49246343 0.54966664 0.24738090
0.60896057 0.55390593 0.25201682
0.72338059 0.55881795 0.25779586
0.83471817 0.56362664 0.26345928
0.94330781 0.56834529 0.26902250
0.96313588 0.56921004 0.27004266
0.13087532 0.65464243 0.24722442
0.26413723 0.65915959 0.25242416
0.38990331 0.66370397 0.25865368
0.50974254 0.66805572 0.26463323
0.62524727 0.67227077 0.27043847
0.73721797 0.67637706 0.27610701
0.84614095 0.68039144 0.28166150
0.95234470 0.68432522 0.28711708
0.97173372 0.68504554 0.28811744
0.15351182 0.77059795 0.26413047
0.28762373 0.77459293 0.27073472
0.41076281 0.77827313 0.27684573
0.52806440 0.78179009 0.28271081
0.64109015 0.78518966 0.28840421
0.75062542 0.78849478 0.29396288
0.85714748 0.79171934 0.29940905
0.96097885 0.79487270 0.30475761
0.97993131 0.79544941 0.30573828
0.17934547 0.88167949 0.28213282
0.31065087 0.88475123 0.28861046
0.43117540 0.88757134 0.29460352
0.54595138 0.89025748 0.30035466
0.65650990 0.89284542 0.30593675
0.76362127 0.89535316 0.31138607
0.86775379 0.89779166 0.31672445
0.96922402 0.90016830 0.32196649
0.98774199 0.90060208 0.32292756
0.20069696 0.97101063 0.29693084
0.32965378 0.97330978 0.30330254
0.44799038 0.97541015 0.30919689
0.56065286 0.97740101 0.31485268
0.66914673 0.97930976 0.32034163
0.77422970 0.98115025 0.32569945
0.87636258 0.98293094 0.33094761
0.97585694 0.98465759 0.33610052
0.99401133 0.98497176 0.33704518
0.13914822 0.11465291 0.29438026
0.25542172 0.11453717 0.29701947
0.36524231 0.11446396 0.29951278
0.47270088 0.11442495 0.30195298
0.57897904 0.11441692 0.30436685
0.68464536 0.11443799 0.30676729
0.79003112 0.11448684 0.30916179
0.89535116 0.11456251 0.31155521
0.91486036 0.11457940 0.31199861
0.13677890 0.21830069 0.30226030
0.25556295 0.21901083 0.30501277
0.36772239 0.21970702 0.30761159
0.47744024 0.22041122 0.31015371
0.58592546 0.22112923 0.31266715
0.69376007 0.22186359 0.31516541
0.80128340 0.22261562 0.31765634
0.90871559 0.22338611 0.32014505
0.92861346 0.22353086 0.32060598
0.13479837 0.32321769 0.31022639
0.25601883 0.32472932 0.31308878
0.37044803 0.32617217 0.31579000
0.48235843 0.32759764 0.31843103
0.59298551 0.32902025 0.32104110
0.70292438 0.33044682 0.32363428
0.81252212 0.33188126 0.32621879
0.92200408 0.33332604 0.32879998
0.94227914 0.33359487 0.32927792
0.13315292 0.43085101 0.31838907
0.25677587 0.43315297 0.32135984
0.37344322 0.43533209 0.32416203
0.48751564 0.43746878 0.32690060
0.60025477 0.43958617 0.32960595
0.71226859 0.44169532 0.33229274
0.82391188 0.44380267 0.33496953
0.93465058 0.44819209 0.33927207
0.95488396 0.44920064 0.34020690
0.13182392 0.54156937 0.32677664
0.25782692 0.54465427 0.32985478
0.37671154 0.54756279 0.33275699
0.49292579 0.55040407 0.33559219
0.61034126 0.55523230 0.34068820
0.72455569 0.56013504 0.34587989
0.83569059 0.56493459 0.35096430
0.94407997 0.56964421 0.35595539
0.96387119 0.57050730 0.35687028
0.13080080 0.65553535 0.33540161
0.26613339 0.66029805 0.34105425
0.39167772 0.66483243 0.34665023
0.51130273 0.66917452 0.35201780
0.62659819 0.67338013 0.35722520
0.73836331 0.67747714 0.36230640
0.84708362 0.68148238 0.36728188
0.95308710 0.68540713 0.37216534
0.97243927 0.68612579 0.37306041
0.15571643 0.77153137 0.35156664
0.28959029 0.77551561 0.35749085
0.41250762 0.77918581 0.36296832
0.52959500 0.78269310 0.36822141
0.64241149 0.78608323 0.37331698
0.75174116 0.78937907 0.37828831
0.85806055 0.79259450 0.38315547
0.96169165 0.79573882 0.38793190
0.98060727 0.79631387 0.38880729
0.18152063 0.88239815 0.36770391
0.31258798 0.88545916 0.37350150
0.43289075 0.88826926 0.37886102
0.54745252 0.89094573 0.38400018
0.65780178 0.89352423 0.38898444
0.76470756 0.89602270 0.39384642
0.86863741 0.89845205 0.39860578
0.96990737 0.90081966 0.40327569
0.98838850 0.90125178 0.40413148
0.20284747 0.97154957 0.38094117
0.33156625 0.97383799 0.38663282
0.44968109 0.97592835 0.39189363
0.56212935 0.97790955 0.39693744
0.67041396 0.97980886 0.40182856
0.77529135 0.98164007 0.40659903
0.87722156 0.98341161 0.41126819
0.97651565 0.98512923 0.41584896
0.99463318 0.98544174 0.41668834
0.13894273 0.11462164 0.37727830
0.25542075 0.11451513 0.38050178
0.36543187 0.11445052 0.38353939
0.47307448 0.11441981 0.38650538
0.57953243 0.11441989 0.38943289
0.68537538 0.11444893 0.39233794
0.79093527 0.11450564 0.39522990
0.89642737 0.11458907 0.39811488
0.91596823 0.11460739 0.39864873
0.13660057 0.21846749 0.38687844
0.25558915 0.21918686 0.39021518
0.36793911 0.21989164 0.39335831
0.47784100 0.22060415 0.39642622
0.58650601 0.22133027 0.39945330
0.69451726 0.22207259 0.40245616
0.80221471 0.22283248 0.40544456
0.90981896 0.22361073 0.40842482
0.92974849 0.22375691 0.40897621
0.13464641 0.32357671 0.39651384
0.25607139 0.32509757 0.39996049
0.37069111 0.32654901 0.40320602
0.48278555 0.32798279 0.40637284
0.59359242 0.32941350 0.40949654
0.70370792 0.33084804 0.41259434
0.81347980 0.33229034 0.41567631
0.92313381 0.33374288 0.41874905
0.94344054 0.33401314 0.41931745
0.13302695 0.43139957 0.40632258
0.25685441 0.43371075 0.40987762
0.37371230 0.43589847 0.41322411
0.48796876 0.43804346 0.41648847
0.60088767 0.44016896 0.41970745
0.71307812 0.44228608 0.42289886
0.82489554 0.44440128 0.42607311
0.93547495 0.44975397 0.43052697
0.95567033 0.45076080 0.43135326
0.13172371 0.54230570 0.41634083
0.25793122 0.54539983 0.42000324
0.37700636 0.54831694 0.42344976
0.49418930 0.55158114 0.42707511
0.61176211 0.55659715 0.43177862
0.72576459 0.56149033 0.43636478
0.83669054 0.56628045 0.44085223
0.94487344 0.57098076 0.44525346
0.96462666 0.57184213 0.44605980
0.13174048 0.65656837 0.42675181
0.26818880 0.66146918 0.43210211
0.39350449 0.66599324 0.43704492
0.51290865 0.67032536 0.44178155
0.62798837 0.67452125 0.44637259
0.73954152 0.67860870 0.45084825
0.84805288 0.68260450 0.45522677
0.95384989 0.68651994 0.45952037
0.97316407 0.68723689 0.46030690
0.15798674 0.77249110 0.44138359
0.29161519 0.77646427 0.44660668
0.41430388 0.78012415 0.45143098
0.53117041 0.78362149 0.45605313
0.64377115 0.78700188 0.46053233
0.75288887 0.79028816 0.46489812
0.85899930 0.79349415 0.46916833
0.96242393 0.79662917 0.47335490
0.98130155 0.79720250 0.47412174
0.18376057 0.88313646 0.45559798
0.31458251 0.88618640 0.46069445
0.43465665 0.88898619 0.46540080
0.54899757 0.89165270 0.46990901
0.65913108 0.89422146 0.47427691
0.76582490 0.89671037 0.47853335
0.86954579 0.89913030 0.48269576
0.97060929 0.90148859 0.48677582
0.98905242 0.90191899 0.48752305
0.20506200 0.97210260 0.46722612
0.33353537 0.97437994 0.47221665
0.45142158 0.97645999 0.47682429
0.56364899 0.97843123 0.48123715
0.67171785 0.98032080 0.48551191
0.77638328 0.98214245 0.48967685
0.87810453 0.98390457 0.49374904
0.97719216 0.98561287 0.49773996
0.99527170 0.98592367 0.49847080
0.13873486 0.11459196 0.46235042
0.25542204 0.11449488 0.46617146
0.36562803 0.11443906 0.46976577
0.47345887 0.11441684 0.47326951
0.58010070 0.11442522 0.47672235
0.68612430 0.11446240 0.48014349
0.79186228 0.11452715 0.48354424
0.89753036 0.11461852 0.48693195
0.91710360 0.11463830 0.48755831
0.13642049 0.21864038 0.47370982
0.25561823 0.21936919 0.47764412
0.36816305 0.22008276 0.48134394
0.47825317 0.22080376 0.48494961
0.58710206 0.22153817 0.48850201
0.69529396 0.22228865 0.49202097
0.80316950 0.22305657 0.49551815
0.91094973 0.22384276 0.49900115
0.93091164 0.22399039 0.49964504
0.13449328 0.32394619 0.48505250
0.25612742 0.32547648 0.48909672
0.37094201 0.32693672 0.49289893
0.48322468 0.32837898 0.49660351
0.59421544 0.32981799 0.50025254
0.70451158 0.33126068 0.50386643
0.81446155 0.33271101 0.50745719
0.92429154 0.33417150 0.51103266
0.94463065 0.33444322 0.51169357
0.13290041 0.43196290 0.49654476
0.25693704 0.43428352 0.50069736
0.37398978 0.43648002 0.50460055
0.48843447 0.43863351 0.50840266
0.60153727 0.44076731 0.51214697
0.71390837 0.44289258 0.51585447
0.82594077 0.44586742 0.51960707
0.93631534 0.45134864 0.52351342
0.95647186 0.45235371 0.52422870
0.13162350 0.54306108 0.50823081
0.25804017 0.54616464 0.51249079
0.37731018 0.54909054 0.51649400
0.49586040 0.55298426 0.52052373
0.61321255 0.55799032 0.52459685
0.72699824 0.56287372 0.52856369
0.83771049 0.56765420 0.53244060
0.94568222 0.57234498 0.53623855
0.96539659 0.57320460 0.53693388
0.13409091 0.65777473 0.52024359
0.27028822 0.66266421 0.52487681
0.39537008 0.66717773 0.52915159
0.51454837 0.67149966 0.53324291
0.62940743 0.67568558 0.53720356
0.74074380 0.67976326 0.54105991
0.84904145 0.68374942 0.54482789
0.95462729 0.68765533 0.54851820
0.97390261 0.68837052 0.54919372
0.16030596 0.77346992 0.53289937
0.29368341 0.77743177 0.53740538
0.41613827 0.78108110 0.54156165
0.53277892 0.78456825 0.54553849
0.64515901 0.78793868 0.54938730
0.75405994 0.79121519 0.55313378
0.85995667 0.79441154 0.55679344
0.96317013 0.79753703 0.56037674
0.98200889 0.79810861 0.56103256
0.18604874 0.88388883 0.54514712
0.31661968 0.88692744 0.54952652
0.43645999 0.88971669 0.55356484
0.55057503 0.89237300 0.55742774
0.66048788 0.89493181 0.56116525
0.76696492 0.89741095 0.56480238
0.87047210 0.89982123 0.56835424
0.97132443 0.90216999 0.57183101
0.98972870 0.90259864 0.57246724
0.20732419 0.97266546 0.55512952
0.33554655 0.97493149 0.55940297
0.45319893 0.97700098 0.56334259
0.56520046 0.97896203 0.56711014
0.67304867 0.98084165 0.57075451
0.77749731 0.98265352 0.57430013
0.87900486 0.98440600 0.57776179
0.97788131 0.98610477 0.58114942
0.99592199 0.98641382 0.58176924
0.13852563 0.11456411 0.54925295
0.25542574 0.11447664 0.55368232
0.36583009 0.11442977 0.55784334
0.47385256 0.11441620 0.56189452
0.58068158 0.11443302 0.56588213
0.68688909 0.11447850 0.56982867
0.79280836 0.11455143 0.57374736
0.89865558 0.11465088 0.57764686
0.91826179 0.11467214 0.57836740
0.13623953 0.21881876 0.56240327
0.25565020 0.21955717 0.56694590
0.36839340 0.22027969 0.57121244
0.47867514 0.22100933 0.57536554
0.58771122 0.22175220 0.57945272
0.69608703 0.22251096 0.58349708
0.80414386 0.22328707 0.58751220
0.91210323 0.22408134 0.59150698
0.93209811 0.22423046 0.59224505
0.13433977 0.32432470 0.57548398
0.25618685 0.32586460 0.58013652
0.37119980 0.32733378 0.58450546
0.48367409 0.32878469 0.58875747
0.59485204 0.33023215 0.59294128
0.70533209 0.33168313 0.59708056
0.81546336 0.33314164 0.60118927
0.92547249 0.33461021 0.60527652
0.94584456 0.33488341 0.60603161
0.13277396 0.43253875 0.58869007
0.25702352 0.43486898 0.59345100
0.37427464 0.43707443 0.59792090
0.48891095 0.43923656 0.60227045
0.60220094 0.44137880 0.60654954
0.71475594 0.44351237 0.61078243
0.82700841 0.44749765 0.61452336
0.93716800 0.45296917 0.61781557
0.95728497 0.45397246 0.61841783
0.13152386 0.54383243 0.60207395
0.25815347 0.54694560 0.60694225
0.37762185 0.54988045 0.61151218
0.49755873 0.55440979 0.61529637
0.61468626 0.55940572 0.61872775
0.72825126 0.56427916 0.62206412
0.83874595 0.56904982 0.62531950
0.94650271 0.57373091 0.62850331
0.96617752 0.57458874 0.62908562
0.13648080 0.65899995 0.61506015
0.27242260 0.66387790 0.61896339
0.39726642 0.66838068 0.62255811
0.51621475 0.67269224 0.62599251
0.63084918 0.67686803 0.62931142
0.74196487 0.68093575 0.63253730
0.85004496 0.68491210 0.63568374
0.95541583 0.68880831 0.63875992
0.97465159 0.68952172 0.63932242
0.16266409 0.77446351 0.62570436
0.29578602 0.77841383 0.62948038
0.41800284 0.78205243 0.63295659
0.53441354 0.78552920 0.63627651
0.64656900 0.78888950 0.63948358
0.75524925 0.79215605 0.64259959
0.86092842 0.79534259 0.64563773
0.96392691 0.79845838 0.64860687
0.98272611 0.79902818 0.64914969
0.18837526 0.88465189 0.63595006
0.31869068 0.88767898 0.63959948
0.43829294 0.89045748 0.64295774
0.55217803 0.89310343 0.64616372
0.66186626 0.89565210 0.64925949
0.76812261 0.89812128 0.65226614
0.87141224 0.90052175 0.65519648
0.97204959 0.90286081 0.65805911
0.99041431 0.90328768 0.65858232
0.20962425 0.97323561 0.64425710
0.33759109 0.97549011 0.64780056
0.45500543 0.97754886 0.65106012
0.56677701 0.97949954 0.65417075
0.67440059 0.98136903 0.65717338
0.77862855 0.98317094 0.66008853
0.87991854 0.98491360 0.66292865
0.97858002 0.98660268 0.66570214
0.99658114 0.98690994 0.66620895
0.13831573 0.11453831 0.63775864
0.25543195 0.11446059 0.64280540
0.36603762 0.11442280 0.64754158
0.47425456 0.11441800 0.65214835
0.58127357 0.11444339 0.65667872
0.68766772 0.11449729 0.66115848
0.79377099 0.11457852 0.66560282
0.89980002 0.11468617 0.67002174
0.91943969 0.11470895 0.67083786
0.13605833 0.21900225 0.65272658
0.25568511 0.21975041 0.65788659
0.36862963 0.22048201 0.66272829
0.47910585 0.22122043 0.66743699
0.58833191 0.22197186 0.67206692
0.69689436 0.22273905 0.67664450
0.80513520 0.22352345 0.68118528
0.91327638 0.22432592 0.68569947
0.93330471 0.22447656 0.68653313
0.13418643 0.32471130 0.66757122
0.25624961 0.32626095 0.67284115
0.37146389 0.32773921 0.67778524
0.48413266 0.32919890 0.68259285
0.59550059 0.33065492 0.68731941
0.70616728 0.33211433 0.69199191
0.81648255 0.33358114 0.69662628
0.92667349 0.33505791 0.70123294
0.94707902 0.33533262 0.70208361
0.13264809 0.43312564 0.68251667
0.25711375 0.43546561 0.68789498
0.37456619 0.43768015 0.69294005
0.48939698 0.43985105 0.69784519
0.60287695 0.44200186 0.70266703
0.71561860 0.44414385 0.70743314
0.82808901 0.44914923 0.71048426
0.93803043 0.45461090 0.71315317
0.95810724 0.45561238 0.71364074
0.13142519 0.54461773 0.69762368
0.25827091 0.54774065 0.70310937
0.37801237 0.55071305 0.70822866
0.49927943 0.55585362 0.71111148
0.61617898 0.56083926 0.71389155
0.72952001 0.56570260 0.71658806
0.83979390 0.57046331 0.71921265
0.94733249 0.57513454 0.72177316
0.96696715 0.57599057 0.72224078
0.13890337 0.66024049 0.71091985
0.27458584 0.66510674 0.71408222
0.39918806 0.66959862 0.71698675
0.51790303 0.67389965 0.71975444
0.63230948 0.67806516 0.72242204
0.74320120 0.68212277 0.72500806
0.85106049 0.68608916 0.72752371
0.95621319 0.68997553 0.72997659
0.97540880 0.69068713 0.73042440
0.16505442 0.77546897 0.71952250
0.29791702 0.77940759 0.72255766
0.41989225 0.78303529 0.72534368
0.53606958 0.78650153 0.72799688
0.64799706 0.78985155 0.73055266
0.75645333 0.79310799 0.73302880
0.86191170 0.79628457 0.73543614
0.96469202 0.79939052 0.73778199
0.98345108 0.79995850 0.73821011
0.19073350 0.88542338 0.72773633
0.32078959 0.88843877 0.73064487
0.44015027 0.89120638 0.73331294
0.55380199 0.89384179 0.73585221
0.66326223 0.89638018 0.73829668
0.76929461 0.89883926 0.74066347
0.87236344 0.90122976 0.74296301
0.97278262 0.90355898 0.74520235
0.99110719 0.90398404 0.74561086
0.21195564 0.97381131 0.73434303
0.33966316 0.97605411 0.73714562
0.45683590 0.97810197 0.73971499
0.56837411 0.98004212 0.74215891
0.67576971 0.98190132 0.74451023
0.77977370 0.98369312 0.74678552
0.88084289 0.98542583 0.74899485
0.97928620 0.98710506 0.75114505
0.99724717 0.98741051 0.75153716
0.13810568 0.11451469 0.72770601
0.25544075 0.11444685 0.73337800
0.36625031 0.11441825 0.73869666
0.47466420 0.11442234 0.74386609
0.58187560 0.11445641 0.74894611
0.68845877 0.11451884 0.75396586
0.79474838 0.11460847 0.75894256
0.90096154 0.11472443 0.76388748
0.92063508 0.11474873 0.76480040
0.13587735 0.21919059 0.74451467
0.25572298 0.21994862 0.75029992
0.36887139 0.22068942 0.75572409
0.47954456 0.22143672 0.76099545
0.58896301 0.22219684 0.76617503
0.69771448 0.22297255 0.77129261
0.80614165 0.22376536 0.77636573
0.91446696 0.22457614 0.78140595
0.93452918 0.22472830 0.78233640
0.13403365 0.32510534 0.76114566
0.25631569 0.32666485 0.76704083
0.37173385 0.32815232 0.77256739
0.48459957 0.32962089 0.77793766
0.59615989 0.33108559 0.78321387
0.70701561 0.33255353 0.78842638
0.81751721 0.33402874 0.79359309
0.92789228 0.33551382 0.79872577
0.94833169 0.33579006 0.79967324
0.13252313 0.43372250 0.77785260
0.25720765 0.43607235 0.78385615
0.37486397 0.43829608 0.78948368
0.48989171 0.44047588 0.79495149
0.60356407 0.44263536 0.80032298
0.71669831 0.44526822 0.80519009
0.82918033 0.45081878 0.80728557
0.93890080 0.45627049 0.80932326
0.95893695 0.45727014 0.80969467
0.13132779 0.54541553 0.79470465
0.25839236 0.54854832 0.80081557
0.37998826 0.55218287 0.80555750
0.50101898 0.55731278 0.80776513
0.61768766 0.56228801 0.80988563
0.73080187 0.56714112 0.81193414
0.84085215 0.57189174 0.81391991
0.94816979 0.57655301 0.81584920
0.96776379 0.57740720 0.81620066
0.14135371 0.66149378 0.80761866
0.27677356 0.66634818 0.81003074
0.40113112 0.67082902 0.81223631
0.51960975 0.67511939 0.81432880
0.63378533 0.67927448 0.81633683
0.74445022 0.68332186 0.81827484
0.85208590 0.68727817 0.82015168
0.95701765 0.69115457 0.82197334
0.97617261 0.69186433 0.82230499
0.16747212 0.77648419 0.81415380
0.30007209 0.78041096 0.81643867
0.42180266 0.78402762 0.81852573
0.53774365 0.78748320 0.82050374
0.64944025 0.79082281 0.82239993
0.75766971 0.79406902 0.82422808
0.86290447 0.79723551 0.82599660
0.96546384 0.80033148 0.82771123
0.98418224 0.80089764 0.82802319
0.19311870 0.88620166 0.82030992
0.32291217 0.88920520 0.82246818
0.44202818 0.89196177 0.82443728
0.55544356 0.89458652 0.82630135
0.66467294 0.89711450 0.82808624
0.77047849 0.89956334 0.82980504
0.87332371 0.90194376 0.83146576
0.97352195 0.90426301 0.83307388
0.99180586 0.90468623 0.83336624
0.21431365 0.97439131 0.82519466
0.34175854 0.97662226 0.82724697
0.45868662 0.97865908 0.82911737
0.56998850 0.98058857 0.83088610
0.67715322 0.98243735 0.83257784
0.78093039 0.98421893 0.83420513
0.88177597 0.98594154 0.83577564
0.97999834 0.98761081 0.83729462
0.99791865 0.98791442 0.83757058
