luts/cubes/vintage_analog.cube
TITLE "vintage_analog"
LUT_3D_SIZE 5
DOMAIN_MIN 0.0 0.0 0.0
DOMAIN_MAX 1.0 1.0 1.0
0.13970079 0.11474598 0.07706929
0.36475297 0.11451003 0.07922518
0.57753008 0.11441970 0.08133776
0.78765703 0.11444788 0.08348970
0.91194895 0.11451620 0.08479148
0.13520978 0.32228139 0.08397580
0.36981752 0.32518886 0.08656278
0.59139539 0.32799365 0.08907239
0.81000687 0.33081292 0.09160709
0.93922657 0.33250230 0.09313118
0.13209886 0.53963791 0.09188358
0.37594456 0.54558432 0.09488731
0.60658100 0.55161974 0.09883552
0.83304050 0.56137211 0.11228321
0.96186587 0.56697391 0.12003124
0.14971572 0.76898733 0.11307278
0.40775722 0.77669817 0.12804640
0.63881262 0.78364755 0.14168486
0.85557185 0.79020890 0.15469494
0.97876334 0.79395736 0.16218880
0.19699387 0.97007821 0.15176300
0.44507779 0.97451339 0.16628742
0.66696220 0.97844586 0.17951214
0.87487996 0.98209869 0.19212335
0.99293636 0.98415791 0.19938556
0.13934964 0.11468534 0.21423941
0.36506057 0.11447911 0.21827728
0.57844440 0.11441615 0.22212317
0.78915626 0.11447072 0.22594614
0.91378790 0.11455437 0.22821846
0.13494788 0.32287158 0.22679801
0.37021437 0.32580877 0.23126696
0.59239896 0.32864093 0.23550987
0.81159535 0.33148659 0.23971561
0.94115477 0.33319129 0.24221023
0.13192324 0.54085729 0.24016999
0.37642769 0.54683342 0.24505569
0.60896057 0.55390593 0.25201682
0.83471817 0.56362664 0.26345928
0.96313588 0.56921004 0.27004266
0.15351182 0.77059795 0.26413047
0.41076281 0.77827313 0.27684573
0.64109015 0.78518966 0.28840421
0.85714748 0.79171934 0.29940905
0.97993131 0.79544941 0.30573828
0.20069696 0.97101063 0.29693084
0.44799038 0.97541015 0.30919689
0.66914673 0.97930976 0.32034163
0.87636258 0.98293094 0.33094761
0.99401133 0.98497176 0.33704518
0.13894273 0.11462164 0.37727830
0.36543187 0.11445052 0.38353939
0.57953243 0.11441989 0.38943289
0.79093527 0.11450564 0.39522990
0.91596823 0.11460739 0.39864873
0.13464641 0.32357671 0.39651384
0.37069111 0.32654901 0.40320602
0.59359242 0.32941350 0.40949654
0.81347980 0.33229034 0.41567631
0.94344054 0.33401314 0.41931745
0.13172371 0.54230570 0.41634083
0.37700636 0.54831694 0.42344976
0.61176211 0.55659715 0.43177862
0.83669054 0.56628045 0.44085223
0.96462666 0.57184213 0.44605980
0.15798674 0.77249110 0.44138359
0.41430388 0.78012415 0.45143098
0.64377115 0.78700188 0.46053233
0.85899930 0.79349415 0.46916833
0.98130155 0.79720250 0.47412174
0.20506200 0.97210260 0.46722612
0.45142158 0.97645999 0.47682429
0.67171785 0.98032080 0.48551191
0.87810453 0.98390457 0.49374904
0.99527170 0.98592367 0.49847080
0.13852563 0.11456411 0.54925295
0.36583009 0.11442977 0.55784334
0.58068158 0.11443302 0.56588213
0.79280836 0.11455143 0.57374736
0.91826179 0.11467214 0.57836740
0.13433977 0.32432470 0.57548398
0.37119980 0.32733378 0.58450546
0.59485204 0.33023215 0.59294128
0.81546336 0.33314164 0.60118927
0.94584456 0.33488341 0.60603161
0.13152386 0.54383243 0.60207395
0.37762185 0.54988045 0.61151218
0.61468626 0.55940572 0.61872775
0.83874595 0.56904982 0.62531950
0.96617752 0.57458874 0.62908562
0.16266409 0.77446351 0.62570436
0.41800284 0.78205243 0.63295659
0.64656900 0.78888950 0.63948358
0.86092842 0.79534259 0.64563773
0.98272611 0.79902818 0.64914969
0.20962425 0.97323561 0.64425710
0.45500543 0.97754886 0.65106012
0.67440059 0.98136903 0.65717338
0.87991854 0.98491360 0.66292865
0.99658114 0.98690994 0.66620895
0.13810568 0.11451469 0.72770601
0.36625031 0.11441825 0.73869666
0.58187560 0.11445641 0.74894611
0.79474838 0.11460847 0.75894256
0.92063508 0.11474873 0.76480040
0.13403365 0.32510534 0.76114566
0.37173385 0.32815232 0.77256739
0.59615989 0.33108559 0.78321387
0.81751721 0.33402874 0.79359309
0.94833169 0.33579006 0.79967324
0.13132779 0.54541553 0.79470465
0.37998826 0.55218287 0.80555750
0.61768766 0.56228801 0.80988563
0.84085215 0.57189174 0.81391991
0.96776379 0.57740720 0.81620066
0.16747212 0.77648419 0.81415380
0.42180266 0.78402762 0.81852573
0.64944025 0.79082281 0.82239993
0.86290447 0.79723551 0.82599660
0.98418224 0.80089764 0.82802319
0.21431365 0.97439131 0.82519466
0.45868662 0.97865908 0.82911737
0.67715322 0.98243735 0.83257784
0.88177597 0.98594154 0.83577564
0.99791865 0.98791442 0.83757058
