luts/cubes/warm_kodak.cube
TITLE "warm_kodak"
LUT_3D_SIZE 33
DOMAIN_MIN 0.0 0.0 0.0
DOMAIN_MAX 1.0 1.0 1.0
0.23916829 0.24534180 0.22720409
0.25746261 0.24477451 0.22678125
0.27547378 0.24424304 0.22638492
0.29367058 0.24372925 0.22600159
0.31216852 0.24322730 0.22562692
0.33100077 0.24273426 0.22525873
0.35016596 0.24224835 0.22489570
0.36964374 0.24176839 0.22453696
0.38940156 0.24129354 0.22418188
0.40939827 0.24082316 0.22383000
0.42958627 0.24035676 0.22348094
0.44991318 0.23989394 0.22313441
0.47032309 0.23943439 0.22279019
0.49075771 0.23897784 0.22244806
0.51115738 0.23852407 0.22210787
0.53146206 0.23807288 0.22176948
0.55161222 0.23762410 0.22143275
0.57154966 0.23717759 0.22109759
0.59121836 0.23673323 0.22076390
0.61056507 0.23629090 0.22043159
0.62954001 0.23585049 0.22010059
0.64809734 0.23541192 0.21977085
0.66619557 0.23497511 0.21944228
0.68379786 0.23453998 0.21911485
0.70087225 0.23410647 0.21878850
0.71739172 0.23367450 0.21846318
0.73333426 0.23324404 0.21813886
0.74868272 0.23281502 0.21781549
0.76342471 0.23238739 0.21749305
0.77755237 0.23196112 0.21717149
0.79106208 0.23153615 0.21685080
0.79331595 0.23146343 0.21679590
0.79331595 0.23146343 0.21679590
0.23761442 0.26031506 0.22596386
0.25591117 0.25974828 0.22554111
0.27393344 0.25921720 0.22514488
0.29214958 0.25870368 0.22476164
0.31067489 0.25820192 0.22438707
0.32954237 0.25770897 0.22401898
0.34875043 0.25722308 0.22365606
0.36827841 0.25674306 0.22329743
0.38809339 0.25626807 0.22294246
0.40815371 0.25579748 0.22259069
0.42841124 0.25533080 0.22224175
0.44881293 0.25486763 0.22189535
0.46930217 0.25440766 0.22155125
0.48981988 0.25395062 0.22120925
0.51030558 0.25349629 0.22086919
0.53069837 0.25304447 0.22053094
0.55093786 0.25259500 0.22019435
0.57096501 0.25214774 0.21985933
0.59072293 0.25170256 0.21952579
0.61015759 0.25125934 0.21919363
0.62921846 0.25081799 0.21886279
0.64785901 0.25037841 0.21853320
0.66603714 0.24994053 0.21820479
0.68371549 0.24950427 0.21787753
0.70086164 0.24906957 0.21755134
0.71744823 0.24863635 0.21722620
0.73345297 0.24820458 0.21690205
0.74885853 0.24777418 0.21657886
0.76365241 0.24734513 0.21625660
0.77782672 0.24691737 0.21593522
0.79137789 0.24649086 0.21561471
0.79363835 0.24641786 0.21555985
0.79363835 0.24641786 0.21555985
0.23610180 0.27561148 0.22475507
0.25439989 0.27504724 0.22433243
0.27243203 0.27451845 0.22393630
0.29066611 0.27400707 0.22355318
0.30921725 0.27350730 0.22317872
0.32811828 0.27301624 0.22281074
0.34736738 0.27253213 0.22244794
0.36694362 0.27205379 0.22208943
0.38681371 0.27158039 0.22173459
0.40693554 0.27111130 0.22138294
0.42726040 0.27064603 0.22103413
0.44773464 0.27018419 0.22068787
0.46830094 0.26972548 0.22034390
0.48889945 0.26926962 0.22000205
0.50946889 0.26881639 0.21966214
0.52994752 0.26836560 0.21932403
0.55027410 0.26791708 0.21898759
0.57038875 0.26747071 0.21865273
0.59023374 0.26702634 0.21831934
0.60975427 0.26658387 0.21798735
0.62889906 0.26614319 0.21765667
0.64762091 0.26570423 0.21732725
0.66587711 0.26526689 0.21699901
0.68362978 0.26483111 0.21667192
0.70084607 0.26439681 0.21634591
0.71749826 0.26396395 0.21602095
0.73356379 0.26353245 0.21569698
0.74902515 0.26310228 0.21537398
0.76386974 0.26267338 0.21505191
0.77808964 0.26224572 0.21473073
0.79168131 0.26181924 0.21441041
0.79394821 0.26174625 0.21435559
0.79394821 0.26174625 0.21435559
0.23461393 0.29135334 0.22356462
0.25291235 0.29079373 0.22314211
0.27095330 0.29026917 0.22274610
0.28920418 0.28976180 0.22236310
0.30777992 0.28926588 0.22198877
0.32671320 0.28877851 0.22162092
0.34600202 0.28829797 0.22125825
0.36562515 0.28782308 0.22089987
0.38554895 0.28735302 0.22054517
0.40573085 0.28688716 0.22019367
0.42612161 0.28642504 0.21984500
0.44666697 0.28596626 0.21949888
0.46730890 0.28551050 0.21915507
0.48798680 0.28505751 0.21881337
0.50863861 0.28460707 0.21847361
0.52920174 0.28415899 0.21813566
0.54961411 0.28371311 0.21779939
0.56981499 0.28326928 0.21746469
0.58974585 0.28282739 0.21713147
0.60935108 0.28238732 0.21679965
0.62857869 0.28194897 0.21646915
0.64738079 0.28151226 0.21613990
0.66571407 0.28107710 0.21581185
0.68354014 0.28064343 0.21548494
0.70082569 0.28021118 0.21515912
0.71754267 0.27978029 0.21483435
0.73366823 0.27935071 0.21451058
0.74918470 0.27892238 0.21418778
0.76407937 0.27849525 0.21386591
0.77834427 0.27806929 0.21354493
0.79197592 0.27764446 0.21322482
0.79424918 0.27757174 0.21317003
0.79424918 0.27757174 0.21317003
0.23314417 0.30757799 0.22238725
0.25144197 0.30702512 0.22196489
0.26949072 0.30650680 0.22156902
0.28775735 0.30600538 0.22118615
0.30635661 0.30551518 0.22081196
0.32532104 0.30503337 0.22044425
0.34464843 0.30455822 0.22008173
0.36431731 0.30408860 0.21972350
0.38429366 0.30362367 0.21936895
0.40453448 0.30316285 0.21901760
0.42499002 0.30270563 0.21866909
0.44560538 0.30225166 0.21832313
0.46632186 0.30180062 0.21797948
0.48707812 0.30135224 0.21763794
0.50781128 0.30090633 0.21729836
0.52845795 0.30046268 0.21696058
0.54895518 0.30002115 0.21662448
0.56924142 0.29958159 0.21628996
0.58925731 0.29914387 0.21595692
0.60894647 0.29870791 0.21562529
0.62825615 0.29827358 0.21529497
0.64713780 0.29784082 0.21496592
0.66554751 0.29740953 0.21463806
0.68344635 0.29697966 0.21431135
0.70080060 0.29655113 0.21398573
0.71758183 0.29612389 0.21366116
0.73376694 0.29569788 0.21333759
0.74933806 0.29527305 0.21301500
0.76428239 0.29484937 0.21269334
0.77859193 0.29442678 0.21237258
0.79226322 0.29400525 0.21205269
0.79454278 0.29393309 0.21199793
0.79454278 0.29393309 0.21199793
0.23168890 0.32429468 0.22122012
0.24998514 0.32375072 0.22079790
0.26804075 0.32324066 0.22040219
0.28632214 0.32274714 0.22001948
0.30494392 0.32226460 0.21964544
0.32393848 0.32179023 0.21927789
0.34330342 0.32132236 0.21891552
0.36301702 0.32085985 0.21855745
0.38304491 0.32040190 0.21820306
0.40334367 0.31994792 0.21785188
0.42386301 0.31949743 0.21750354
0.44454745 0.31905007 0.21715775
0.46533758 0.31860552 0.21681428
0.48617134 0.31816355 0.21647292
0.50698505 0.31772393 0.21613351
0.52771448 0.31728648 0.21579592
0.54829587 0.31685106 0.21546001
0.56866679 0.31641752 0.21512568
0.58876709 0.31598574 0.21479284
0.60853958 0.31555561 0.21446139
0.62793079 0.31512705 0.21413128
0.64689149 0.31469997 0.21380243
0.66537716 0.31427428 0.21347477
0.68334834 0.31384993 0.21314827
0.70077088 0.31342685 0.21282286
0.71761599 0.31300498 0.21249850
0.73386030 0.31258426 0.21217516
0.74948575 0.31216466 0.21185278
0.76447944 0.31174612 0.21153134
0.77883335 0.31132861 0.21121081
0.79254404 0.31091208 0.21089115
0.79482986 0.31084077 0.21083643
0.79482986 0.31084077 0.21083643
0.23024586 0.34149778 0.22006141
0.24853962 0.34096491 0.21963937
0.26660116 0.34046516 0.21924382
0.28489639 0.33998154 0.21886128
0.30353973 0.33950860 0.21848741
0.32256346 0.33904361 0.21812003
0.34196499 0.33858490 0.21775783
0.36172236 0.33813138 0.21739994
0.38180087 0.33768227 0.21704573
0.40215667 0.33723698 0.21669472
0.42273896 0.33679505 0.21634656
0.44349164 0.33635612 0.21600096
0.46435466 0.33591989 0.21565767
0.48526518 0.33548612 0.21531651
0.50615875 0.33505460 0.21497729
0.52697032 0.33462516 0.21463989
0.54763526 0.33419763 0.21430418
0.56809034 0.33377189 0.21397006
0.58827454 0.33334782 0.21363742
0.60812992 0.33292532 0.21330618
0.62760224 0.33250429 0.21297628
0.64664159 0.33208465 0.21264764
0.66520286 0.33166633 0.21232020
0.68324607 0.33124926 0.21199392
0.70073659 0.33083338 0.21166873
0.71764530 0.33041863 0.21134460
0.73394855 0.33000496 0.21102148
0.74962811 0.32959232 0.21069934
0.76467094 0.32918068 0.21037813
0.77906901 0.32876998 0.21005783
0.79281892 0.32836020 0.20973841
0.79511097 0.32829004 0.20968374
0.79511097 0.32829004 0.20968374
0.22881350 0.35917153 0.21890993
0.24710388 0.35865193 0.21848807
0.26517044 0.35816456 0.21809271
0.28347859 0.35769283 0.21771034
0.30214258 0.35723144 0.21733665
0.32119456 0.35677774 0.21696946
0.34063178 0.35633010 0.21660744
0.36043203 0.35588745 0.21624974
0.38056029 0.35544905 0.21589571
0.40097230 0.35501430 0.21554490
0.42161674 0.35458277 0.21519694
0.44243693 0.35415411 0.21485153
0.46337212 0.35372803 0.21450844
0.48435877 0.35330428 0.21416748
0.50533160 0.35288267 0.21382847
0.52622475 0.35246302 0.21349128
0.54697276 0.35204519 0.21315578
0.56751153 0.35162905 0.21282187
0.58777924 0.35121448 0.21248944
0.60771712 0.35080139 0.21215843
0.62727022 0.35038967 0.21182875
0.64638793 0.34997926 0.21150033
0.66502453 0.34957008 0.21117313
0.68313951 0.34916206 0.21084707
0.70069779 0.34875515 0.21052212
0.71766989 0.34834930 0.21019822
0.73403189 0.34794444 0.20987534
0.74976536 0.34754054 0.20955344
0.76485718 0.34713755 0.20923248
0.77929927 0.34673544 0.20891243
0.79308825 0.34633416 0.20859326
0.79538651 0.34626545 0.20853863
0.79538651 0.34626545 0.20853863
0.22739068 0.37729207 0.21776477
0.24567680 0.37678792 0.21734312
0.26374751 0.37631494 0.21694795
0.28206768 0.37585708 0.21656578
0.30075143 0.37540918 0.21619228
0.31983077 0.37496867 0.21582528
0.33930281 0.37453398 0.21546347
0.35914509 0.37410408 0.21510596
0.37932229 0.37367822 0.21475214
0.39978972 0.37325586 0.21440153
0.42049557 0.37283657 0.21405378
0.44138257 0.37241999 0.21370858
0.46238930 0.37200586 0.21336570
0.48345148 0.37159395 0.21302495
0.50450304 0.37118405 0.21268616
0.52547729 0.37077600 0.21234919
0.54630793 0.37036965 0.21201392
0.56693001 0.36996490 0.21168023
0.58728086 0.36956161 0.21134803
0.60730095 0.36915970 0.21101725
0.62693455 0.36875907 0.21068780
0.64613039 0.36835966 0.21035962
0.66484210 0.36796139 0.21003266
0.68302865 0.36756420 0.20970684
0.70065451 0.36716803 0.20938214
0.71768984 0.36677283 0.20905849
0.73411045 0.36637855 0.20873586
0.74989771 0.36598514 0.20841421
0.76503839 0.36559257 0.20809351
0.77952436 0.36520080 0.20777372
0.79335232 0.36480978 0.20745481
0.79565677 0.36474283 0.20740022
0.79565677 0.36474283 0.20740022
0.22597657 0.39582859 0.21662528
0.24425754 0.39534199 0.21620385
0.26233153 0.39488540 0.21580889
0.28066286 0.39444333 0.21542693
0.29936549 0.39401081 0.21505364
0.31847134 0.39358535 0.21468685
0.33797734 0.39316545 0.21432524
0.35786083 0.39275011 0.21396795
0.37808618 0.39233862 0.21361435
0.39860829 0.39193045 0.21326395
0.41937485 0.39152518 0.21291642
0.44032801 0.39112247 0.21257144
0.46140568 0.39072207 0.21222879
0.48254284 0.39032376 0.21188827
0.50367264 0.38992733 0.21154971
0.52472756 0.38953264 0.21121297
0.54564043 0.38913954 0.21087792
0.56634548 0.38874792 0.21054447
0.58677919 0.38835767 0.21021252
0.60688123 0.38796869 0.20988198
0.62659511 0.38758090 0.20955277
0.64586887 0.38719423 0.20922485
0.66465552 0.38680862 0.20889813
0.68291349 0.38642399 0.20857257
0.70060681 0.38604030 0.20824812
0.71770525 0.38565749 0.20792473
0.73418434 0.38527552 0.20760236
0.75002528 0.38489434 0.20728098
0.76521473 0.38451392 0.20696054
0.77974451 0.38413423 0.20664102
0.79361135 0.38375521 0.20632238
0.79592199 0.38369031 0.20626785
0.79592199 0.38369031 0.20626785
0.22457050 0.41474398 0.21549094
0.24284546 0.41427696 0.21506975
0.26092187 0.41383867 0.21467501
0.27926350 0.41341424 0.21429327
0.29798417 0.41299891 0.21392020
0.31711567 0.41259030 0.21355363
0.33665481 0.41218697 0.21319225
0.35657872 0.41178795 0.21283519
0.37685145 0.41139258 0.21248181
0.39742751 0.41100032 0.21213165
0.41825412 0.41061080 0.21178434
0.43927281 0.41022369 0.21143960
0.46042086 0.40983874 0.21109718
0.48163249 0.40945573 0.21075690
0.50284007 0.40907449 0.21041858
0.52397525 0.40869485 0.21008208
0.54497002 0.40831670 0.20974729
0.56575773 0.40793991 0.20941408
0.58627405 0.40756438 0.20908238
0.60645781 0.40719003 0.20875209
0.62625179 0.40681677 0.20842315
0.64560330 0.40644454 0.20809548
0.66446477 0.40607326 0.20776902
0.68279404 0.40570288 0.20744373
0.70055470 0.40533335 0.20711955
0.71771616 0.40496462 0.20679643
0.73425367 0.40459665 0.20647433
0.75014821 0.40422939 0.20615322
0.76538635 0.40386281 0.20583307
0.77995988 0.40349687 0.20551383
0.79386554 0.40313155 0.20519547
0.79618234 0.40306898 0.20514099
0.79618234 0.40306898 0.20514099
0.22317196 0.43399544 0.21436135
0.24144005 0.43354992 0.21394040
0.25951803 0.43313172 0.21354590
0.27786911 0.43272668 0.21316440
0.29660696 0.43233027 0.21279156
0.31576329 0.43194020 0.21242523
0.33533477 0.43155512 0.21206409
0.35529832 0.43117409 0.21170726
0.37561769 0.43079648 0.21135412
0.39624701 0.43042179 0.21100420
0.41713301 0.43004966 0.21065714
0.43821664 0.42967977 0.21031264
0.45943452 0.42931190 0.20997047
0.48072014 0.42894582 0.20963044
0.50200508 0.42858138 0.20929237
0.52322016 0.42821842 0.20895613
0.54429650 0.42785683 0.20862160
0.56516660 0.42749648 0.20828865
0.58576529 0.42713729 0.20795721
0.60603059 0.42677917 0.20762719
0.62590450 0.42642205 0.20729852
0.64533365 0.42606586 0.20697112
0.66426981 0.42571053 0.20664493
0.68267030 0.42535601 0.20631992
0.70049824 0.42500225 0.20599601
0.71772264 0.42464921 0.20567317
0.73431850 0.42429684 0.20535136
0.75026660 0.42394511 0.20503054
0.76555337 0.42359398 0.20471067
0.78017059 0.42324341 0.20439172
0.79411503 0.42289338 0.20407367
0.79643799 0.42283343 0.20401923
0.79643799 0.42283343 0.20401923
0.22178050 0.45353497 0.21323616
0.24004088 0.45311272 0.21281548
0.25811959 0.45271629 0.21242123
0.27647930 0.45233227 0.21203998
0.29523351 0.45195637 0.21166739
0.31441385 0.45158642 0.21130131
0.33401687 0.45122113 0.21094042
0.35401928 0.45085964 0.21058384
0.37438457 0.45050133 0.21023095
0.39506647 0.45014574 0.20988128
0.41601122 0.44979252 0.20953447
0.43715922 0.44944138 0.20919024
0.45844641 0.44909209 0.20884833
0.47980556 0.44874445 0.20850856
0.50116745 0.44839832 0.20817076
0.52246207 0.44805355 0.20783478
0.54361969 0.44771001 0.20750052
0.56457194 0.44736762 0.20716785
0.58525280 0.44702627 0.20683668
0.60559947 0.44668589 0.20650694
0.62555318 0.44634641 0.20617854
0.64505986 0.44600775 0.20585142
0.66407064 0.44566987 0.20552553
0.68254228 0.44533272 0.20520079
0.70043743 0.44499624 0.20487718
0.71772474 0.44466039 0.20455463
0.73437890 0.44432513 0.20423312
0.75038051 0.44399043 0.20391259
0.76571589 0.44365625 0.20359303
0.78026694 0.44360989 0.20359039
0.79398809 0.44386851 0.20392326
0.79626804 0.44391285 0.20398033
0.79626804 0.44391285 0.20398033
0.22039580 0.47330999 0.21211512
0.23864761 0.47291261 0.21169471
0.25672623 0.47253946 0.21130073
0.27509372 0.47217792 0.21091974
0.29386347 0.47182396 0.21054742
0.31306702 0.47147555 0.21018160
0.33270079 0.47113148 0.20982096
0.35274133 0.47079092 0.20946465
0.37315181 0.47045330 0.20911202
0.39388562 0.47011820 0.20876262
0.41488852 0.46978527 0.20841608
0.43610032 0.46945425 0.20807211
0.45745632 0.46912492 0.20773048
0.47888856 0.46879711 0.20739098
0.50032702 0.46847065 0.20705346
0.52170085 0.46814543 0.20671776
0.54293947 0.46782133 0.20638378
0.56397365 0.46749825 0.20605139
0.58473649 0.46717611 0.20572051
0.60516439 0.46685484 0.20539106
0.62519779 0.46653436 0.20506295
0.64478191 0.46621462 0.20473613
0.66386724 0.46589556 0.20441052
0.68240998 0.46557714 0.20408609
0.70037230 0.46525931 0.20376278
0.71772249 0.46494202 0.20344054
0.73430791 0.46515156 0.20375271
0.75016218 0.46538093 0.20408862
0.76528593 0.46561035 0.20442446
0.77968181 0.46583984 0.20476026
0.79335723 0.46606941 0.20509605
0.79563004 0.46610878 0.20515362
0.79563004 0.46610878 0.20515362
0.21901754 0.49326391 0.21099799
0.23725996 0.49289279 0.21057788
0.25533767 0.49254424 0.21018418
0.27371213 0.49220648 0.20980346
0.29249660 0.49187573 0.20943141
0.31172256 0.49155011 0.20906586
0.33138631 0.49122848 0.20870550
0.35146422 0.49091009 0.20834946
0.37191920 0.49059439 0.20799712
0.39270426 0.49028099 0.20764799
0.41376470 0.48996957 0.20730173
0.43503976 0.48965989 0.20695805
0.45646408 0.48935173 0.20661670
0.47796897 0.48904494 0.20627749
0.49948363 0.48873938 0.20594025
0.52093637 0.48843492 0.20560485
0.54225573 0.48813146 0.20527115
0.56337162 0.48782891 0.20493906
0.58421628 0.48752719 0.20460848
0.60472527 0.48722624 0.20427932
0.62483828 0.48692598 0.20395152
0.64449977 0.48662636 0.20362500
0.66367806 0.48652508 0.20356390
0.68226918 0.48672365 0.20390338
0.70018490 0.48692228 0.20424265
0.71740359 0.48712098 0.20458174
0.73391041 0.48731977 0.20492068
0.74969680 0.48751867 0.20525953
0.76476005 0.48771769 0.20559830
0.77910270 0.48791686 0.20593703
0.79273198 0.48811617 0.20627574
0.79499757 0.48815036 0.20633380
0.79499757 0.48815036 0.20633380
0.21764549 0.51333685 0.20988459
0.23587768 0.51299318 0.20946478
0.25395366 0.51267034 0.20907137
0.27233428 0.51235742 0.20869094
0.29113268 0.51205095 0.20831918
0.31038025 0.51174917 0.20795392
0.33007322 0.51145104 0.20759385
0.35018776 0.51115585 0.20723810
0.37068655 0.51086311 0.20688604
0.39152222 0.51057244 0.20653721
0.41263959 0.51028356 0.20619124
0.43397737 0.50999624 0.20584784
0.45546954 0.50971029 0.20550679
0.47704667 0.50942556 0.20516788
0.49863717 0.50914191 0.20483094
0.52016851 0.50885924 0.20449584
0.54156837 0.50857745 0.20416245
0.56276577 0.50829646 0.20383066
0.58369210 0.50801619 0.20350039
0.60444990 0.50808583 0.20369802
0.62475398 0.50825243 0.20404142
0.64449520 0.50841912 0.20438444
0.66363101 0.50858591 0.20472715
0.68212609 0.50875283 0.20506959
0.69995229 0.50891989 0.20541181
0.71708839 0.50908711 0.20575384
0.73351978 0.50925451 0.20609573
0.74923804 0.50942210 0.20643752
0.76424047 0.50958990 0.20677923
0.77852951 0.50975791 0.20712089
0.79211221 0.50992615 0.20746254
0.79437050 0.50995501 0.20752111
0.79437050 0.50995501 0.20752111
0.21627943 0.53346638 0.20877474
0.23450058 0.53315109 0.20835526
0.25257403 0.53285485 0.20796216
0.27096000 0.53256764 0.20758203
0.28977151 0.53228630 0.20721057
0.30903992 0.53200920 0.20684561
0.32876134 0.53173539 0.20648584
0.34891180 0.53146424 0.20613038
0.36945370 0.53119528 0.20577863
0.39033933 0.53092817 0.20543010
0.41151306 0.53066266 0.20508443
0.43291303 0.53039852 0.20474134
0.45447258 0.53013560 0.20440060
0.47612154 0.52987375 0.20406199
0.49778754 0.52961285 0.20372537
0.51945015 0.52939789 0.20346889
0.54132353 0.52953149 0.20381749
0.56287223 0.52966519 0.20416541
0.58402861 0.52979902 0.20451274
0.60473080 0.52993300 0.20485956
0.62492327 0.53006716 0.20520594
0.64455729 0.53020151 0.20555194
0.66359113 0.53033608 0.20589762
0.68199018 0.53047087 0.20624303
0.69972679 0.53060590 0.20658820
0.71678016 0.53074119 0.20693320
0.73313593 0.53087674 0.20727805
0.74878580 0.53101257 0.20762278
0.76372708 0.53114868 0.20796745
0.77796213 0.53128509 0.20831206
0.79149781 0.53142180 0.20865665
0.79374873 0.53144527 0.20871572
0.79374873 0.53144527 0.20871572
0.21491919 0.55358838 0.20766833
0.23312849 0.55330214 0.20724918
0.25119859 0.55303312 0.20685641
0.26958912 0.55277226 0.20647659
0.28841296 0.55251665 0.20610544
0.30770141 0.55226485 0.20574079
0.32745053 0.55201598 0.20538133
0.34763618 0.55176946 0.20502619
0.36822052 0.55152489 0.20467474
0.38915548 0.55128195 0.20432653
0.41038499 0.55104041 0.20398118
0.43184663 0.55080007 0.20363841
0.45372259 0.55069133 0.20356570
0.47601015 0.55079128 0.20392004
0.49819742 0.55089140 0.20427335
0.52020629 0.55099171 0.20462575
0.54196156 0.55109225 0.20497737
0.56339196 0.55119303 0.20532830
0.58443117 0.55129407 0.20567864
0.60501849 0.55139540 0.20602846
0.62509950 0.55149702 0.20637783
0.64462643 0.55159895 0.20672682
0.66355837 0.55170120 0.20707548
0.68186137 0.55180378 0.20742386
0.69950833 0.55190670 0.20777202
0.71647883 0.55200996 0.20811998
0.73275877 0.55211358 0.20846780
0.74833998 0.55221756 0.20881550
0.76321979 0.55232191 0.20916313
0.77740047 0.55242663 0.20951070
0.79088871 0.55253173 0.20985825
0.79313217 0.55254978 0.20991783
0.79313217 0.55254978 0.20991783
0.21356462 0.57363783 0.20656523
0.23176125 0.57338105 0.20614643
0.24982722 0.57313964 0.20575399
0.26822149 0.57290549 0.20537450
0.28705687 0.57267599 0.20500368
0.30636461 0.57244985 0.20463935
0.32614068 0.57222630 0.20428021
0.34636080 0.57200480 0.20392540
0.36698690 0.57178499 0.20357428
0.38844577 0.57173202 0.20364061
0.41046774 0.57179779 0.20400224
0.43261969 0.57186383 0.20436225
0.45482412 0.57193018 0.20472086
0.47700237 0.57199684 0.20507827
0.49907607 0.57206386 0.20543463
0.52096851 0.57213124 0.20579007
0.54260583 0.57219899 0.20614472
0.56391812 0.57226713 0.20649868
0.58484033 0.57233566 0.20685203
0.60531296 0.57240461 0.20720486
0.62528265 0.57247397 0.20755724
0.64470258 0.57254374 0.20790923
0.66353266 0.57261395 0.20826089
0.68173960 0.57268458 0.20861226
0.69929684 0.57275565 0.20896340
0.71618433 0.57282715 0.20931435
0.73238824 0.57289910 0.20966515
0.74790052 0.57297149 0.21001584
0.76271853 0.57304433 0.21036644
0.77684444 0.57311762 0.21071698
0.79028482 0.57319136 0.21106751
0.79252075 0.57320405 0.21112760
0.79252075 0.57320405 0.21112760
0.21221558 0.59354975 0.20546533
0.23039874 0.59332255 0.20504690
0.24845977 0.59310888 0.20465481
0.26685702 0.59290157 0.20427566
0.28570315 0.59269831 0.20390518
0.30502939 0.59249797 0.20354118
0.32548748 0.59245716 0.20368667
0.34663277 0.59248824 0.20405838
0.36810542 0.59251977 0.20442734
0.38984285 0.59255178 0.20479402
0.41177587 0.59258428 0.20515878
0.43383088 0.59261728 0.20552189
0.45593155 0.59265079 0.20588359
0.47800051 0.59268482 0.20624407
0.49996072 0.59271936 0.20660349
0.52173683 0.59275443 0.20696199
0.54325636 0.59279002 0.20731969
0.56445072 0.59282613 0.20767668
0.58525611 0.59286277 0.20803307
0.60561420 0.59289994 0.20838892
0.62547270 0.59293764 0.20874432
0.64478571 0.59297587 0.20909932
0.66351397 0.59301462 0.20945399
0.68162483 0.59305390 0.20980837
0.69909226 0.59309370 0.21016251
0.71589660 0.59313404 0.21051646
0.73202426 0.59317490 0.21087025
0.74746734 0.59321628 0.21122393
0.76222322 0.59325819 0.21157752
0.77629400 0.59330062 0.21193105
0.78968608 0.59334357 0.21228456
0.79191440 0.59335099 0.21234516
0.79191440 0.59335099 0.21234516
0.21087195 0.61326005 0.20436856
0.22904084 0.61306229 0.20395051
0.24709616 0.61287623 0.20355878
0.26619759 0.61281079 0.20368918
0.28607729 0.61280617 0.20407734
0.30638480 0.61280244 0.20445991
0.32710114 0.61279957 0.20483821
0.34818682 0.61279750 0.20521312
0.36958918 0.61279621 0.20558526
0.39124639 0.61279568 0.20595509
0.41309022 0.61279589 0.20632298
0.43504812 0.61279682 0.20668920
0.45704496 0.61279846 0.20705401
0.47900462 0.61280079 0.20741758
0.50085139 0.61280381 0.20778008
0.52251129 0.61280750 0.20814164
0.54391317 0.61281185 0.20850240
0.56498976 0.61281686 0.20886245
0.58567848 0.61282252 0.20922188
0.60592218 0.61282882 0.20958077
0.62566960 0.61283576 0.20993920
0.64487579 0.61284332 0.21029723
0.66350224 0.61285152 0.21065492
0.68151700 0.61286032 0.21101232
0.69889454 0.61286975 0.21136948
0.71561557 0.61287978 0.21172643
0.73166678 0.61289041 0.21208324
0.74704039 0.61290165 0.21243991
0.76173380 0.61291348 0.21279650
0.77574907 0.61292591 0.21315304
0.78909243 0.61293893 0.21350955
0.79131306 0.61294122 0.21357066
0.79131306 0.61294122 0.21357066
0.20996712 0.63275140 0.20358991
0.22931013 0.63270582 0.20402763
0.24847367 0.63266404 0.20443925
0.26793048 0.63262451 0.20483859
0.28778499 0.63258669 0.20523008
0.30805528 0.63255033 0.20561594
0.32872270 0.63251526 0.20599748
0.34974824 0.63248135 0.20637561
0.37107985 0.63244853 0.20675093
0.39265649 0.63241673 0.20712393
0.41441086 0.63238591 0.20749496
0.43627148 0.63235601 0.20786432
0.45816439 0.63232700 0.20823224
0.48001474 0.63229886 0.20859891
0.50174814 0.63227156 0.20896450
0.52329192 0.63224507 0.20932915
0.54457628 0.63221938 0.20969298
0.56553524 0.63219447 0.21005610
0.58610745 0.63217032 0.21041859
0.60623688 0.63214691 0.21078053
0.62587334 0.63212425 0.21114201
0.64497276 0.63210230 0.21150308
0.66349745 0.63208107 0.21186381
0.68141607 0.63206055 0.21222424
0.69870362 0.63204072 0.21258442
0.71534120 0.63202157 0.21294440
0.73131574 0.63200310 0.21330423
0.74661961 0.63198530 0.21366392
0.76125024 0.63196816 0.21402353
0.77520961 0.63195168 0.21438308
0.78850382 0.63193584 0.21474259
