luts/cubes/warm_kodak.cube
TITLE "warm_kodak"
LUT_3D_SIZE 9
DOMAIN_MIN 0.0 0.0 0.0
DOMAIN_MAX 1.0 1.0 1.0
0.23916829 0.24534180 0.22720409
0.31216852 0.24322730 0.22562692
0.38940156 0.24129354 0.22418188
0.47032309 0.23943439 0.22279019
0.55161222 0.23762410 0.22143275
0.62954001 0.23585049 0.22010059
0.70087225 0.23410647 0.21878850
0.76342471 0.23238739 0.21749305
0.79331595 0.23146343 0.21679590
0.23314417 0.30757799 0.22238725
0.30635661 0.30551518 0.22081196
0.38429366 0.30362367 0.21936895
0.46632186 0.30180062 0.21797948
0.54895518 0.30002115 0.21662448
0.62825615 0.29827358 0.21529497
0.70080060 0.29655113 0.21398573
0.76428239 0.29484937 0.21269334
0.79454278 0.29393309 0.21199793
0.22739068 0.37729207 0.21776477
0.30075143 0.37540918 0.21619228
0.37932229 0.37367822 0.21475214
0.46238930 0.37200586 0.21336570
0.54630793 0.37036965 0.21201392
0.62693455 0.36875907 0.21068780
0.70065451 0.36716803 0.20938214
0.76503839 0.36559257 0.20809351
0.79565677 0.36474283 0.20740022
0.22178050 0.45353497 0.21323616
0.29523351 0.45195637 0.21166739
0.37438457 0.45050133 0.21023095
0.45844641 0.44909209 0.20884833
0.54361969 0.44771001 0.20750052
0.62555318 0.44634641 0.20617854
0.70043743 0.44499624 0.20487718
0.76571589 0.44365625 0.20359303
0.79626804 0.44391285 0.20398033
0.21627943 0.53346638 0.20877474
0.28977151 0.53228630 0.20721057
0.36945370 0.53119528 0.20577863
0.45447258 0.53013560 0.20440060
0.54132353 0.52953149 0.20381749
0.62492327 0.53006716 0.20520594
0.69972679 0.53060590 0.20658820
0.76372708 0.53114868 0.20796745
0.79374873 0.53144527 0.20871572
0.21087195 0.61326005 0.20436856
0.28607729 0.61280617 0.20407734
0.36958918 0.61279621 0.20558526
0.45704496 0.61279846 0.20705401
0.54391317 0.61281185 0.20850240
0.62566960 0.61283576 0.20993920
0.69889454 0.61286975 0.21136948
0.76173380 0.61291348 0.21279650
0.79131306 0.61294122 0.21357066
0.21524201 0.68833810 0.20705308
0.29296465 0.68779920 0.20873560
0.37559423 0.68731671 0.21029560
0.46155941 0.68686222 0.21181494
0.54660349 0.68642855 0.21331309
0.62652532 0.68601224 0.21479913
0.69817128 0.68561117 0.21627829
0.75983417 0.68522395 0.21775396
0.78895697 0.68501918 0.21855445
0.22245823 0.75205191 0.21178370
0.30000653 0.75113696 0.21352365
0.38171489 0.75030676 0.21513674
0.46617317 0.74951456 0.21670763
0.54939494 0.74874883 0.21825649
0.62748884 0.74800407 0.21979268
0.69755441 0.74727704 0.22132162
0.75802559 0.74656561 0.22284683
0.78667818 0.74618538 0.22367414
0.22753523 0.78890971 0.21510759
0.30493132 0.78781968 0.21688760
0.38598404 0.78682632 0.21853771
0.46939785 0.78587448 0.22014457
0.55136915 0.78495072 0.22172877
0.62821169 0.78404863 0.22329993
0.69719158 0.78316448 0.22486357
0.75683620 0.78229583 0.22642330
0.78515834 0.78183013 0.22726929
0.23874868 0.24489264 0.27075787
0.31176555 0.24277914 0.26923603
0.38904893 0.24084631 0.26783881
0.47004815 0.23898810 0.26649056
0.55143086 0.23717875 0.26517303
0.62945383 0.23540608 0.26387766
0.70086992 0.23366301 0.26259949
0.76348664 0.23194491 0.26133529
0.79340342 0.23102147 0.26065403
0.23272704 0.30714029 0.26609972
0.30595204 0.30507724 0.26456967
0.38393632 0.30318554 0.26316522
0.46604045 0.30136232 0.26181025
0.54876691 0.29958272 0.26048641
0.62816350 0.29783505 0.25918509
0.70079258 0.29611252 0.25790128
0.76433927 0.29441070 0.25663173
0.79462543 0.29349440 0.25594768
0.22697623 0.37689297 0.26160064
0.30034558 0.37500879 0.26006364
0.37896059 0.37327667 0.25865309
0.46210173 0.37160321 0.25729249
0.54611299 0.36996594 0.25596341
0.62683567 0.36835434 0.25465717
0.70064102 0.36676231 0.25336873
0.76509046 0.36518589 0.25209483
0.79573485 0.36433564 0.25140853
0.22136893 0.45320073 0.25716524
0.29482663 0.45162012 0.25562231
0.37401875 0.45016326 0.25420660
0.45815284 0.44875227 0.25284130
0.54341821 0.44736850 0.25150785
0.62544816 0.44600324 0.25019755
0.70041855 0.44465144 0.24890533
0.76565959 0.44361974 0.24795554
0.79607814 0.44418284 0.24862823
0.21587095 0.53321683 0.25276856
0.28936388 0.53203445 0.25122067
0.36908397 0.53094134 0.24980069
0.45417314 0.52987964 0.24843152
0.54151419 0.52966484 0.24847670
0.62497538 0.53020331 0.24976857
0.69966055 0.53074480 0.25105424
0.76357433 0.53129029 0.25233665
0.79356331 0.53158834 0.25303221
0.21046678 0.61310355 0.24839966
0.28659260 0.61280275 0.24871850
0.37003912 0.61279569 0.25012142
0.45738276 0.61280073 0.25148739
0.54411299 0.61281685 0.25283393
0.62573048 0.61284343 0.25416919
0.69883610 0.61288005 0.25549788
0.76158699 0.61292640 0.25682304
0.79113224 0.61295553 0.25754172
0.21578370 0.68822265 0.25148653
0.29349501 0.68768650 0.25305069
0.37605588 0.68720654 0.25450033
0.46190698 0.68675449 0.25591160
0.54681235 0.68632322 0.25730263
0.62659487 0.68590925 0.25868183
0.69812063 0.68551051 0.26005408
0.75969337 0.68512560 0.26142252
0.78878087 0.68492206 0.26216460
0.22301935 0.75185693 0.25588259
0.30055201 0.75094399 0.25749808
0.38218821 0.75011566 0.25899508
0.46653043 0.74932526 0.26045229
0.54961276 0.74856131 0.26188840
0.62756698 0.74781830 0.26331213
0.69751152 0.74709302 0.26472851
0.75789087 0.74638333 0.26614079
0.78650692 0.74600403 0.26690658
0.22810986 0.78867783 0.25896805
0.30548722 0.78758916 0.26061918
0.38646534 0.78659706 0.26214908
0.46976172 0.78564647 0.26363817
0.55159305 0.78472392 0.26510558
0.62829569 0.78382306 0.26656022
0.69715400 0.78294013 0.26800723
0.75670569 0.78207270 0.26944993
0.78499046 0.78160766 0.27023216
0.23825441 0.24436362 0.32848293
0.31129053 0.24225129 0.32711482
0.38863297 0.24031959 0.32585545
0.46972358 0.23846248 0.32463724
0.55121653 0.23665424 0.32344395
0.62935170 0.23488270 0.32226801
0.70086667 0.23314076 0.32110502
0.76355917 0.23142380 0.31995216
0.79350607 0.23050100 0.31932983
0.23223574 0.30662443 0.32428355
0.30547516 0.30456110 0.32289656
0.38351483 0.30266918 0.32162009
0.46570826 0.30084578 0.32038559
0.54854442 0.29906604 0.31917660
0.62805375 0.29731825 0.31798541
0.70078262 0.29559563 0.31680758
0.76440586 0.29389376 0.31564022
0.79472240 0.29297743 0.31501015
0.22648809 0.37642231 0.32019435
0.29986720 0.37453662 0.31878990
0.37853397 0.37280313 0.31749764
0.46176227 0.37112838 0.31624812
0.54588266 0.36948987 0.31502465
0.62671857 0.36787707 0.31381942
0.70062461 0.36628388 0.31262793
0.76515137 0.36470633 0.31144724
0.79582644 0.36385549 0.31081007
0.22088422 0.45280630 0.31613110
0.29434709 0.45122335 0.31471019
0.37358728 0.44976434 0.31340307
0.45780633 0.44835130 0.31213941
0.54318017 0.44696553 0.31090233
0.62532381 0.44559831 0.30968393
0.70039580 0.44424461 0.30847962
0.76547323 0.44393703 0.30824835
0.79585478 0.44450193 0.30880271
0.21538991 0.53292213 0.31207200
0.28888345 0.53173706 0.31063553
0.36864790 0.53064147 0.30931436
0.45381973 0.52957739 0.30803736
0.54173976 0.52982289 0.30867781
0.62503765 0.53036464 0.30974308
0.69958324 0.53090937 0.31080422
0.76339490 0.53145807 0.31186358
0.79334524 0.53175783 0.31243853
0.20998965 0.61291851 0.30800761
0.28720131 0.61279958 0.30887712
0.37057048 0.61279594 0.31003422
0.45778178 0.61280427 0.31116193
0.54434933 0.61282360 0.31227461
0.62580306 0.61285333 0.31337890
0.69876800 0.61289306 0.31447864
0.76141457 0.61294247 0.31557629
0.79091961 0.61297325 0.31617192
0.21642392 0.68808734 0.31116122
0.29412146 0.68755444 0.31245381
0.37660103 0.68707747 0.31365290
0.46231752 0.68662830 0.31482125
0.54705936 0.68619985 0.31597374
0.62667767 0.68578865 0.31711728
0.69806170 0.68539265 0.31825585
0.75952803 0.68501045 0.31939201
0.78857381 0.68480838 0.32000842
0.22368251 0.75162772 0.31479722
0.30119630 0.75071716 0.31613575
0.38274711 0.74989102 0.31737713
0.46695238 0.74910275 0.31858639
0.54987031 0.74834090 0.31977897
0.62765990 0.74759997 0.32096203
0.69746174 0.74687675 0.32213968
0.75773271 0.74616910 0.32331460
0.78630558 0.74579092 0.32395194
0.22878896 0.78840496 0.31735470
0.30614379 0.78731789 0.31872495
0.38703367 0.78632728 0.31999553
0.47019145 0.78537815 0.32123306
0.55185777 0.78445706 0.32245331
0.62839550 0.78355764 0.32366365
0.69711049 0.78267615 0.32486829
0.75655251 0.78181017 0.32606996
0.78479312 0.78134592 0.32672175
0.23774590 0.24381940 0.39401768
0.31080142 0.24170829 0.39290743
0.38820433 0.23977774 0.39188210
0.46938885 0.23792179 0.39088725
0.55099522 0.23611470 0.38990992
0.62924592 0.23434432 0.38894404
0.70086275 0.23260356 0.38798614
0.76363332 0.23088779 0.38703398
0.79361123 0.22996564 0.38651892
0.23173030 0.30609337 0.39059787
0.30498416 0.30402977 0.38946065
0.38308051 0.30213764 0.38841071
0.46536568 0.30031406 0.38739226
0.54831472 0.29853418 0.38639199
0.62794013 0.29678628 0.38540369
0.70077179 0.29506358 0.38442379
0.76447389 0.29336165 0.38344999
0.79482174 0.29244531 0.38292332
0.22598595 0.37593746 0.38723423
0.29937469 0.37405021 0.38607145
0.37809439 0.37231533 0.38499821
0.46141223 0.37063925 0.38395742
0.54564488 0.36899948 0.38293545
0.62659738 0.36738545 0.38192594
0.70060714 0.36579107 0.38092525
0.76521357 0.36421237 0.37993100
0.79592024 0.36336091 0.37939336
0.22038562 0.45239970 0.38385980
0.29385339 0.45081433 0.38267233
0.37314273 0.44935312 0.38157656
0.45744902 0.44793796 0.38051418
0.54293445 0.44655014 0.37947125
0.62519516 0.44518092 0.37844127
0.70037181 0.44382525 0.37742049
0.76528203 0.44426468 0.37766807
0.79562536 0.44483144 0.37803559
0.21489512 0.53261809 0.38045743
0.28838888 0.53143024 0.37924595
0.36819864 0.53033211 0.37812830
0.45374208 0.52944278 0.37724254
0.54197293 0.52998659 0.37795270
0.62510269 0.53053172 0.37866113
0.69950452 0.53107979 0.37937007
0.76321085 0.53163177 0.38008099
0.79312128 0.53193331 0.38046810
0.21001233 0.61281171 0.37725933
0.28782950 0.61279729 0.37808500
0.37111869 0.61279717 0.37885531
0.45819357 0.61280889 0.37960978
0.54459360 0.61283152 0.38035764
0.62587873 0.61286450 0.38110314
0.69869875 0.61290742 0.38184869
0.76123775 0.61295999 0.38259584
0.79070126 0.61299247 0.38300248
0.21708504 0.68794891 0.37960930
0.29476794 0.68741936 0.38047840
0.37716345 0.68694546 0.38128860
0.46274116 0.68649926 0.38208158
0.54731460 0.68607371 0.38286709
0.62676385 0.68566538 0.38364962
0.69800190 0.68527220 0.38443173
0.75935853 0.68489279 0.38521506
0.78836122 0.68469223 0.38564121
0.22436727 0.75139241 0.38206524
0.30186115 0.75048429 0.38297776
0.38332370 0.74966042 0.38382785
0.46738777 0.74887436 0.38465933
0.55013639 0.74811467 0.38548248
0.62775650 0.74737588 0.38630205
0.69741136 0.74665478 0.38712072
0.75757060 0.74594925 0.38794022
0.78609888 0.74557221 0.38838588
0.22949017 0.78812450 0.38381246
0.30682131 0.78703909 0.38475481
0.38761995 0.78605003 0.38563229
0.47063484 0.78510241 0.38649021
0.55213124 0.78418282 0.38733921
0.62849919 0.78328489 0.38818420
0.69706657 0.78240490 0.38902797
0.75639552 0.78154041 0.38987231
0.78459055 0.78107697 0.39033136
0.23722818 0.24326537 0.46512302
0.31030303 0.24115553 0.46436018
0.38776721 0.23922617 0.46365205
0.46904721 0.23737140 0.46296169
0.55076906 0.23556549 0.46228038
0.62913750 0.23379630 0.46160409
0.70085815 0.23205675 0.46093052
0.76370831 0.23034220 0.46025820
0.79371784 0.22942072 0.45989337
0.23121575 0.30555237 0.46276027
0.30448388 0.30348849 0.46196617
0.38263764 0.30159615 0.46122942
0.46501605 0.29977240 0.46051151
0.54808001 0.29799238 0.45980334
0.62782372 0.29624438 0.45910071
0.70076017 0.29452161 0.45840122
0.76454266 0.29281964 0.45770331
0.79492242 0.29190328 0.45732472
0.22547478 0.37544317 0.46039982
0.29887290 0.37355435 0.45957578
0.37764618 0.37181805 0.45881161
0.46105500 0.37014063 0.45806732
0.54540195 0.36849957 0.45733344
0.62647325 0.36688431 0.45660560
0.70058875 0.36528873 0.45588128
0.76527640 0.36370886 0.45515889
0.79601528 0.36285678 0.45476712
0.21987809 0.45198490 0.45799734
0.29335042 0.45039707 0.45714401
0.37268947 0.44893361 0.45635303
0.45708441 0.44751630 0.45558295
0.54268343 0.44612640 0.45482393
0.62506343 0.44475514 0.45407144
0.70033390 0.44355180 0.45338517
0.76508793 0.44459953 0.45361137
0.79539217 0.44516818 0.45373753
0.21439149 0.53230766 0.45554172
0.28788504 0.53111698 0.45465957
0.36774060 0.53001625 0.45384223
0.45415048 0.52960706 0.45346786
0.54221149 0.53015438 0.45370890
0.62516994 0.53070297 0.45395683
0.69942522 0.53125443 0.45421205
0.76302405 0.53180976 0.45447482
0.79289367 0.53211310 0.45462067
0.21066422 0.61280649 0.45347347
0.28847110 0.61279598 0.45375465
0.37167844 0.61279944 0.45402604
0.45861415 0.61281460 0.45429990
0.54484346 0.61284060 0.45457886
0.62595680 0.61287688 0.45486401
0.69862911 0.61292307 0.45515593
0.76105832 0.61297885 0.45545495
0.79047938 0.61301306 0.45562033
0.21776069 0.68780880 0.45429973
0.29542818 0.68728266 0.45462458
0.37773767 0.68681189 0.45493601
0.46317380 0.68636872 0.45524845
0.54757561 0.68594613 0.45556506
0.62685263 0.68554071 0.45588720
0.69794188 0.68515041 0.45621558
0.75918656 0.68477385 0.45655062
0.78814522 0.68457482 0.45673540
0.22506706 0.75115336 0.45524194
0.30254013 0.75024775 0.45561022
0.38391235 0.74942620 0.45596148
0.46783237 0.74864238 0.45631230
0.55040845 0.74788490 0.45666637
0.62785588 0.74714830 0.45702530
0.69736095 0.74642937 0.45738994
0.75740618 0.74572599 0.45776083
0.78588891 0.74535012 0.45796490
0.23020674 0.78783927 0.45595505
0.30751320 0.78675555 0.45635303
0.38821848 0.78576807 0.45673151
0.47108760 0.78482201 0.45710858
0.55241081 0.78390395 0.45748826
0.62860580 0.78300754 0.45787235
0.69702272 0.78212908 0.45826179
0.75623633 0.78126611 0.45865718
0.78438480 0.78080351 0.45887445
0.23670364 0.24270409 0.53887557
0.30979764 0.24059553 0.53851294
0.38732360 0.23866739 0.53817142
0.46870018 0.23681383 0.53783409
0.55053907 0.23500914 0.53749708
0.62902690 0.23324117 0.53715865
0.70085288 0.23150285 0.53681784
0.76378378 0.22978954 0.53647404
0.79382539 0.22886874 0.53628601
0.23069444 0.30500387 0.53773488
0.30397660 0.30293974 0.53734032
0.38218821 0.30104720 0.53696953
0.46466095 0.29922329 0.53660399
0.54784135 0.29744313 0.53623945
0.62770501 0.29569504 0.53587399
0.70074776 0.29397220 0.53550653
0.76461183 0.29227019 0.53513640
0.79502396 0.29135383 0.53493418
0.22495693 0.37494170 0.53654676
0.29836412 0.37305129 0.53612149
0.37719135 0.37131356 0.53572255
0.46069220 0.36963479 0.53532988
0.54515494 0.36799243 0.53493886
0.62634672 0.36637592 0.53454739
0.70056949 0.36477912 0.53415429
0.76533955 0.36319808 0.53375884
0.79611112 0.36234537 0.53354299
0.21936396 0.45156376 0.53529276
0.29284047 0.44997343 0.53483732
0.37222955 0.44850771 0.53441071
0.45671412 0.44708823 0.53399138
0.54242822 0.44569621 0.53357435
0.62492919 0.44432289 0.53315733
0.70024459 0.44388882 0.53279372
0.76489186 0.44494011 0.53252673
0.79515630 0.44551067 0.53238737
0.21388135 0.53199222 0.53396883
0.28737424 0.53079867 0.53348356
0.36727585 0.52969532 0.53302961
0.45456563 0.52977469 0.53269343
0.54245438 0.53032557 0.53241843
0.62523914 0.53087765 0.53215972
0.69934575 0.53143255 0.53191570
0.76283538 0.53199128 0.53168530
0.79266348 0.53229645 0.53156565
0.21132728 0.61280224 0.53268674
0.28912326 0.61279569 0.53236896
0.37224723 0.61280278 0.53209142
0.45904163 0.61282144 0.53183644
0.54509780 0.61285085 0.53159938
0.62603696 0.61289049 0.53137791
0.69855943 0.61293997 0.53117061
0.76087715 0.61299901 0.53097649
0.79025502 0.61303498 0.53087636
0.21844788 0.68766768 0.53183660
0.29609926 0.68714499 0.53156252
0.37832115 0.68667741 0.53132504
0.46361351 0.68623731 0.53110867
0.54784127 0.68581772 0.53090928
0.62694364 0.68541525 0.53072480
0.69788196 0.68502787 0.53055396
0.75901296 0.68465420 0.53039586
0.78792684 0.68445673 0.53031513
0.22577877 0.75091171 0.53111297
0.30323022 0.75000865 0.53088234
0.38451046 0.74918944 0.53068470
0.46828421 0.74840791 0.53050670
0.55068530 0.74765267 0.53034477
0.62795764 0.74691829 0.53019708
0.69731076 0.74620157 0.53006248
0.75724025 0.74550038 0.52994019
0.78567665 0.74512569 0.52987874
0.23093549 0.78755057 0.53068813
0.30821638 0.78646859 0.53048720
0.38882660 0.78548272 0.53031678
0.47154770 0.78453823 0.53016501
0.55269527 0.78362173 0.53002868
0.62871488 0.78272689 0.52990611
0.69697921 0.78184997 0.52979629
0.75607570 0.78098856 0.52969847
0.78417683 0.78052680 0.52965019
0.23617368 0.24213707 0.61193302
0.30928659 0.24002982 0.61197232
0.38687466 0.23810292 0.61199961
0.46834868 0.23625059 0.61201800
0.55030581 0.23444713 0.61202847
0.62891438 0.23268041 0.61203158
0.70084693 0.23094334 0.61202768
0.76385951 0.22923130 0.61201704
0.79393357 0.22831120 0.61200853
0.23016779 0.30444936 0.61202188
0.30346366 0.30238498 0.61203080
0.38173339 0.30049223 0.61203025
0.46430128 0.29866817 0.61202183
0.54759933 0.29688790 0.61200613
0.62758429 0.29513971 0.61198354
0.70073460 0.29341682 0.61195432
0.76468119 0.29171478 0.61191868
0.79512608 0.29079842 0.61189669
0.22443381 0.37443435 0.61201983
0.29784970 0.37254235 0.61199957
0.37673110 0.37080318 0.61197227
0.46032475 0.36912305 0.61193807
0.54490449 0.36747939 0.61189722
0.62621810 0.36586161 0.61184994
0.70054939 0.36426360 0.61179638
0.76540283 0.36268137 0.61173669
0.79620747 0.36182804 0.61170176
0.21884463 0.45113738 0.61193447
0.29232490 0.44954454 0.61188556
0.37176417 0.44807653 0.61183199
0.45633912 0.44665485 0.61177248
0.54216948 0.44526070 0.61170693
0.62479277 0.44388530 0.61163539
0.70015525 0.44423066 0.61108483
0.76469436 0.44528554 0.61035276
0.79491840 0.44585804 0.60996262
0.21336607 0.53167259 0.61176909
0.28685784 0.53047614 0.61169186
0.36684506 0.52938897 0.61160400
0.45498646 0.52994525 0.61081211
0.54270101 0.53049973 0.61005008
0.62531014 0.53105534 0.60931219
0.69926635 0.53161371 0.60859505
0.76264538 0.53217588 0.60789639
0.79243135 0.53248290 0.60752426
0.21199984 0.61279902 0.61079382
0.28978430 0.61279647 0.60991063
0.37282361 0.61280723 0.60911368
0.45947493 0.61282943 0.60835723
0.54535600 0.61286229 0.60762986
0.62611904 0.61290531 0.60692608
0.69848993 0.61295813 0.60624263
0.76069473 0.61302047 0.60557732
0.79002880 0.61305821 0.60522318
0.21914488 0.68752596 0.60835770
0.29677945 0.68700678 0.60751444
0.37891237 0.68654240 0.60675420
0.46405917 0.68610541 0.60603319
0.54811090 0.68568886 0.60534048
0.62703669 0.68528938 0.60467082
0.69782234 0.68490495 0.60402105
0.75883822 0.68453420 0.60338908
0.78770668 0.68433831 0.60305292
0.22650061 0.75066813 0.60604782
0.30392965 0.74976764 0.60524456
0.38511647 0.74895082 0.60452105
0.46874213 0.74817160 0.60383552
0.55096623 0.74741864 0.60317750
0.62806155 0.74668650 0.60254196
0.69726098 0.74597201 0.60192589
0.75707326 0.74527305 0.60132726
0.78546270 0.74489956 0.60100908
0.23167459 0.78725922 0.60453395
0.30892905 0.78617898 0.60375816
0.38944273 0.78519476 0.60305990
0.47201396 0.78425187 0.60239873
0.55298389 0.78333696 0.60176454
0.62882618 0.78244369 0.60115244
0.69693617 0.78156835 0.60055950
0.75591409 0.78070852 0.59998376
0.78396722 0.78024762 0.59967792
0.23563924 0.24156530 0.68106109
0.30877077 0.23945940 0.68145301
0.38642115 0.23753376 0.68180400
0.46799329 0.23568268 0.68213475
0.55006968 0.23388048 0.68245048
0.62880012 0.23211502 0.68275375
0.70084027 0.23037923 0.68304610
0.76393535 0.22866848 0.68332857
0.79404218 0.22774908 0.68347805
0.22963672 0.30388979 0.68222917
0.30294597 0.30182516 0.68259261
0.38127399 0.29993223 0.68291754
0.46393765 0.29810802 0.68322322
0.54735435 0.29632764 0.68351454
0.62746176 0.29457938 0.68379387
0.70072067 0.29285644 0.68406266
0.76475062 0.29115438 0.68432189
0.79522857 0.29023802 0.68445887
0.22390633 0.37392201 0.68326983
0.29733053 0.37202841 0.68360605
0.37626623 0.37028780 0.68390607
0.45995329 0.36860630 0.68418778
0.54465100 0.36696133 0.68445574
0.62608758 0.36534229 0.68471218
0.70052847 0.36374306 0.68495845
0.76546612 0.36215964 0.68519545
0.79630416 0.36130568 0.68532047
0.21832101 0.45070648 0.68421375
0.29180460 0.44911111 0.68452337
0.37129414 0.44764079 0.68479905
0.45596004 0.44621690 0.68505735
0.54190763 0.44482060 0.68530249
0.62467311 0.44351642 0.68549540
0.70006605 0.44457676 0.68437102
0.76449579 0.44563527 0.68326747
0.79467891 0.44620972 0.68267630
0.21284657 0.53134929 0.68507090
0.28633673 0.53014992 0.68535437
0.36741302 0.52955848 0.68514922
0.45541227 0.53011848 0.68396077
0.54295097 0.53067659 0.68280902
0.62538285 0.53123576 0.68168589
0.69918720 0.53179764 0.68058663
0.76245440 0.53236327 0.67950811
0.79219769 0.53267216 0.67893049
0.21268079 0.61279686 0.68393322
0.29045313 0.61279835 0.68259736
0.37340660 0.61281281 0.68138238
0.45991333 0.61283858 0.68022036
0.54561762 0.61287492 0.67909463
0.62620293 0.61292135 0.67799726
0.69842077 0.61297754 0.67692358
0.76051142 0.61304320 0.67587053
0.78980112 0.61308273 0.67530671
0.21985056 0.68738392 0.68022108
0.29746763 0.68686827 0.67891522
0.37951034 0.68640714 0.67772799
0.46451004 0.68597329 0.67659292
0.54838406 0.68555981 0.67549372
0.62713163 0.68516335 0.67442259
0.69776314 0.68478189 0.67337496
0.75866266 0.68441409 0.67234782
0.78748514 0.68421979 0.67179803
0.22723139 0.75042306 0.67661605
0.30463725 0.74952517 0.67534080
0.38572938 0.74871076 0.67418186
0.46920535 0.74793388 0.67307427
0.55125079 0.74718322 0.67200208
0.62816745 0.74645336 0.67095766
0.69721172 0.74574113 0.66993653
0.75690554 0.74504441 0.66893575
0.78524744 0.74467214 0.66840022
0.23242282 0.78696572 0.67420260
0.30965004 0.78588726 0.67294869
0.39006586 0.78490470 0.67180947
0.47248561 0.78396343 0.67072103
0.55327621 0.78305012 0.66966765
0.62893955 0.78215846 0.66864182
0.69689371 0.78128472 0.66763915
0.75575180 0.78042649 0.66665670
0.78375636 0.77996646 0.66613109
0.23510098 0.24098952 0.74366156
0.30825081 0.23888497 0.74431997
0.38596363 0.23696062 0.74491544
0.46763443 0.23511081 0.74548195
0.54983094 0.23330989 0.74602797
0.62868424 0.23154571 0.74655758
0.70083291 0.22981121 0.74707321
0.76401120 0.22810178 0.74757649
0.79415107 0.22718310 0.74784496
0.22910189 0.30332586 0.74564470
0.30242416 0.30126100 0.74627554
0.38081053 0.29936789 0.74684584
0.46357050 0.29754354 0.74738819
0.54710670 0.29576306 0.74791072
0.62733754 0.29401473 0.74841736
0.70070598 0.29229175 0.74891043
0.76481999 0.29058969 0.74939150
0.79533131 0.28967333 0.74964804
0.22337515 0.37340530 0.74747141
0.29680726 0.37151009 0.74807608
0.37579729 0.36976804 0.74862249
0.45957825 0.36808517 0.74914192
0.54439477 0.36643889 0.74964217
0.62595532 0.36481858 0.75012699
0.70050673 0.36321812 0.75059865
0.76552933 0.36163352 0.75105864
0.79640105 0.36077893 0.75130386
0.21779375 0.45027158 0.74919012
0.29128022 0.44867366 0.74976942
0.37082002 0.44720102 0.75029267
0.45557734 0.44577490 0.75078986
0.54164297 0.44437645 0.75126848
0.62473607 0.44386269 0.75108048
0.69997713 0.44492672 0.74971773
0.76429643 0.44598889 0.74837477
0.79443813 0.44656530 0.74765309
0.21232350 0.53102272 0.75081614
0.28581156 0.52982040 0.75137067
0.36798680 0.52973044 0.75066151
0.45584257 0.53029419 0.74921911
0.54320399 0.53085596 0.74781524
0.62545721 0.53141872 0.74644045
0.69910840 0.53198414 0.74508922
0.76226270 0.53255326 0.74375797
0.79196281 0.53286402 0.74304272
0.21336936 0.61279579 0.74918561
0.29112898 0.61280135 0.74755660
0.37399554 0.61281954 0.74606793
0.46035631 0.61284890 0.74463774
0.54588239 0.61288875 0.74324613
0.62628854 0.61293863 0.74188372
0.69835206 0.61299820 0.74054501
0.76032746 0.61306721 0.73922644
0.78957229 0.61310855 0.73851816
0.22056409 0.68724176 0.74463863
0.29816299 0.68672967 0.74302379
0.38011438 0.68627182 0.74154851
0.46496558 0.68584113 0.74013158
0.54866044 0.68543074 0.73875326
0.62722839 0.68503732 0.73740422
0.69770447 0.68465888 0.73607902
0.75848653 0.68429405 0.73477409
0.78726251 0.68410135 0.73407328
0.22797028 0.75017682 0.74016052
0.30535221 0.74928157 0.73856103
0.38634846 0.74846959 0.73710022
0.46967335 0.74769507 0.73569760
0.55153866 0.74694673 0.73433356
0.62827524 0.74621917 0.73299887
0.69716307 0.74550922 0.73168811
0.75673732 0.74481476 0.73039774
0.78503116 0.74444372 0.72970489
0.23317933 0.78667045 0.73712643
0.31037848 0.78559380 0.73553815
0.39069523 0.78461291 0.73408788
0.47296209 0.78367329 0.73269564
0.55357188 0.78276161 0.73134198
0.62905485 0.78187156 0.73001767
0.69685191 0.78099944 0.72871736
0.75558906 0.78014283 0.72743751
0.78354452 0.77968368 0.72675040
