luts/cubes/warm_kodak.cube
TITLE "warm_kodak"
LUT_3D_SIZE 5
DOMAIN_MIN 0.0 0.0 0.0
DOMAIN_MAX 1.0 1.0 1.0
0.23916829 0.24534180 0.22720409
0.38940156 0.24129354 0.22418188
0.55161222 0.23762410 0.22143275
0.70087225 0.23410647 0.21878850
0.79331595 0.23146343 0.21679590
0.22739068 0.37729207 0.21776477
0.37932229 0.37367822 0.21475214
0.54630793 0.37036965 0.21201392
0.70065451 0.36716803 0.20938214
0.79565677 0.36474283 0.20740022
0.21627943 0.53346638 0.20877474
0.36945370 0.53119528 0.20577863
0.54132353 0.52953149 0.20381749
0.69972679 0.53060590 0.20658820
0.79374873 0.53144527 0.20871572
0.21524201 0.68833810 0.20705308
0.37559423 0.68731671 0.21029560
0.54660349 0.68642855 0.21331309
0.69817128 0.68561117 0.21627829
0.78895697 0.68501918 0.21855445
0.22753523 0.78890971 0.21510759
0.38598404 0.78682632 0.21853771
0.55136915 0.78495072 0.22172877
0.69719158 0.78316448 0.22486357
0.78515834 0.78183013 0.22726929
0.23825441 0.24436362 0.32848293
0.38863297 0.24031959 0.32585545
0.55121653 0.23665424 0.32344395
0.70086667 0.23314076 0.32110502
0.79350607 0.23050100 0.31932983
0.22648809 0.37642231 0.32019435
0.37853397 0.37280313 0.31749764
0.54588266 0.36948987 0.31502465
0.70062461 0.36628388 0.31262793
0.79582644 0.36385549 0.31081007
0.21538991 0.53292213 0.31207200
0.36864790 0.53064147 0.30931436
0.54173976 0.52982289 0.30867781
0.69958324 0.53090937 0.31080422
0.79334524 0.53175783 0.31243853
0.21642392 0.68808734 0.31116122
0.37660103 0.68707747 0.31365290
0.54705936 0.68619985 0.31597374
0.69806170 0.68539265 0.31825585
0.78857381 0.68480838 0.32000842
0.22878896 0.78840496 0.31735470
0.38703367 0.78632728 0.31999553
0.55185777 0.78445706 0.32245331
0.69711049 0.78267615 0.32486829
0.78479312 0.78134592 0.32672175
0.23722818 0.24326537 0.46512302
0.38776721 0.23922617 0.46365205
0.55076906 0.23556549 0.46228038
0.70085815 0.23205675 0.46093052
0.79371784 0.22942072 0.45989337
0.22547478 0.37544317 0.46039982
0.37764618 0.37181805 0.45881161
0.54540195 0.36849957 0.45733344
0.70058875 0.36528873 0.45588128
0.79601528 0.36285678 0.45476712
0.21439149 0.53230766 0.45554172
0.36774060 0.53001625 0.45384223
0.54221149 0.53015438 0.45370890
0.69942522 0.53125443 0.45421205
0.79289367 0.53211310 0.45462067
0.21776069 0.68780880 0.45429973
0.37773767 0.68681189 0.45493601
0.54757561 0.68594613 0.45556506
0.69794188 0.68515041 0.45621558
0.78814522 0.68457482 0.45673540
0.23020674 0.78783927 0.45595505
0.38821848 0.78576807 0.45673151
0.55241081 0.78390395 0.45748826
0.69702272 0.78212908 0.45826179
0.78438480 0.78080351 0.45887445
0.23617368 0.24213707 0.61193302
0.38687466 0.23810292 0.61199961
0.55030581 0.23444713 0.61202847
0.70084693 0.23094334 0.61202768
0.79393357 0.22831120 0.61200853
0.22443381 0.37443435 0.61201983
0.37673110 0.37080318 0.61197227
0.54490449 0.36747939 0.61189722
0.70054939 0.36426360 0.61179638
0.79620747 0.36182804 0.61170176
0.21336607 0.53167259 0.61176909
0.36684506 0.52938897 0.61160400
0.54270101 0.53049973 0.61005008
0.69926635 0.53161371 0.60859505
0.79243135 0.53248290 0.60752426
0.21914488 0.68752596 0.60835770
0.37891237 0.68654240 0.60675420
0.54811090 0.68568886 0.60534048
0.69782234 0.68490495 0.60402105
0.78770668 0.68433831 0.60305292
0.23167459 0.78725922 0.60453395
0.38944273 0.78519476 0.60305990
0.55298389 0.78333696 0.60176454
0.69693617 0.78156835 0.60055950
0.78396722 0.78024762 0.59967792
0.23510098 0.24098952 0.74366156
0.38596363 0.23696062 0.74491544
0.54983094 0.23330989 0.74602797
0.70083291 0.22981121 0.74707321
0.79415107 0.22718310 0.74784496
0.22337515 0.37340530 0.74747141
0.37579729 0.36976804 0.74862249
0.54439477 0.36643889 0.74964217
0.70050673 0.36321812 0.75059865
0.79640105 0.36077893 0.75130386
0.21232350 0.53102272 0.75081614
0.36798680 0.52973044 0.75066151
0.54320399 0.53085596 0.74781524
0.69910840 0.53198414 0.74508922
0.79196281 0.53286402 0.74304272
0.22056409 0.68724176 0.74463863
0.38011438 0.68627182 0.74154851
0.54866044 0.68543074 0.73875326
0.69770447 0.68465888 0.73607902
0.78726251 0.68410135 0.73407328
0.23317933 0.78667045 0.73712643
0.39069523 0.78461291 0.73408788
0.55357188 0.78276161 0.73134198
0.69685191 0.78099944 0.72871736
0.78354452 0.77968368 0.72675040
